/* XPM */
static char * East_xpm[] = {
"250 125 5261 2",
"  	c #010326",
". 	c #010325",
"+ 	c #01102E",
"@ 	c #001834",
"# 	c #001734",
"$ 	c #001735",
"% 	c #001433",
"& 	c #001331",
"* 	c #001432",
"= 	c #001533",
"- 	c #001332",
"; 	c #001231",
"> 	c #001030",
", 	c #000F2F",
"' 	c #000E2F",
") 	c #000C2D",
"! 	c #00092B",
"~ 	c #000529",
"{ 	c #010427",
"] 	c #010327",
"^ 	c #070120",
"/ 	c #050121",
"( 	c #020224",
"_ 	c #020124",
": 	c #040122",
"< 	c #050021",
"[ 	c #060020",
"} 	c #040121",
"| 	c #000B2D",
"1 	c #010A2C",
"2 	c #010428",
"3 	c #00052A",
"4 	c #00062B",
"5 	c #00062A",
"6 	c #000428",
"7 	c #010226",
"8 	c #010225",
"9 	c #020123",
"0 	c #030122",
"a 	c #08001C",
"b 	c #08001D",
"c 	c #030223",
"d 	c #000629",
"e 	c #00072A",
"f 	c #00092C",
"g 	c #000E30",
"h 	c #000D30",
"i 	c #00082C",
"j 	c #030123",
"k 	c #020225",
"l 	c #020325",
"m 	c #000528",
"n 	c #000729",
"o 	c #00092A",
"p 	c #000C2C",
"q 	c #000B2C",
"r 	c #000A2C",
"s 	c #00082B",
"t 	c #000D2D",
"u 	c #000E2E",
"v 	c #00102F",
"w 	c #010D2C",
"x 	c #020728",
"y 	c #040324",
"z 	c #040727",
"A 	c #040C2B",
"B 	c #020E2C",
"C 	c #010E2C",
"D 	c #000F2D",
"E 	c #001330",
"F 	c #000D2E",
"G 	c #000A2B",
"H 	c #00082A",
"I 	c #010528",
"J 	c #020326",
"K 	c #020327",
"L 	c #02092B",
"M 	c #010A2D",
"N 	c #060221",
"O 	c #060220",
"P 	c #040223",
"Q 	c #000C2E",
"R 	c #01092B",
"S 	c #030225",
"T 	c #040123",
"U 	c #00112F",
"V 	c #001130",
"W 	c #001633",
"X 	c #001532",
"Y 	c #010C2B",
"Z 	c #010729",
"` 	c #010627",
" .	c #010F2D",
"..	c #01112E",
"+.	c #001634",
"@.	c #001B38",
"#.	c #001F3A",
"$.	c #001D39",
"%.	c #001B37",
"&.	c #001D3B",
"*.	c #060121",
"=.	c #070020",
"-.	c #040224",
";.	c #020427",
">.	c #020527",
",.	c #000F30",
"'.	c #010C2D",
").	c #020122",
"!.	c #09001C",
"~.	c #00072B",
"{.	c #000D2F",
"].	c #001132",
"^.	c #030224",
"/.	c #08001E",
"(.	c #07001F",
"_.	c #060120",
":.	c #01112F",
"<.	c #00203D",
"[.	c #001431",
"}.	c #001B36",
"|.	c #001C37",
"1.	c #001935",
"2.	c #001835",
"3.	c #001632",
"4.	c #01142F",
"5.	c #001A36",
"6.	c #001A35",
"7.	c #001F3C",
"8.	c #01082A",
"9.	c #010426",
"0.	c #06011F",
"a.	c #050122",
"b.	c #08001F",
"c.	c #001031",
"d.	c #040021",
"e.	c #020426",
"f.	c #040222",
"g.	c #001C39",
"h.	c #001C38",
"i.	c #00122F",
"j.	c #001732",
"k.	c #00213C",
"l.	c #00243D",
"m.	c #00203A",
"n.	c #001E3A",
"o.	c #00223B",
"p.	c #00233C",
"q.	c #00223C",
"r.	c #00213B",
"s.	c #001D38",
"t.	c #001230",
"u.	c #000F2E",
"v.	c #01072B",
"w.	c #050223",
"x.	c #000A2D",
"y.	c #020528",
"z.	c #050020",
"A.	c #000B2E",
"B.	c #01072A",
"C.	c #000C2F",
"D.	c #001936",
"E.	c #001E39",
"F.	c #00233D",
"G.	c #00253E",
"H.	c #00243E",
"I.	c #001836",
"J.	c #010629",
"K.	c #02092A",
"L.	c #06001F",
"M.	c #09001D",
"N.	c #030124",
"O.	c #00092D",
"P.	c #050324",
"Q.	c #01062A",
"R.	c #002640",
"S.	c #011A34",
"T.	c #011630",
"U.	c #002039",
"V.	c #023950",
"W.	c #023C53",
"X.	c #023C52",
"Y.	c #060222",
"Z.	c #07001E",
"`.	c #030426",
" +	c #020428",
".+	c #010429",
"++	c #01092C",
"@+	c #01082B",
"#+	c #020628",
"$+	c #020A2B",
"%+	c #040424",
"&+	c #050120",
"*+	c #09011C",
"=+	c #030324",
"-+	c #020929",
";+	c #020828",
">+	c #030728",
",+	c #020526",
"'+	c #020627",
")+	c #030526",
"!+	c #040325",
"~+	c #010B2D",
"{+	c #022D46",
"]+	c #01324C",
"^+	c #013049",
"/+	c #002741",
"(+	c #001D37",
"_+	c #001F39",
":+	c #002942",
"<+	c #00213A",
"[+	c #001F38",
"}+	c #001E38",
"|+	c #002843",
"1+	c #01314A",
"2+	c #01334C",
"3+	c #012943",
"4+	c #030828",
"5+	c #030527",
"6+	c #020829",
"7+	c #06001E",
"8+	c #040322",
"9+	c #030326",
"0+	c #012740",
"a+	c #033E54",
"b+	c #023B52",
"c+	c #01324A",
"d+	c #001E37",
"e+	c #01132D",
"f+	c #011934",
"g+	c #010828",
"h+	c #010626",
"i+	c #011A35",
"j+	c #013951",
"k+	c #013F57",
"l+	c #003951",
"m+	c #002B43",
"n+	c #02162F",
"o+	c #033045",
"p+	c #03364A",
"q+	c #05364A",
"r+	c #040D29",
"s+	c #040726",
"t+	c #040525",
"u+	c #030323",
"v+	c #040323",
"w+	c #070221",
"x+	c #070220",
"y+	c #050221",
"z+	c #050220",
"A+	c #07021F",
"B+	c #08011E",
"C+	c #07011F",
"D+	c #050423",
"E+	c #050222",
"F+	c #07011E",
"G+	c #07001D",
"H+	c #030729",
"I+	c #030829",
"J+	c #030627",
"K+	c #030325",
"L+	c #0A041C",
"M+	c #030425",
"N+	c #050321",
"O+	c #03092A",
"P+	c #050323",
"Q+	c #050322",
"R+	c #060321",
"S+	c #080220",
"T+	c #040624",
"U+	c #040826",
"V+	c #030A28",
"W+	c #04283E",
"X+	c #032C42",
"Y+	c #022A41",
"Z+	c #022239",
"`+	c #011831",
" @	c #00223D",
".@	c #002841",
"+@	c #002C46",
"@@	c #00314A",
"#@	c #020C29",
"$@	c #020727",
"%@	c #010928",
"&@	c #020726",
"*@	c #00233B",
"=@	c #002B45",
"-@	c #002740",
";@	c #00233E",
">@	c #021932",
",@	c #02233A",
"'@	c #032B41",
")@	c #042C42",
"!@	c #04243A",
"~@	c #030927",
"{@	c #040725",
"]@	c #040524",
"^@	c #08021F",
"/@	c #030626",
"(@	c #08011D",
"_@	c #09021B",
":@	c #030424",
"<@	c #07001C",
"[@	c #06011E",
"}@	c #042137",
"|@	c #04384B",
"1@	c #033348",
"2@	c #032A3F",
"3@	c #01132E",
"4@	c #00253F",
"5@	c #003047",
"6@	c #013D55",
"7@	c #013E57",
"8@	c #002C45",
"9@	c #010F2C",
"0@	c #020324",
"a@	c #010727",
"b@	c #022539",
"c@	c #022137",
"d@	c #02172F",
"e@	c #030B26",
"f@	c #01122C",
"g@	c #01142E",
"h@	c #010C29",
"i@	c #020826",
"j@	c #020625",
"k@	c #010B28",
"l@	c #020B27",
"m@	c #020D29",
"n@	c #01142D",
"o@	c #011A31",
"p@	c #011B33",
"q@	c #011C33",
"r@	c #021731",
"s@	c #02152F",
"t@	c #021832",
"u@	c #011C37",
"v@	c #01203A",
"w@	c #01213C",
"x@	c #01203B",
"y@	c #011E39",
"z@	c #011E3A",
"A@	c #011F3A",
"B@	c #021934",
"C@	c #011B36",
"D@	c #01203C",
"E@	c #011331",
"F@	c #060322",
"G@	c #070421",
"H@	c #05132B",
"I@	c #05172E",
"J@	c #05152D",
"K@	c #05142C",
"L@	c #050826",
"M@	c #030525",
"N@	c #010B2C",
"O@	c #001334",
"P@	c #001233",
"Q@	c #001534",
"R@	c #001736",
"S@	c #000F31",
"T@	c #030528",
"U@	c #001535",
"V@	c #001837",
"W@	c #001635",
"X@	c #001636",
"Y@	c #010D2F",
"Z@	c #050525",
"`@	c #050925",
" #	c #04172F",
".#	c #041730",
"+#	c #05132C",
"@#	c #040827",
"##	c #011936",
"$#	c #011F3B",
"%#	c #011E38",
"&#	c #01213A",
"*#	c #01223C",
"=#	c #01213B",
"-#	c #011F39",
";#	c #02122D",
">#	c #011932",
",#	c #011933",
"'#	c #01152F",
")#	c #020E2A",
"!#	c #020B28",
"~#	c #020A27",
"{#	c #020A28",
"]#	c #020425",
"^#	c #010B29",
"/#	c #01102A",
"(#	c #031D32",
"_#	c #022538",
":#	c #031C31",
"<#	c #020C27",
"[#	c #01112C",
"}#	c #010A28",
"|#	c #020525",
"1#	c #030B27",
"2#	c #020F2B",
"3#	c #011530",
"4#	c #011731",
"5#	c #02132E",
"6#	c #011C36",
"7#	c #012039",
"8#	c #01223D",
"9#	c #021330",
"0#	c #050A25",
"a#	c #04152E",
"b#	c #050F29",
"c#	c #050523",
"d#	c #001434",
"e#	c #001536",
"f#	c #001737",
"g#	c #050325",
"h#	c #050624",
"i#	c #06132B",
"j#	c #020A2A",
"k#	c #011533",
"l#	c #021931",
"m#	c #011D34",
"n#	c #011B32",
"o#	c #011830",
"p#	c #02112C",
"q#	c #020C28",
"r#	c #010A27",
"s#	c #020725",
"t#	c #020927",
"u#	c #020E28",
"v#	c #030D27",
"w#	c #021E35",
"x#	c #022439",
"y#	c #02374A",
"z#	c #0E6879",
"A#	c #0D6375",
"B#	c #0A5567",
"C#	c #024356",
"D#	c #01364A",
"E#	c #030B29",
"F#	c #020223",
"G#	c #02122B",
"H#	c #043243",
"I#	c #0B5564",
"J#	c #095F71",
"K#	c #086275",
"L#	c #0B6375",
"M#	c #0A6172",
"N#	c #03485D",
"O#	c #003851",
"P#	c #00334C",
"Q#	c #00304A",
"R#	c #002E48",
"S#	c #002A45",
"T#	c #002B46",
"U#	c #002844",
"V#	c #002541",
"W#	c #00213D",
"X#	c #001B39",
"Y#	c #001A38",
"Z#	c #001D3A",
"`#	c #001938",
" $	c #030D2C",
".$	c #03122E",
"+$	c #011836",
"@$	c #00233F",
"#$	c #002641",
"$$	c #01233E",
"%$	c #001131",
"&$	c #030427",
"*$	c #020529",
"=$	c #002440",
"-$	c #002642",
";$	c #02142F",
">$	c #030A2A",
",$	c #011231",
"'$	c #00203C",
")$	c #00203B",
"!$	c #002A44",
"~$	c #002944",
"{$	c #002842",
"]$	c #002B44",
"^$	c #002E46",
"/$	c #024358",
"($	c #065B6E",
"_$	c #075F71",
":$	c #086171",
"<$	c #095F70",
"[$	c #065667",
"}$	c #023143",
"|$	c #011931",
"1$	c #01112D",
"2$	c #002840",
"3$	c #00354A",
"4$	c #01475A",
"5$	c #066476",
"6$	c #0A6D7E",
"7$	c #0E6D7E",
"8$	c #0A6C7E",
"9$	c #066375",
"0$	c #014658",
"a$	c #003549",
"b$	c #00253D",
"c$	c #010E2B",
"d$	c #011E34",
"e$	c #033A4B",
"f$	c #075868",
"g$	c #096070",
"h$	c #086172",
"i$	c #076071",
"j$	c #06586B",
"k$	c #01394F",
"l$	c #002D45",
"m$	c #002742",
"n$	c #001F3B",
"o$	c #001E3C",
"p$	c #030F2D",
"q$	c #050424",
"r$	c #040C28",
"s$	c #001234",
"t$	c #001333",
"u$	c #001232",
"v$	c #00223F",
"w$	c #08011F",
"x$	c #001A39",
"y$	c #002F48",
"z$	c #00344D",
"A$	c #003A52",
"B$	c #044E63",
"C$	c #0B6374",
"D$	c #0A6375",
"E$	c #076274",
"F$	c #0A5C6C",
"G$	c #0A4D5B",
"H$	c #02263A",
"I$	c #010526",
"J$	c #02112D",
"K$	c #01253B",
"L$	c #013D52",
"M$	c #04485B",
"N$	c #0D6071",
"O$	c #0E6677",
"P$	c #0F6F7F",
"Q$	c #075063",
"R$	c #074E60",
"S$	c #05495D",
"T$	c #014157",
"U$	c #003950",
"V$	c #0C4855",
"W$	c #208991",
"X$	c #086677",
"Y$	c #055A6C",
"Z$	c #055163",
"`$	c #064F62",
" %	c #054B5E",
".%	c #02364C",
"+%	c #001E3B",
"@%	c #001C3A",
"#%	c #060623",
"$%	c #001133",
"%%	c #000E31",
"&%	c #020629",
"*%	c #000A2E",
"=%	c #000F32",
"-%	c #00203E",
";%	c #030727",
">%	c #01364B",
",%	c #04495D",
"'%	c #034C60",
")%	c #044E61",
"!%	c #065768",
"~%	c #075F6F",
"{%	c #197883",
"]%	c #084958",
"^%	c #00384F",
"/%	c #003D53",
"(%	c #01475C",
"_%	c #035568",
":%	c #055B6D",
"<%	c #065D6E",
"[%	c #055A6D",
"}%	c #035468",
"|%	c #00465B",
"1%	c #00374F",
"2%	c #002C44",
"3%	c #000828",
"4%	c #0B5462",
"5%	c #197782",
"6%	c #075F70",
"7%	c #055466",
"8%	c #044D61",
"9%	c #03465A",
"0%	c #002F45",
"a%	c #001937",
"b%	c #020C2C",
"c%	c #021632",
"d%	c #001032",
"e%	c #010C2E",
"f%	c #001C3B",
"g%	c #033B50",
"h%	c #064E60",
"i%	c #055366",
"j%	c #056072",
"k%	c #167783",
"l%	c #1B7C88",
"m%	c #021930",
"n%	c #003249",
"o%	c #013D54",
"p%	c #024459",
"q%	c #074D60",
"r%	c #074F61",
"s%	c #044E62",
"t%	c #003F55",
"u%	c #003B52",
"v%	c #00394F",
"w%	c #00364D",
"x%	c #00223A",
"y%	c #000A28",
"z%	c #0B4E59",
"A%	c #1F9099",
"B%	c #046878",
"C%	c #014D5F",
"D%	c #003248",
"E%	c #002A42",
"F%	c #00263F",
"G%	c #00243F",
"H%	c #060422",
"I%	c #02072A",
"J%	c #020A2C",
"K%	c #00092E",
"L%	c #001A3A",
"M%	c #001A37",
"N%	c #002B42",
"O%	c #002C43",
"P%	c #002D44",
"Q%	c #014053",
"R%	c #065666",
"S%	c #258B93",
"T%	c #115B68",
"U%	c #000928",
"V%	c #001D36",
"W%	c #003A53",
"X%	c #003C53",
"Y%	c #003E54",
"Z%	c #004257",
"`%	c #004458",
" &	c #00475C",
".&	c #004459",
"+&	c #003D54",
"@&	c #000F2C",
"#&	c #000B28",
"$&	c #156975",
"%&	c #24848D",
"&&	c #055566",
"*&	c #003A4E",
"=&	c #002D43",
"-&	c #00273F",
";&	c #010F30",
">&	c #00082D",
",&	c #010E2F",
"'&	c #002540",
")&	c #00384D",
"!&	c #015B6C",
"~&	c #137C87",
"{&	c #1B848F",
"]&	c #011D31",
"^&	c #000C29",
"/&	c #00344C",
"(&	c #00364E",
"_&	c #00374E",
":&	c #004359",
"<&	c #00475D",
"[&	c #024C61",
"}&	c #01495E",
"|&	c #00445A",
"1&	c #004057",
"2&	c #003F56",
"3&	c #00243B",
"4&	c #000D29",
"5&	c #11535C",
"6&	c #26969D",
"7&	c #096E7C",
"8&	c #015062",
"9&	c #003B51",
"0&	c #00354C",
"a&	c #002F46",
"b&	c #001335",
"c&	c #001033",
"d&	c #000A2F",
"e&	c #010529",
"f&	c #001637",
"g&	c #001939",
"h&	c #001B3B",
"i&	c #001D3C",
"j&	c #060021",
"k&	c #002F47",
"l&	c #00344A",
"m&	c #00374C",
"n&	c #014558",
"o&	c #085866",
"p&	c #298F96",
"q&	c #17636D",
"r&	c #000C28",
"s&	c #002239",
"t&	c #004158",
"u&	c #004259",
"v&	c #00455B",
"w&	c #004A5E",
"x&	c #015064",
"y&	c #015468",
"z&	c #004C61",
"A&	c #015367",
"B&	c #004159",
"C&	c #00132D",
"D&	c #000E29",
"E&	c #1B727A",
"F&	c #27888F",
"G&	c #065767",
"H&	c #014054",
"I&	c #00364C",
"J&	c #002E45",
"K&	c #002941",
"L&	c #00263E",
"M&	c #001738",
"N&	c #000C30",
"O&	c #001435",
"P&	c #002A43",
"Q&	c #003148",
"R&	c #003E53",
"S&	c #035E6E",
"T&	c #1A808A",
"U&	c #218C93",
"V&	c #022133",
"W&	c #000E2A",
"X&	c #004258",
"Y&	c #00465C",
"Z&	c #014B61",
"`&	c #014A5F",
" *	c #025267",
".*	c #03596D",
"+*	c #025468",
"@*	c #014C62",
"#*	c #00455C",
"$*	c #003E56",
"%*	c #003147",
"&*	c #001C33",
"**	c #000F2A",
"=*	c #165A63",
"-*	c #2FA1A5",
";*	c #178792",
">*	c #065F6F",
",*	c #003F57",
"'*	c #003B53",
")*	c #034A5E",
"!*	c #065468",
"~*	c #002E47",
"{*	c #013048",
"]*	c #012B46",
"^*	c #012A44",
"/*	c #00223E",
"(*	c #001436",
"_*	c #000B2F",
":*	c #000A30",
"<*	c #000B30",
"[*	c #02082A",
"}*	c #011130",
"|*	c #012C46",
"1*	c #012F49",
"2*	c #012E47",
"3*	c #01304A",
"4*	c #01324B",
"5*	c #00334B",
"6*	c #024F63",
"7*	c #025065",
"8*	c #003E55",
"9*	c #04596B",
"0*	c #117784",
"a*	c #299BA3",
"b*	c #186872",
"c*	c #00102A",
"d*	c #001831",
"e*	c #014D62",
"f*	c #02576A",
"g*	c #035E73",
"h*	c #025D71",
"i*	c #02566A",
"j*	c #014D61",
"k*	c #00435A",
"l*	c #00112C",
"m*	c #00112A",
"n*	c #1D7781",
"o*	c #2697A0",
"p*	c #0F7583",
"q*	c #035367",
"r*	c #00445B",
"s*	c #014459",
"t*	c #02495E",
"u*	c #00324B",
"v*	c #01314B",
"w*	c #012E48",
"x*	c #012843",
"y*	c #010D2D",
"z*	c #050022",
"A*	c #001E3D",
"B*	c #001838",
"C*	c #012641",
"D*	c #012D47",
"E*	c #013149",
"F*	c #012F47",
"G*	c #01384F",
"H*	c #07586C",
"I*	c #024157",
"J*	c #003C55",
"K*	c #004058",
"L*	c #0D737F",
"M*	c #23929B",
"N*	c #2A979D",
"O*	c #032536",
"P*	c #00253C",
"Q*	c #00485E",
"R*	c #015065",
"S*	c #02576B",
"T*	c #05677A",
"U*	c #046578",
"V*	c #045C70",
"W*	c #004358",
"X*	c #002139",
"Y*	c #00102B",
"Z*	c #094452",
"`*	c #157A87",
" =	c #137D8A",
".=	c #065A6A",
"+=	c #003A51",
"@=	c #034559",
"#=	c #054C60",
"$=	c #00324A",
"%=	c #003048",
"&=	c #01334B",
"*=	c #02334C",
"==	c #00213E",
"-=	c #011734",
";=	c #010E2D",
">=	c #011A36",
",=	c #012C47",
"'=	c #012F4A",
")=	c #002D46",
"!=	c #00334A",
"~=	c #024A5F",
"{=	c #034D61",
"]=	c #003A50",
"^=	c #003C54",
"/=	c #014259",
"(=	c #025568",
"_=	c #0C6D7E",
":=	c #1A7F8C",
"<=	c #0B515E",
"[=	c #00122B",
"}=	c #001D34",
"|=	c #002A40",
"1=	c #003347",
"2=	c #01465B",
"3=	c #025368",
"4=	c #046074",
"5=	c #05697C",
"6=	c #014559",
"7=	c #003247",
"8=	c #00283D",
"9=	c #001A32",
"0=	c #00112B",
"a=	c #0F5D6B",
"b=	c #197D8B",
"c=	c #0A6B7C",
"d=	c #014F63",
"e=	c #014158",
"f=	c #014256",
"g=	c #024D61",
"h=	c #02465B",
"i=	c #003149",
"j=	c #01314C",
"k=	c #012E49",
"l=	c #011D39",
"m=	c #010628",
"n=	c #050425",
"o=	c #010F2E",
"p=	c #011834",
"q=	c #012945",
"r=	c #012F48",
"s=	c #02344C",
"t=	c #01374E",
"u=	c #054F63",
"v=	c #023E53",
"w=	c #003C52",
"x=	c #004256",
"y=	c #0D6C7A",
"z=	c #147C8A",
"A=	c #147481",
"B=	c #011F33",
"C=	c #00152E",
"D=	c #00283E",
"E=	c #00394D",
"F=	c #01485D",
"G=	c #02576C",
"H=	c #045F74",
"I=	c #05687C",
"J=	c #066A7D",
"K=	c #025467",
"L=	c #014A5E",
"M=	c #035466",
"N=	c #013C4F",
"O=	c #002237",
"P=	c #001930",
"Q=	c #00182F",
"R=	c #002339",
"S=	c #00283C",
"T=	c #012A3E",
"U=	c #013042",
"V=	c #012A3F",
"W=	c #01283D",
"X=	c #01243B",
"Y=	c #012239",
"Z=	c #01223A",
"`=	c #012038",
" -	c #011C35",
".-	c #011B35",
"+-	c #011732",
"@-	c #011430",
"#-	c #02122F",
"$-	c #02102D",
"%-	c #020F2D",
"&-	c #020F2C",
"*-	c #020E2B",
"=-	c #020B29",
"--	c #030929",
";-	c #030A29",
">-	c #030928",
",-	c #040828",
"'-	c #040625",
")-	c #02384F",
"!-	c #013750",
"~-	c #001134",
"{-	c #001235",
"]-	c #000C31",
"^-	c #00213F",
"/-	c #013852",
"(-	c #014A63",
"_-	c #060122",
":-	c #040626",
"<-	c #030B2A",
"[-	c #030D2B",
"}-	c #030F2B",
"|-	c #030F2C",
"1-	c #01132F",
"2-	c #011631",
"3-	c #001B35",
"4-	c #011B34",
"5-	c #011A33",
"6-	c #001B34",
"7-	c #001D35",
"8-	c #011E35",
"9-	c #012036",
"0-	c #012439",
"a-	c #002037",
"b-	c #00172F",
"c-	c #00172E",
"d-	c #001B31",
"e-	c #002F43",
"f-	c #024458",
"g-	c #055264",
"h-	c #065D6F",
"i-	c #045164",
"j-	c #002D42",
"k-	c #001A30",
"l-	c #001830",
"m-	c #002338",
"n-	c #002036",
"o-	c #012237",
"p-	c #022438",
"q-	c #011F36",
"r-	c #011D36",
"s-	c #001C35",
"t-	c #011833",
"u-	c #011832",
"v-	c #01122E",
"w-	c #02102C",
"x-	c #030E2B",
"y-	c #030C2A",
"z-	c #020A29",
"A-	c #01334A",
"B-	c #002743",
"C-	c #01374F",
"D-	c #023850",
"E-	c #011330",
"F-	c #011531",
"G-	c #01293F",
"H-	c #012B40",
"I-	c #012F42",
"J-	c #00273C",
"K-	c #001E35",
"L-	c #00293E",
"M-	c #024B5E",
"N-	c #025063",
"O-	c #024D5E",
"P-	c #001F34",
"Q-	c #001C32",
"R-	c #002A3E",
"S-	c #003346",
"T-	c #003448",
"U-	c #034B5D",
"V-	c #045769",
"W-	c #025B6D",
"X-	c #02586C",
"Y-	c #015165",
"Z-	c #014E63",
"`-	c #01475D",
" ;	c #01475E",
".;	c #00415A",
"+;	c #003D56",
"@;	c #003952",
"#;	c #003751",
"$;	c #00324C",
"%;	c #030827",
"&;	c #020729",
"*;	c #023A52",
"=;	c #013D57",
"-;	c #001839",
";;	c #000D31",
">;	c #002945",
",;	c #01425D",
"';	c #02455F",
");	c #040627",
"!;	c #001B3A",
"~;	c #003049",
"{;	c #014457",
"];	c #02475A",
"^;	c #01485B",
"/;	c #025164",
"(;	c #025366",
"_;	c #034F61",
":;	c #02485A",
"<;	c #00374A",
"[;	c #013C4E",
"};	c #013446",
"|;	c #012134",
"1;	c #002438",
"2;	c #012135",
"3;	c #013547",
"4;	c #013B4E",
"5;	c #00384B",
"6;	c #024A5C",
"7;	c #035062",
"8;	c #024759",
"9;	c #01445A",
"0;	c #002F49",
"a;	c #002D47",
"b;	c #020E2E",
"c;	c #040426",
"d;	c #024B64",
"e;	c #013650",
"f;	c #00334D",
"g;	c #00425A",
"h;	c #00465D",
"i;	c #014E62",
"j;	c #025A6D",
"k;	c #02596B",
"l;	c #055A6B",
"m;	c #013B4D",
"n;	c #001E34",
"o;	c #001E33",
"p;	c #003145",
"q;	c #002E42",
"r;	c #014F61",
"s;	c #026173",
"t;	c #01576B",
"u;	c #066879",
"v;	c #0C7D8F",
"w;	c #0E8797",
"x;	c #1599A6",
"y;	c #1399A8",
"z;	c #1297A6",
"A;	c #1097A5",
"B;	c #0E8B9B",
"C;	c #015C71",
"D;	c #01586E",
"E;	c #01576D",
"F;	c #015B71",
"G;	c #003D55",
"H;	c #003A54",
"I;	c #003750",
"J;	c #002442",
"K;	c #002340",
"L;	c #040B2A",
"M;	c #011F38",
"N;	c #013A53",
"O;	c #013F59",
"P;	c #001537",
"Q;	c #001638",
"R;	c #001437",
"S;	c #001336",
"T;	c #002A46",
"U;	c #003B56",
"V;	c #01364F",
"W;	c #01253E",
"X;	c #020B2B",
"Y;	c #050828",
"Z;	c #002943",
"`;	c #00354F",
" >	c #003852",
".>	c #02556B",
"+>	c #035F75",
"@>	c #01546A",
"#>	c #014F64",
"$>	c #015469",
"%>	c #0E8492",
"&>	c #14919F",
"*>	c #1693A0",
"=>	c #168D9A",
"->	c #107F8E",
";>	c #127F8F",
">>	c #096B7C",
",>	c #025D70",
"'>	c #076878",
")>	c #065869",
"!>	c #013548",
"~>	c #00374B",
"{>	c #013649",
"]>	c #065A6B",
"^>	c #0B7080",
"/>	c #12808F",
"(>	c #168F9C",
"_>	c #14919E",
":>	c #14909E",
"<>	c #0C7C8B",
"[>	c #015268",
"}>	c #01566C",
"|>	c #046377",
"1>	c #014B62",
"2>	c #003B54",
"3>	c #003650",
"4>	c #00314B",
"5>	c #020F30",
"6>	c #013A54",
"7>	c #003752",
"8>	c #000E32",
"9>	c #002B47",
"0>	c #003F59",
"a>	c #00445C",
"b>	c #01576C",
"c>	c #01596F",
"d>	c #056D80",
"e>	c #1091A0",
"f>	c #1298A7",
"g>	c #1399A7",
"h>	c #1395A3",
"i>	c #0D8293",
"j>	c #0C7D8E",
"k>	c #02586B",
"l>	c #015B6E",
"m>	c #036375",
"n>	c #003447",
"o>	c #002F42",
"p>	c #003C4F",
"q>	c #014759",
"r>	c #01485A",
"s>	c #014C5F",
"t>	c #025668",
"u>	c #035B6C",
"v>	c #035A6B",
"w>	c #035769",
"x>	c #035667",
"y>	c #035668",
"z>	c #035B6E",
"A>	c #004055",
"B>	c #004157",
"C>	c #024C62",
"D>	c #024B63",
"E>	c #024861",
"F>	c #014860",
"G>	c #014A61",
"H>	c #01455E",
"I>	c #01354F",
"J>	c #00314C",
"K>	c #011232",
"L>	c #002946",
"M>	c #011132",
"N>	c #00072C",
"O>	c #012440",
"P>	c #050626",
"Q>	c #002D48",
"R>	c #024860",
"S>	c #014A62",
"T>	c #024D64",
"U>	c #024C65",
"V>	c #014961",
"W>	c #01445B",
"X>	c #014C61",
"Y>	c #01475B",
"Z>	c #045E6F",
"`>	c #045566",
" ,	c #055868",
".,	c #045868",
"+,	c #035465",
"@,	c #02495B",
"#,	c #014A5C",
"$,	c #01495B",
"%,	c #014B5D",
"&,	c #014859",
"*,	c #02495A",
"=,	c #045767",
"-,	c #035566",
";,	c #045667",
">,	c #055C6D",
",,	c #01485C",
"',	c #003F54",
"),	c #01465E",
"!,	c #014C66",
"~,	c #024E66",
"{,	c #024C63",
"],	c #024961",
"^,	c #02415A",
"/,	c #002F4A",
"(,	c #002E49",
"_,	c #011031",
":,	c #00364F",
"<,	c #02475F",
"[,	c #014C60",
"},	c #015266",
"|,	c #035A6C",
"1,	c #025566",
"2,	c #035869",
"3,	c #035B6B",
"4,	c #025163",
"5,	c #014A5D",
"6,	c #014758",
"7,	c #014051",
"8,	c #024153",
"9,	c #012637",
"0,	c #001C30",
"a,	c #001C2F",
"b,	c #002034",
"c,	c #002A3D",
"d,	c #002B3E",
"e,	c #012A3D",
"f,	c #00283B",
"g,	c #01283C",
"h,	c #002539",
"i,	c #002236",
"j,	c #001D33",
"k,	c #001B33",
"l,	c #001C34",
"m,	c #001931",
"n,	c #001932",
"o,	c #012B43",
"p,	c #012E45",
"q,	c #012A43",
"r,	c #01223B",
"s,	c #002542",
"t,	c #01243E",
"u,	c #000D2C",
"v,	c #000E2D",
"w,	c #011D38",
"x,	c #001F36",
"y,	c #012337",
"z,	c #01283B",
"A,	c #01263A",
"B,	c #012538",
"C,	c #01273A",
"D,	c #002538",
"E,	c #012033",
"F,	c #001E31",
"G,	c #001F32",
"H,	c #003D4E",
"I,	c #002335",
"J,	c #012032",
"K,	c #002638",
"L,	c #002E41",
"M,	c #002639",
"N,	c #012437",
"O,	c #012739",
"P,	c #001F35",
"Q,	c #002138",
"R,	c #01243F",
"S,	c #002441",
"T,	c #002643",
"U,	c #012640",
"V,	c #02334B",
"W,	c #012D45",
"X,	c #00263A",
"Y,	c #00273B",
"Z,	c #00273A",
"`,	c #00293D",
" '	c #001D31",
".'	c #011E31",
"+'	c #013445",
"@'	c #024B5B",
"#'	c #0B6F81",
"$'	c #023847",
"%'	c #001A2E",
"&'	c #001B2E",
"*'	c #00182E",
"='	c #00182D",
"-'	c #00192D",
";'	c #001B2F",
">'	c #001D30",
",'	c #012738",
"''	c #125460",
")'	c #287078",
"!'	c #28747D",
"~'	c #1A6A77",
"{'	c #0B6474",
"]'	c #066373",
"^'	c #056071",
"/'	c #076172",
"('	c #066072",
"_'	c #055C6E",
":'	c #03566A",
"<'	c #003850",
"['	c #00354E",
"}'	c #022F47",
"|'	c #01092A",
"1'	c #000429",
"2'	c #012840",
"3'	c #012E46",
"4'	c #012D46",
"5'	c #035366",
"6'	c #04576A",
"7'	c #05596C",
"8'	c #045A6C",
"9'	c #045D6F",
"0'	c #086070",
"a'	c #0B606D",
"b'	c #247078",
"c'	c #2F787E",
"d'	c #1E5C65",
"e'	c #012536",
"f'	c #002032",
"g'	c #011F32",
"h'	c #011D30",
"i'	c #011B2E",
"j'	c #011C2F",
"k'	c #012839",
"l'	c #046171",
"m'	c #012E3F",
"n'	c #011F31",
"o'	c #002033",
"p'	c #012133",
"q'	c #022A3B",
"r'	c #1A515B",
"s'	c #25636B",
"t'	c #185A65",
"u'	c #075160",
"v'	c #055262",
"w'	c #034E5F",
"x'	c #034C5E",
"y'	c #034B5E",
"z'	c #03495C",
"A'	c #014659",
"B'	c #024055",
"C'	c #01233C",
"D'	c #00102E",
"E'	c #01253F",
"F'	c #01263F",
"G'	c #01273F",
"H'	c #012941",
"I'	c #013C51",
"J'	c #034C5F",
"K'	c #045163",
"L'	c #045364",
"M'	c #045264",
"N'	c #045263",
"O'	c #0B5666",
"P'	c #195A67",
"Q'	c #215E69",
"R'	c #1C5762",
"S'	c #053746",
"T'	c #002134",
"U'	c #001B30",
"V'	c #001A2F",
"W'	c #001A2D",
"X'	c #075C6B",
"Y'	c #096D7E",
"Z'	c #055667",
"`'	c #001F31",
" )	c #063A47",
".)	c #1F929B",
"+)	c #39C7C9",
"@)	c #30BCC2",
"#)	c #1A98A4",
"$)	c #0B8393",
"%)	c #088292",
"&)	c #087C8D",
"*)	c #0B7A8B",
"=)	c #0A7889",
"-)	c #096F80",
";)	c #066579",
">)	c #03596E",
",)	c #01485E",
"')	c #003953",
"))	c #00344E",
"!)	c #013C56",
"~)	c #01405A",
"{)	c #02445E",
"])	c #02415B",
"^)	c #023C55",
"/)	c #010527",
"()	c #010C2C",
"_)	c #014059",
":)	c #013F5A",
"<)	c #046277",
"[)	c #056F83",
"})	c #067488",
"|)	c #067689",
"1)	c #067D8F",
"2)	c #098191",
"3)	c #0C8292",
"4)	c #2EADB1",
"5)	c #43CAC6",
"6)	c #2EA1A6",
"7)	c #043240",
"8)	c #011D2F",
"9)	c #012132",
"0)	c #012233",
"a)	c #01293A",
"b)	c #035260",
"c)	c #012F3F",
"d)	c #011E30",
"e)	c #012031",
"f)	c #011F30",
"g)	c #0B4F5A",
"h)	c #33A9AC",
"i)	c #45CAC7",
"j)	c #2BA8AE",
"k)	c #0E8695",
"l)	c #0B8696",
"m)	c #078092",
"n)	c #077C8F",
"o)	c #077A8E",
"p)	c #067286",
"q)	c #036479",
"r)	c #035B70",
"s)	c #013D56",
"t)	c #01445E",
"u)	c #01425C",
"v)	c #013B54",
"w)	c #030628",
"x)	c #060022",
"y)	c #010829",
"z)	c #011230",
"A)	c #02405A",
"B)	c #024761",
"C)	c #01405B",
"D)	c #003B55",
"E)	c #015066",
"F)	c #086D81",
"G)	c #0C7889",
"H)	c #0C7F90",
"I)	c #0C8091",
"J)	c #098293",
"K)	c #0A8898",
"L)	c #118C9B",
"M)	c #25A7B1",
"N)	c #3AC9CC",
"O)	c #34BCC0",
"P)	c #116E79",
"Q)	c #001D2F",
"R)	c #044D5D",
"S)	c #044E5E",
"T)	c #034859",
"U)	c #024757",
"V)	c #014657",
"W)	c #014757",
"X)	c #014556",
"Y)	c #035060",
"Z)	c #04616F",
"`)	c #066B79",
" !	c #022E3E",
".!	c #194653",
"+!	c #36A8AD",
"@!	c #29AAB0",
"#!	c #1596A2",
"$!	c #038091",
"%!	c #027386",
"&!	c #026E82",
"*!	c #016478",
"=!	c #015D72",
"-!	c #01596E",
";!	c #00475E",
">!	c #013B55",
",!	c #03142F",
"'!	c #01263D",
")!	c #011C39",
"!!	c #040526",
"~!	c #021333",
"{!	c #021434",
"]!	c #021535",
"^!	c #021030",
"/!	c #011131",
"(!	c #021332",
"_!	c #011D37",
":!	c #01233B",
"<!	c #024158",
"[!	c #021C33",
"}!	c #013D58",
"|!	c #015166",
"1!	c #015A6E",
"2!	c #015F73",
"3!	c #016578",
"4!	c #016C7F",
"5!	c #027687",
"6!	c #118A97",
"7!	c #239DA3",
"8!	c #42B6B7",
"9!	c #113B47",
"0!	c #046472",
"a!	c #046775",
"b!	c #025564",
"c!	c #014959",
"d!	c #024454",
"e!	c #014353",
"f!	c #014151",
"g!	c #013747",
"h!	c #013847",
"i!	c #013949",
"j!	c #023F4E",
"k!	c #024F5E",
"l!	c #03606F",
"m!	c #045563",
"n!	c #012436",
"o!	c #27626A",
"p!	c #36AFB1",
"q!	c #26A1A7",
"r!	c #118896",
"s!	c #027486",
"t!	c #016A7E",
"u!	c #016276",
"v!	c #015D71",
"w!	c #01586C",
"x!	c #014D63",
"y!	c #013751",
"z!	c #050B27",
"A!	c #022C41",
"B!	c #013C53",
"C!	c #021733",
"D!	c #050123",
"E!	c #02102F",
"F!	c #020F2F",
"G!	c #030B2B",
"H!	c #030A2B",
"I!	c #021232",
"J!	c #021131",
"K!	c #050726",
"L!	c #021A36",
"M!	c #021833",
"N!	c #012940",
"O!	c #022840",
"P!	c #03102C",
"Q!	c #012B44",
"R!	c #02435E",
"S!	c #002C47",
"T!	c #00495E",
"U!	c #015E72",
"V!	c #01667A",
"W!	c #026F83",
"X!	c #027487",
"Y!	c #0B8C9A",
"Z!	c #21A2AB",
"`!	c #2FB4B7",
" ~	c #2D8A91",
".~	c #052B3B",
"+~	c #034856",
"@~	c #055F6C",
"#~	c #045462",
"$~	c #023E4D",
"%~	c #013B4B",
"&~	c #013D4D",
"*~	c #026879",
"=~	c #11B3C4",
"-~	c #08AFBF",
";~	c #03ADBE",
">~	c #03B0C1",
",~	c #10BDCD",
"'~	c #14BCCA",
")~	c #0C9EAB",
"!~	c #0A9DAD",
"~~	c #023D4E",
"{~	c #204C58",
"]~	c #46BFC0",
"^~	c #20A0AA",
"/~	c #018798",
"(~	c #018394",
"_~	c #017D8F",
":~	c #017B8E",
"<~	c #027285",
"[~	c #026A7E",
"}~	c #01667B",
"|~	c #016177",
"1~	c #01566D",
"2~	c #014E66",
"3~	c #004962",
"4~	c #003E58",
"5~	c #00334E",
"6~	c #00304B",
"7~	c #002E4A",
"8~	c #003D58",
"9~	c #013651",
"0~	c #02445C",
"a~	c #015570",
"b~	c #025973",
"c~	c #01546E",
"d~	c #004862",
"e~	c #00425C",
"f~	c #002744",
"g~	c #040B2B",
"h~	c #001D3D",
"i~	c #002543",
"j~	c #001E3E",
"k~	c #001A3B",
"l~	c #001739",
"m~	c #002141",
"n~	c #002A47",
"o~	c #001F3D",
"p~	c #002845",
"q~	c #014B64",
"r~	c #01536C",
"s~	c #035971",
"t~	c #035E78",
"u~	c #02546D",
"v~	c #003652",
"w~	c #003651",
"x~	c #003954",
"y~	c #00425B",
"z~	c #00455E",
"A~	c #004A61",
"B~	c #014D64",
"C~	c #016D80",
"D~	c #017386",
"E~	c #01788B",
"F~	c #017F91",
"G~	c #018696",
"H~	c #0F8B99",
"I~	c #50C1C3",
"J~	c #163F4A",
"K~	c #013343",
"L~	c #038796",
"M~	c #06A5B3",
"N~	c #0BB9C8",
"O~	c #0FBACC",
"P~	c #06B0C2",
"Q~	c #02A8BA",
"R~	c #06ABBD",
"S~	c #03A7B9",
"T~	c #03AABC",
"U~	c #06ACC0",
"V~	c #0DB4C6",
"W~	c #09B2C2",
"X~	c #059CAB",
"Y~	c #037987",
"Z~	c #012E3E",
"`~	c #346972",
" {	c #43BABA",
".{	c #098998",
"+{	c #018494",
"@{	c #017E8F",
"#{	c #017688",
"${	c #016F82",
"%{	c #01697E",
"&{	c #016378",
"*{	c #004B62",
"={	c #00475F",
"-{	c #00445D",
";{	c #00334F",
">{	c #03394F",
",{	c #035A73",
"'{	c #02526A",
"){	c #014C64",
"!{	c #00415B",
"~{	c #00304C",
"{{	c #011634",
"]{	c #002745",
"^{	c #002644",
"/{	c #002040",
"({	c #00193A",
"_{	c #001C3D",
":{	c #001F3F",
"<{	c #040D2C",
"[{	c #00324D",
"}{	c #00405A",
"|{	c #004660",
"1{	c #01526B",
"2{	c #015871",
"3{	c #01536D",
"4{	c #024159",
"5{	c #050524",
"6{	c #001733",
"7{	c #003C57",
"8{	c #002D49",
"9{	c #004059",
"0{	c #004861",
"a{	c #014F66",
"b{	c #01556B",
"c{	c #01586F",
"d{	c #016277",
"e{	c #01657A",
"f{	c #027387",
"g{	c #017A8E",
"h{	c #017C90",
"i{	c #018496",
"j{	c #028898",
"k{	c #34B4B7",
"l{	c #41A4A6",
"m{	c #092E3E",
"n{	c #012335",
"o{	c #067182",
"p{	c #0794A2",
"q{	c #10A8B5",
"r{	c #0FB7C7",
"s{	c #08B2C4",
"t{	c #03ACBE",
"u{	c #04AABC",
"v{	c #0DADBD",
"w{	c #0DAABA",
"x{	c #0BA2AF",
"y{	c #0798A7",
"z{	c #0594A4",
"A{	c #0796A5",
"B{	c #13A8B5",
"C{	c #15A7B3",
"D{	c #0BA4B1",
"E{	c #08AABB",
"F{	c #034253",
"G{	c #002235",
"H{	c #124B57",
"I{	c #30B6BD",
"J{	c #15A0AD",
"K{	c #018FA0",
"L{	c #01899A",
"M{	c #018395",
"N{	c #016176",
"O{	c #015C73",
"P{	c #01556D",
"Q{	c #015068",
"R{	c #00344F",
"S{	c #050725",
"T{	c #024A61",
"U{	c #035871",
"V{	c #035A74",
"W{	c #035973",
"X{	c #014B65",
"Y{	c #00455F",
"Z{	c #011030",
"`{	c #002240",
" ]	c #011432",
".]	c #004A64",
"+]	c #05647C",
"@]	c #06667D",
"#]	c #035C75",
"$]	c #02576F",
"%]	c #040E29",
"&]	c #015167",
"*]	c #026D81",
"=]	c #02788B",
"-]	c #017C8F",
";]	c #017E90",
">]	c #018C9D",
",]	c #09919F",
"']	c #3CB3B9",
")]	c #113C48",
"!]	c #023949",
"~]	c #05A6B6",
"{]	c #07AAB8",
"]]	c #0BA1AE",
"^]	c #11A3AF",
"/]	c #0993A1",
"(]	c #068E9C",
"_]	c #068B9A",
":]	c #07919F",
"<]	c #068D9B",
"[]	c #068F9D",
"}]	c #0A96A4",
"|]	c #12A8B4",
"1]	c #0CA7B4",
"2]	c #06ACBB",
"3]	c #0497A6",
"4]	c #023142",
"5]	c #2A656F",
"6]	c #33AEB4",
"7]	c #068F9F",
"8]	c #018A9B",
"9]	c #018293",
"0]	c #016B7F",
"a]	c #01586D",
"b]	c #004D65",
"c]	c #004961",
"d]	c #003C56",
"e]	c #020928",
"f]	c #034056",
"g]	c #025B75",
"h]	c #046179",
"i]	c #06647C",
"j]	c #035D74",
"k]	c #014E67",
"l]	c #002F4B",
"m]	c #020F2E",
"n]	c #010E2E",
"o]	c #00435E",
"p]	c #014A64",
"q]	c #025771",
"r]	c #035972",
"s]	c #035872",
"t]	c #013954",
"u]	c #003450",
"v]	c #003551",
"w]	c #003E59",
"x]	c #004A63",
"y]	c #01576E",
"z]	c #015D73",
"A]	c #026B7F",
"B]	c #017D90",
"C]	c #018A9C",
"D]	c #0291A2",
"E]	c #26AFB7",
"F]	c #2E9FA5",
"G]	c #052F3F",
"H]	c #002437",
"I]	c #067788",
"J]	c #06A7B5",
"K]	c #12A9B5",
"L]	c #17ADB9",
"M]	c #10A4B2",
"N]	c #0494A4",
"O]	c #0596A5",
"P]	c #099EAC",
"Q]	c #0A9CAA",
"R]	c #0899A7",
"S]	c #0797A6",
"T]	c #0795A5",
"U]	c #0998A7",
"V]	c #0797A5",
"W]	c #0592A2",
"X]	c #039BAC",
"Y]	c #0FB9CB",
"Z]	c #034C5C",
"`]	c #074957",
" ^	c #17A7B5",
".^	c #09A3B1",
"+^	c #0197A8",
"@^	c #018FA1",
"#^	c #026A7F",
"$^	c #015E75",
"%^	c #015970",
"&^	c #01516A",
"*^	c #004B64",
"=^	c #004661",
"-^	c #00425D",
";^	c #003A55",
">^	c #003853",
",^	c #013850",
"'^	c #004760",
")^	c #015069",
"!^	c #02556F",
"~^	c #004761",
"{^	c #003F58",
"]^	c #010D2E",
"^^	c #012842",
"/^	c #002C48",
"(^	c #004C64",
"_^	c #035E76",
":^	c #035C74",
"<^	c #014D66",
"[^	c #01445C",
"}^	c #040927",
"|^	c #00445E",
"1^	c #015067",
"2^	c #015F75",
"3^	c #027286",
"4^	c #017F92",
"5^	c #018596",
"6^	c #0192A3",
"7^	c #0396A5",
"8^	c #19A1AC",
"9^	c #053A47",
"0^	c #012234",
"a^	c #023C4C",
"b^	c #07B0C0",
"c^	c #04A7B6",
"d^	c #0691A0",
"e^	c #08919F",
"f^	c #08909E",
"g^	c #088D9B",
"h^	c #088B99",
"i^	c #098D9B",
"j^	c #098C9A",
"k^	c #078F9E",
"l^	c #0591A0",
"m^	c #05AEBD",
"n^	c #07A3B3",
"o^	c #023445",
"p^	c #15616B",
"q^	c #139EA9",
"r^	c #0295A4",
"s^	c #0190A1",
"t^	c #018495",
"u^	c #018193",
"v^	c #017589",
"w^	c #016F83",
"x^	c #01546B",
"y^	c #004860",
"z^	c #020C2A",
"A^	c #023349",
"B^	c #045F77",
"C^	c #025770",
"D^	c #023B53",
"E^	c #00415C",
"F^	c #012E4C",
"G^	c #004C65",
"H^	c #01526A",
"I^	c #026B80",
"J^	c #02778A",
"K^	c #0191A3",
"L^	c #029AAB",
"M^	c #11A8B5",
"N^	c #1894A0",
"O^	c #023041",
"P^	c #012A3B",
"Q^	c #098295",
"R^	c #08B3C3",
"S^	c #0396A6",
"T^	c #0693A2",
"U^	c #0897A6",
"V^	c #058B9B",
"W^	c #0792A1",
"X^	c #0991A1",
"Y^	c #0590A1",
"Z^	c #0296A8",
"`^	c #08ABBE",
" /	c #024F60",
"./	c #002336",
"+/	c #034250",
"@/	c #098E9C",
"#/	c #059FAF",
"$/	c #0194A5",
"%/	c #0190A2",
"&/	c #018EA0",
"*/	c #018697",
"=/	c #016279",
"-/	c #015169",
";/	c #003F5A",
">/	c #004560",
",/	c #004863",
"'/	c #015771",
")/	c #011736",
"!/	c #011E3B",
"~/	c #055D75",
"{/	c #02566E",
"]/	c #00435C",
"^/	c #00405B",
"//	c #00465F",
"(/	c #01536A",
"_/	c #015870",
":/	c #016379",
"</	c #018899",
"[/	c #018B9C",
"}/	c #018D9E",
"|/	c #0196A6",
"1/	c #0298A8",
"2/	c #078694",
"3/	c #023241",
"4/	c #024151",
"5/	c #04A0B1",
"6/	c #04A2B3",
"7/	c #0793A2",
"8/	c #078B9A",
"9/	c #078393",
"0/	c #067F8F",
"a/	c #078190",
"b/	c #078191",
"c/	c #078595",
"d/	c #078C9B",
"e/	c #0791A0",
"f/	c #0794A3",
"g/	c #03A6B6",
"h/	c #0595A5",
"i/	c #01394A",
"j/	c #04515E",
"k/	c #058997",
"l/	c #0193A4",
"m/	c #017A8D",
"n/	c #01687D",
"o/	c #01566E",
"p/	c #014C65",
"q/	c #004963",
"r/	c #00435D",
"s/	c #02233B",
"t/	c #014F67",
"u/	c #045A72",
"v/	c #03556D",
"w/	c #011434",
"x/	c #015770",
"y/	c #015A71",
"z/	c #01687E",
"A/	c #026D82",
"B/	c #027488",
"C/	c #01899B",
"D/	c #018C9E",
"E/	c #039BAB",
"F/	c #079DAB",
"G/	c #097E8B",
"H/	c #012B3C",
"I/	c #068193",
"J/	c #06A5B6",
"K/	c #0392A4",
"L/	c #0591A2",
"M/	c #0892A2",
"N/	c #0993A2",
"O/	c #0692A2",
"P/	c #058F9E",
"Q/	c #068494",
"R/	c #057B8A",
"S/	c #057686",
"T/	c #047687",
"U/	c #077E8E",
"V/	c #057F90",
"W/	c #048091",
"X/	c #038496",
"Y/	c #0290A2",
"Z/	c #014D5D",
"`/	c #012F40",
" (	c #026371",
".(	c #049CAC",
"+(	c #018799",
"@(	c #027588",
"#(	c #004762",
"$(	c #00405C",
"%(	c #02324A",
"&(	c #01415B",
"*(	c #01526C",
"=(	c #011D3B",
"-(	c #025C75",
";(	c #03566E",
">(	c #013A52",
",(	c #012A42",
"'(	c #015D74",
")(	c #018294",
"!(	c #0192A2",
"~(	c #01A0AF",
"{(	c #0399A9",
"](	c #036574",
"^(	c #012638",
"/(	c #012336",
"((	c #014254",
"_(	c #028598",
":(	c #038C9D",
"<(	c #058191",
"[(	c #057C8D",
"}(	c #037586",
"|(	c #046D7E",
"1(	c #036475",
"2(	c #046676",
"3(	c #046879",
"4(	c #047082",
"5(	c #04798A",
"6(	c #058091",
"7(	c #048595",
"8(	c #0393A4",
"9(	c #028193",
"0(	c #003C4E",
"a(	c #012D3E",
"b(	c #047383",
"c(	c #019CAB",
"d(	c #0192A1",
"e(	c #018E9F",
"f(	c #018B9B",
"g(	c #018698",
"h(	c #01677C",
"i(	c #015F76",
"j(	c #015B73",
"k(	c #014F68",
"l(	c #00445F",
"m(	c #011632",
"n(	c #021C34",
"o(	c #035A72",
"p(	c #025D74",
"q(	c #004A62",
"r(	c #01122F",
"s(	c #011A39",
"t(	c #01354E",
"u(	c #040425",
"v(	c #010A2B",
"w(	c #00324E",
"x(	c #015E74",
"y(	c #01657B",
"z(	c #026C81",
"A(	c #027589",
"B(	c #0297A8",
"C(	c #03909F",
"D(	c #024B58",
"E(	c #01293B",
"F(	c #002C3D",
"G(	c #027485",
"H(	c #0291A3",
"I(	c #048597",
"J(	c #048293",
"K(	c #068292",
"L(	c #047988",
"M(	c #067F8E",
"N(	c #046E7E",
"O(	c #025B6E",
"P(	c #046577",
"Q(	c #046376",
"R(	c #03677A",
"S(	c #04697C",
"T(	c #02677A",
"U(	c #014455",
"V(	c #012537",
"W(	c #025462",
"X(	c #07A1B0",
"Y(	c #09ACBC",
"Z(	c #0CACBC",
"`(	c #0DAEBF",
" _	c #0CAFC0",
"._	c #039CAC",
"+_	c #018497",
"@_	c #015972",
"#_	c #014B66",
"$_	c #015267",
"%_	c #02324B",
"&_	c #012B47",
"*_	c #002341",
"=_	c #02354D",
"-_	c #011433",
";_	c #01465D",
">_	c #015B70",
",_	c #035169",
"'_	c #02516B",
")_	c #004D66",
"!_	c #015B72",
"~_	c #01667C",
"{_	c #018093",
"]_	c #018B9D",
"^_	c #0299A9",
"/_	c #06AABB",
"(_	c #05AEC0",
"__	c #04BACA",
":_	c #0392A0",
"<_	c #025261",
"[_	c #014456",
"}_	c #016174",
"|_	c #026C80",
"1_	c #02687B",
"2_	c #026376",
"3_	c #025F72",
"4_	c #015568",
"5_	c #015669",
"6_	c #015D70",
"7_	c #026275",
"8_	c #03667A",
"9_	c #036C7F",
"0_	c #015E71",
"a_	c #013F50",
"b_	c #025F6D",
"c_	c #039FAF",
"d_	c #03B6C6",
"e_	c #03ABBC",
"f_	c #05A8BA",
"g_	c #04A3B3",
"h_	c #02768A",
"i_	c #026F84",
"j_	c #016278",
"k_	c #015A70",
"l_	c #01536B",
"m_	c #014D68",
"n_	c #014963",
"o_	c #023D53",
"p_	c #00203F",
"q_	c #023851",
"r_	c #02445B",
"s_	c #015A72",
"t_	c #016077",
"u_	c #016E82",
"v_	c #0191A2",
"w_	c #0AA9BA",
"x_	c #0AA8BA",
"y_	c #09A8B8",
"z_	c #08ABBB",
"A_	c #002A3B",
"B_	c #01586A",
"C_	c #036A7D",
"D_	c #046C7F",
"E_	c #04687C",
"F_	c #04687A",
"G_	c #056678",
"H_	c #015769",
"I_	c #025969",
"J_	c #025768",
"K_	c #024A5A",
"L_	c #024656",
"M_	c #014152",
"N_	c #013D4F",
"O_	c #013A4C",
"P_	c #013C4D",
"Q_	c #013E4F",
"R_	c #002E40",
"S_	c #013545",
"T_	c #025E6D",
"U_	c #048294",
"V_	c #0798AA",
"W_	c #0CACBE",
"X_	c #0DBFD0",
"Y_	c #05B8CA",
"Z_	c #02B6C8",
"`_	c #02B6C7",
" :	c #03B4C5",
".:	c #04AFC2",
"+:	c #049AAD",
"@:	c #03798C",
"#:	c #015366",
"$:	c #016479",
"%:	c #01546C",
"&:	c #025870",
"*:	c #003D57",
"=:	c #015269",
"-:	c #01415A",
";:	c #02364F",
">:	c #012E4A",
",:	c #002B48",
"':	c #02364E",
"):	c #000B2B",
"!:	c #01435C",
"~:	c #01465F",
"{:	c #01475F",
"]:	c #001430",
"^:	c #01546D",
"/:	c #015971",
"(:	c #015C74",
"_:	c #016F81",
"::	c #0198AA",
"<:	c #01A8BA",
"[:	c #02ADC0",
"}:	c #02B0C3",
"|:	c #02B2C5",
"1:	c #02B1C5",
"2:	c #02B9CC",
"3:	c #07BFD1",
"4:	c #05AEBF",
"5:	c #03A1B1",
"6:	c #037C8D",
"7:	c #015463",
"8:	c #01303F",
"9:	c #012334",
"0:	c #013041",
"a:	c #013C4C",
"b:	c #014252",
"c:	c #013A4B",
"d:	c #014050",
"e:	c #014253",
"f:	c #014354",
"g:	c #014153",
"h:	c #014555",
"i:	c #013040",
"j:	c #013A48",
"k:	c #026776",
"l:	c #048FA0",
"m:	c #03ABBB",
"n:	c #06B8C9",
"o:	c #07C3D4",
"p:	c #02B4C7",
"q:	c #01ADC0",
"r:	c #02AABD",
"s:	c #01A1B4",
"t:	c #015A6D",
"u:	c #015368",
"v:	c #015A73",
"w:	c #01566F",
"x:	c #01506A",
"y:	c #02566F",
"z:	c #024E68",
"A:	c #00354D",
"B:	c #025169",
"C:	c #01455F",
"D:	c #01445D",
"E:	c #023148",
"F:	c #023F58",
"G:	c #011532",
"H:	c #014D65",
"I:	c #01596B",
"J:	c #049CAF",
"K:	c #03A9BC",
"L:	c #04AFC1",
"M:	c #02B4C4",
"N:	c #02B5C6",
"O:	c #02B5C8",
"P:	c #08BDCF",
"Q:	c #10C1D1",
"R:	c #0CABBC",
"S:	c #089BAD",
"T:	c #047F90",
"U:	c #002133",
"V:	c #003B4C",
"W:	c #013F51",
"X:	c #024C5D",
"Y:	c #024555",
"Z:	c #015767",
"`:	c #003749",
" <	c #003446",
".<	c #013144",
"+<	c #012D3F",
"@<	c #004153",
"#<	c #015869",
"$<	c #016576",
"%<	c #026C7D",
"&<	c #026D7F",
"*<	c #026E7F",
"=<	c #027282",
"-<	c #027183",
";<	c #017183",
"><	c #026D80",
",<	c #02697D",
"'<	c #02667A",
")<	c #025E73",
"!<	c #02586F",
"~<	c #01425A",
"{<	c #012742",
"]<	c #010929",
"^<	c #010B2B",
"/<	c #010F2F",
"(<	c #01102F",
"_<	c #020C2D",
":<	c #021D39",
"<<	c #01203D",
"[<	c #01213D",
"}<	c #012340",
"|<	c #012642",
"1<	c #012540",
"2<	c #02223C",
"3<	c #010A2A",
"4<	c #013E55",
"5<	c #015168",
"6<	c #02677C",
"7<	c #017487",
"8<	c #017689",
"9<	c #017082",
"0<	c #017283",
"a<	c #017081",
"b<	c #016D7E",
"c<	c #016D7D",
"d<	c #016778",
"e<	c #015667",
"f<	c #012C3D",
"g<	c #012435",
"h<	c #01283A",
"i<	c #013143",
"j<	c #023C4E",
"k<	c #013E50",
"l<	c #023E4F",
"m<	c #02394B",
"n<	c #013647",
"o<	c #003244",
"p<	c #012E40",
"q<	c #013646",
"r<	c #024E5E",
"s<	c #016577",
"t<	c #027587",
"u<	c #017788",
"v<	c #01788A",
"w<	c #017B8D",
"x<	c #017C8E",
"y<	c #017E91",
"z<	c #014760",
"A<	c #010E2A",
"B<	c #01243C",
"C<	c #011733",
"D<	c #011D3A",
"E<	c #02213A",
"F<	c #012743",
"G<	c #012844",
"H<	c #01223F",
"I<	c #022641",
"J<	c #01263E",
"K<	c #010D2B",
"L<	c #010728",
"M<	c #025C73",
"N<	c #026378",
"O<	c #02687D",
"P<	c #027083",
"Q<	c #027789",
"R<	c #027B8C",
"S<	c #027C8D",
"T<	c #02798B",
"U<	c #02788A",
"V<	c #004557",
"W<	c #012D40",
"X<	c #003043",
"Y<	c #003345",
"Z<	c #003649",
"`<	c #015B6B",
" [	c #017383",
".[	c #015263",
"+[	c #004B5E",
"@[	c #00485A",
"#[	c #004456",
"$[	c #013345",
"%[	c #002234",
"&[	c #002135",
"*[	c #003144",
"=[	c #002E43",
"-[	c #002B40",
";[	c #00253B",
">[	c #001F37",
",[	c #001933",
"'[	c #001731",
")[	c #001E36",
"![	c #00263B",
"~[	c #002B3F",
"{[	c #013043",
"][	c #003042",
"^[	c #002537",
"/[	c #022D3E",
"([	c #032E3F",
"_[	c #022F40",
":[	c #012F41",
"<[	c #014557",
"[[	c #01495A",
"}[	c #014B5C",
"|[	c #014F5F",
"1[	c #016372",
"2[	c #015060",
"3[	c #014A5B",
"4[	c #014355",
"5[	c #013244",
"6[	c #022D3D",
"7[	c #022C3D",
"8[	c #022B3C",
"9[	c #002436",
"0[	c #002C3F",
"a[	c #013346",
"b[	c #00273D",
"c[	c #00263C",
"d[	c #010C2A",
"e[	c #010A29",
"f[	c #000527",
"g[	c #00142F",
"h[	c #001A34",
"i[	c #00243A",
"j[	c #002F44",
"k[	c #01374A",
"l[	c #002337",
"m[	c #013749",
"n[	c #014052",
"o[	c #004759",
"p[	c #004C5E",
"q[	c #016172",
"r[	c #027988",
"s[	c #08A3B0",
"t[	c #0398A5",
"u[	c #018999",
"v[	c #018595",
"w[	c #018090",
"x[	c #017182",
"y[	c #015F70",
"z[	c #005463",
"A[	c #014F5E",
"B[	c #01505F",
"C[	c #015A69",
"D[	c #015E6D",
"E[	c #015F6D",
"F[	c #015866",
"G[	c #014E5D",
"H[	c #002739",
"I[	c #00192E",
"J[	c #00172D",
"K[	c #00162D",
"L[	c #001A31",
"M[	c #013748",
"N[	c #025A6F",
"O[	c #056A7F",
"P[	c #077085",
"Q[	c #06687E",
"R[	c #046076",
"S[	c #055C72",
"T[	c #045369",
"U[	c #01344B",
"V[	c #011431",
"W[	c #010B2A",
"X[	c #023B51",
"Y[	c #075B71",
"Z[	c #086377",
"`[	c #07687B",
" }	c #07697E",
".}	c #066F82",
"+}	c #03697C",
"@}	c #001F33",
"#}	c #002637",
"$}	c #014F5C",
"%}	c #015C6A",
"&}	c #016573",
"*}	c #016675",
"=}	c #026472",
"-}	c #015665",
";}	c #015867",
">}	c #015B6A",
",}	c #017180",
"'}	c #018191",
")}	c #018997",
"!}	c #018796",
"~}	c #028997",
"{}	c #0799A6",
"]}	c #027F8D",
"^}	c #017E8C",
"/}	c #017F8E",
"(}	c #017888",
"_}	c #016271",
":}	c #014B5B",
"<}	c #024D5C",
"[}	c #014C5B",
"}}	c #014554",
"|}	c #014150",
"1}	c #013242",
"2}	c #002C40",
"3}	c #003F53",
"4}	c #025266",
"5}	c #046679",
"6}	c #06687C",
"7}	c #07677A",
"8}	c #086679",
"9}	c #076074",
"0}	c #044F65",
"a}	c #055369",
"b}	c #045F75",
"c}	c #06667B",
"d}	c #066B7F",
"e}	c #046175",
"f}	c #024B60",
"g}	c #012438",
"h}	c #00162E",
"i}	c #013E4D",
"j}	c #013F4E",
"k}	c #014352",
"l}	c #014656",
"m}	c #013D4E",
"n}	c #015A6C",
"o}	c #016F80",
"p}	c #017B8B",
"q}	c #017D8D",
"r}	c #018594",
"s}	c #03929F",
"t}	c #0EAEBB",
"u}	c #15C8D6",
"v}	c #0CBFCD",
"w}	c #00A5B4",
"x}	c #00A1B1",
"y}	c #019FAE",
"z}	c #019BAB",
"A}	c #0196A7",
"B}	c #018B9A",
"C}	c #01A0B0",
"D}	c #01A6B7",
"E}	c #01ABBB",
"F}	c #01A7B8",
"G}	c #01A4B5",
"H}	c #01A1B2",
"I}	c #0190A0",
"J}	c #013546",
"K}	c #012034",
"L}	c #023244",
"M}	c #126573",
"N}	c #0E6F7E",
"O}	c #036F82",
"P}	c #048295",
"Q}	c #047D92",
"R}	c #04768C",
"S}	c #04677C",
"T}	c #02546B",
"U}	c #046B80",
"V}	c #05798C",
"W}	c #047C90",
"X}	c #04778B",
"Y}	c #04687B",
"Z}	c #097181",
"`}	c #0B6C7C",
" |	c #001E32",
".|	c #00293C",
"+|	c #013344",
"@|	c #015766",
"#|	c #0193A2",
"$|	c #01A9B8",
"%|	c #01ACBC",
"&|	c #01AEBD",
"*|	c #01ADBC",
"=|	c #01A6B5",
"-|	c #0193A3",
";|	c #0194A4",
">|	c #0199A9",
",|	c #019DAC",
"'|	c #00A3B1",
")|	c #00A4B2",
"!|	c #06B3C1",
"~|	c #14C6D2",
"{|	c #06B6C3",
"]|	c #00A6B3",
"^|	c #00A5B2",
"/|	c #019EAD",
"(|	c #0198A7",
"_|	c #0191A0",
":|	c #0199A8",
"<|	c #01ACBB",
"[|	c #01B2C0",
"}|	c #01B4C3",
"||	c #01B3C3",
"1|	c #01ACBA",
"2|	c #018695",
"3|	c #014251",
"4|	c #002A3C",
"5|	c #00283A",
"6|	c #044556",
"7|	c #076272",
"8|	c #066676",
"9|	c #036B7E",
"0|	c #047D90",
"a|	c #058397",
"b|	c #05788C",
"c|	c #03657A",
"d|	c #070320",
"e|	c #025970",
"f|	c #046E83",
"g|	c #057A8F",
"h|	c #058296",
"i|	c #04879A",
"j|	c #036A7C",
"k|	c #0D6473",
"l|	c #0D5161",
"m|	c #01293C",
"n|	c #001C31",
"o|	c #002C3E",
"p|	c #013141",
"q|	c #015C6D",
"r|	c #019FB0",
"s|	c #01A8B8",
"t|	c #01A9BA",
"u|	c #01AFBF",
"v|	c #01AEBE",
"w|	c #018C9B",
"x|	c #018D9D",
"y|	c #019DAE",
"z|	c #00A3B2",
"A|	c #04B1C0",
"B|	c #14CBD9",
"C|	c #12C1CF",
"D|	c #01AAB8",
"E|	c #01A1AF",
"F|	c #00A6B5",
"G|	c #00A4B3",
"H|	c #018092",
"I|	c #01778A",
"J|	c #016777",
"K|	c #003041",
"L|	c #024A58",
"M|	c #0D7A88",
"N|	c #199BAA",
"O|	c #1597A7",
"P|	c #016377",
"Q|	c #01596D",
"R|	c #025165",
"S|	c #01677A",
"T|	c #047689",
"U|	c #1195A5",
"V|	c #18A0AD",
"W|	c #0B7B8A",
"X|	c #002B3D",
"Y|	c #015161",
"Z|	c #037E8C",
"`|	c #027787",
" 1	c #017384",
".1	c #017B8C",
"+1	c #017F90",
"@1	c #018192",
"#1	c #018898",
"$1	c #009FAE",
"%1	c #00A1B0",
"&1	c #019EAC",
"*1	c #019FAD",
"=1	c #019FAC",
"-1	c #00A1AF",
";1	c #018797",
">1	c #017687",
",1	c #016F7F",
"'1	c #027584",
")1	c #02707E",
"!1	c #035867",
"~1	c #138895",
"{1	c #159DAB",
"]1	c #0E8E9F",
"^1	c #027185",
"/1	c #03596C",
"(1	c #013C52",
"_1	c #011835",
":1	c #025B6F",
"<1	c #057386",
"[1	c #1999AA",
"}1	c #1896A5",
"|1	c #0A6B79",
"11	c #013F4D",
"21	c #003748",
"31	c #01596A",
"41	c #016475",
"51	c #016E7F",
"61	c #01A5B3",
"71	c #01A7B5",
"81	c #00B2C0",
"91	c #00A9B8",
"01	c #00A7B6",
"a1	c #01919F",
"b1	c #018091",
"c1	c #02AABA",
"d1	c #026B79",
"e1	c #013D4C",
"f1	c #0B6572",
"g1	c #149EAA",
"h1	c #1198A7",
"i1	c #0A8294",
"j1	c #026276",
"k1	c #00455A",
"l1	c #01697D",
"m1	c #0F8F9F",
"n1	c #119CAA",
"o1	c #0E717E",
"p1	c #013746",
"q1	c #036B79",
"r1	c #01AEBB",
"s1	c #019DAA",
"t1	c #018897",
"u1	c #017F8F",
"v1	c #018998",
"w1	c #018A9A",
"x1	c #0196A4",
"y1	c #00A6B4",
"z1	c #00A8B6",
"A1	c #00A7B5",
"B1	c #0196A5",
"C1	c #018C9C",
"D1	c #018393",
"E1	c #018292",
"F1	c #01A1AE",
"G1	c #02A1AF",
"H1	c #025868",
"I1	c #033A49",
"J1	c #0C7E8B",
"K1	c #1197A5",
"L1	c #057588",
"M1	c #003550",
"N1	c #03687B",
"O1	c #0C8697",
"P1	c #129BA9",
"Q1	c #11939F",
"R1	c #055360",
"S1	c #014756",
"T1	c #028492",
"U1	c #029BAB",
"V1	c #018E9D",
"W1	c #0197A6",
"X1	c #00ACBA",
"Y1	c #00AEBC",
"Z1	c #00B3C1",
"`1	c #00ABB8",
" 2	c #019DAB",
".2	c #018B99",
"+2	c #018F9E",
"@2	c #01A2B1",
"#2	c #04C6D5",
"$2	c #027D8B",
"%2	c #014553",
"&2	c #052839",
"*2	c #2FA4AC",
"=2	c #139AA7",
"-2	c #0C8B9B",
";2	c #057A8C",
">2	c #016275",
",2	c #015569",
"'2	c #00485F",
")2	c #060626",
"!2	c #021B34",
"~2	c #016074",
"{2	c #047688",
"]2	c #0E97A6",
"^2	c #34B7BD",
"/2	c #063643",
"(2	c #013B4A",
"_2	c #037381",
":2	c #01C1CF",
"<2	c #01A2AF",
"[2	c #018D9C",
"}2	c #0195A3",
"|2	c #01A4B2",
"12	c #00A8B5",
"22	c #00AAB7",
"32	c #0194A2",
"42	c #018D9B",
"52	c #01909F",
"62	c #01A8B4",
"72	c #02BBC9",
"82	c #175F69",
"92	c #2DB4BB",
"02	c #0C92A0",
"a2	c #036E81",
"b2	c #020D2B",
"c2	c #070321",
"d2	c #00435B",
"e2	c #00495F",
"f2	c #067B8D",
"g2	c #0D8D9C",
"h2	c #1BA4AF",
"i2	c #27858E",
"j2	c #011B30",
"k2	c #01515F",
"l2	c #029AA9",
"m2	c #03BBCA",
"n2	c #019BA9",
"o2	c #018A99",
"p2	c #00A9B7",
"q2	c #00B0BE",
"r2	c #019CAA",
"s2	c #0194A3",
"t2	c #04BFCE",
"u2	c #028391",
"v2	c #092A3A",
"w2	c #3EACB1",
"x2	c #189FAB",
"y2	c #0D91A0",
"z2	c #057B8D",
"A2	c #004C62",
"B2	c #003E57",
"C2	c #011E36",
"D2	c #004B61",
"E2	c #047386",
"F2	c #0B8F9F",
"G2	c #0D99A7",
"H2	c #30B9C1",
"I2	c #063A48",
"J2	c #027B89",
"K2	c #01C4D2",
"L2	c #01A2B0",
"M2	c #018896",
"N2	c #019CA9",
"O2	c #00A2B0",
"P2	c #00A3B0",
"Q2	c #00A9B6",
"R2	c #019BA8",
"S2	c #01A8B5",
"T2	c #02C1D0",
"U2	c #026876",
"V2	c #012A3C",
"W2	c #19656F",
"X2	c #2BB8C2",
"Y2	c #0C96A6",
"Z2	c #098798",
"`2	c #01677B",
" 3	c #004A5F",
".3	c #013F56",
"+3	c #001F3E",
"@3	c #004960",
"#3	c #01556A",
"$3	c #026477",
"%3	c #067F90",
"&3	c #0E92A2",
"*3	c #26ADB6",
"=3	c #388F95",
"-3	c #011C30",
";3	c #015967",
">3	c #039EAD",
",3	c #04B9C7",
"'3	c #019AA8",
")3	c #00A5B3",
"!3	c #00ACB9",
"~3	c #00ADBB",
"{3	c #00AAB8",
"]3	c #00A0AF",
"^3	c #02A0AD",
"/3	c #02B4C2",
"(3	c #018391",
"_3	c #015765",
":3	c #012235",
"<3	c #092D3D",
"[3	c #3FAEB4",
"}3	c #18A2AD",
"|3	c #0B95A5",
"13	c #047B8D",
"23	c #015C6F",
"33	c #004D63",
"43	c #011D35",
"53	c #014B63",
"63	c #004E64",
"73	c #01566B",
"83	c #046E80",
"93	c #0C98A6",
"03	c #23B4BE",
"a3	c #043B4A",
"b3	c #014857",
"c3	c #027F8E",
"d3	c #02BCCB",
"e3	c #0193A1",
"f3	c #01A0AD",
"g3	c #01A2AE",
"h3	c #01A3B0",
"i3	c #009EAC",
"j3	c #019AA7",
"k3	c #018C9A",
"l3	c #018A98",
"m3	c #0198A6",
"n3	c #017280",
"o3	c #11616E",
"p3	c #21B6C1",
"q3	c #0C96A5",
"r3	c #0A8797",
"s3	c #004A60",
"t3	c #01213E",
"u3	c #004E63",
"v3	c #047E8F",
"w3	c #0D96A5",
"x3	c #27AFB9",
"y3	c #389198",
"z3	c #016371",
"A3	c #02AAB8",
"B3	c #0197A5",
"C3	c #00AFBC",
"D3	c #0199A6",
"E3	c #018E9C",
"F3	c #01A7B6",
"G3	c #01A8B7",
"H3	c #01A8B6",
"I3	c #02C1D1",
"J3	c #016775",
"K3	c #072B3B",
"L3	c #36AAB2",
"M3	c #0F9BA9",
"N3	c #0894A4",
"O3	c #037C8F",
"P3	c #015369",
"Q3	c #004D64",
"R3	c #060526",
"S3	c #050625",
"T3	c #036E80",
"U3	c #0992A2",
"V3	c #1AB1BD",
"W3	c #033B4C",
"X3	c #01C8D7",
"Y3	c #01ABBA",
"Z3	c #01ADBB",
"`3	c #01ABB9",
" 4	c #01AAB9",
".4	c #018F9D",
"+4	c #01A4B0",
"@4	c #00ADBA",
"#4	c #01A4B1",
"$4	c #019EAB",
"%4	c #01ACB8",
"&4	c #019FAB",
"*4	c #01A5B2",
"=4	c #01A5B1",
"-4	c #01909E",
";4	c #019AA9",
">4	c #01A1B0",
",4	c #01AAB7",
"'4	c #02C5D4",
")4	c #0A5F6C",
"!4	c #18B2BE",
"~4	c #0993A3",
"{4	c #088798",
"]4	c #004C63",
"^4	c #080321",
"/4	c #004E65",
"(4	c #01576A",
"_4	c #016175",
":4	c #048092",
"<4	c #0995A5",
"[4	c #20ACB7",
"}4	c #308E97",
"|4	c #017986",
"14	c #02B5C4",
"24	c #01A3B1",
"34	c #01A4B3",
"44	c #01A3B3",
"54	c #019BAA",
"64	c #028E9D",
"74	c #02A1AE",
"84	c #00B2BF",
"94	c #00B8C5",
"04	c #00B7C4",
"a4	c #01B0BD",
"b4	c #00B9C6",
"c4	c #00B4C3",
"d4	c #01A9B7",
"e4	c #00BAC9",
"f4	c #00B5C4",
"g4	c #00B7C5",
"h4	c #00B6C6",
"i4	c #00B5C5",
"j4	c #00B4C4",
"k4	c #00B3C4",
"l4	c #00B3C3",
"m4	c #00B2C2",
"n4	c #00B1C1",
"o4	c #00B1C0",
"p4	c #00B1BE",
"q4	c #02C7D7",
"r4	c #032738",
"s4	c #1A97A3",
"t4	c #048F9F",
"u4	c #058E9F",
"v4	c #037B8E",
"w4	c #00465E",
"x4	c #011B37",
"y4	c #01435B",
"z4	c #015E73",
"A4	c #037688",
"B4	c #088D9E",
"C4	c #058F9F",
"D4	c #14AEBB",
"E4	c #005A68",
"F4	c #0195A5",
"G4	c #01C4D4",
"H4	c #00B6C4",
"I4	c #00B7C6",
"J4	c #00B9C8",
"K4	c #00BAC8",
"L4	c #01B4C1",
"M4	c #01ADBA",
"N4	c #00B5C2",
"O4	c #01ABB7",
"P4	c #01B1BE",
"Q4	c #00B6C3",
"R4	c #00B5C3",
"S4	c #00B8C6",
"T4	c #00B8C7",
"U4	c #00B0BF",
"V4	c #00B2C1",
"W4	c #01C2D3",
"X4	c #003243",
"Y4	c #075E6D",
"Z4	c #13B1BD",
"`4	c #0891A1",
" 5	c #068899",
".5	c #01697C",
"+5	c #020B2A",
"@5	c #01354D",
"#5	c #016579",
"$5	c #047E90",
"%5	c #0E9BA9",
"&5	c #1B828D",
"*5	c #01182E",
"=5	c #00293B",
"-5	c #017B88",
";5	c #02ACBB",
">5	c #01BECC",
",5	c #00B0BD",
"'5	c #00B6C5",
")5	c #00B3C2",
"!5	c #01A6B4",
"~5	c #00ABB9",
"{5	c #00B4C2",
"]5	c #00B4C1",
"^5	c #01C6D4",
"/5	c #01CAD9",
"(5	c #01C8D6",
"_5	c #01C5D4",
":5	c #00C0CF",
"<5	c #00BECD",
"[5	c #00C1D1",
"}5	c #00BFCF",
"|5	c #00B8C8",
"15	c #00B7C7",
"25	c #00B2C3",
"35	c #01C6D5",
"45	c #015F6E",
"55	c #078E9D",
"65	c #028D9D",
"75	c #038798",
"85	c #014E65",
"95	c #03576D",
"05	c #060323",
"a5	c #020C2B",
"b5	c #025269",
"c5	c #02576E",
"d5	c #014F65",
"e5	c #038194",
"f5	c #027A8C",
"g5	c #07A0AF",
"h5	c #005968",
"i5	c #00BFCD",
"j5	c #00B0C1",
"k5	c #00BBCA",
"l5	c #00BCCB",
"m5	c #00BDCC",
"n5	c #00C3D2",
"o5	c #00C5D3",
"p5	c #00BBC8",
"q5	c #00C1CE",
"r5	c #00C6D4",
"s5	c #00C6D5",
"t5	c #00C4D2",
"u5	c #00BFCE",
"v5	c #00BECE",
"w5	c #00BACA",
"x5	c #00B0C0",
"y5	c #01BAC9",
"z5	c #003547",
"A5	c #035868",
"B5	c #06A4B4",
"C5	c #03899A",
"D5	c #027B8D",
"E5	c #02778B",
"F5	c #014E64",
"G5	c #03586F",
"H5	c #01425B",
"I5	c #03586D",
"J5	c #037E90",
"K5	c #048899",
"L5	c #0393A3",
"M5	c #077A88",
"N5	c #00152D",
"O5	c #02A3B3",
"P5	c #01C0CE",
"Q5	c #00B9C9",
"R5	c #00C1CF",
"S5	c #00C2D1",
"T5	c #01CBDA",
"U5	c #00B9C7",
"V5	c #00AFBD",
"W5	c #00BECB",
"X5	c #01B7C5",
"Y5	c #01B8C6",
"Z5	c #00BDCD",
"`5	c #016474",
" 6	c #068A97",
".6	c #04909F",
"+6	c #048697",
"@6	c #048495",
"#6	c #02546A",
"$6	c #05657A",
"%6	c #055E73",
"&6	c #011935",
"*6	c #045D73",
"=6	c #04647A",
"-6	c #038698",
";6	c #058193",
">6	c #0692A1",
",6	c #0896A7",
"'6	c #003344",
")6	c #015A68",
"!6	c #01C6D6",
"~6	c #00BDCA",
"{6	c #00BECC",
"]6	c #00BAC7",
"^6	c #00BCC9",
"/6	c #00BFCC",
"(6	c #00BCCA",
"_6	c #035262",
":6	c #089EAD",
"<6	c #058A9B",
"[6	c #048193",
"}6	c #027D90",
"|6	c #01556C",
"16	c #077084",
"26	c #00455D",
"36	c #014058",
"46	c #066176",
"56	c #056277",
"66	c #038193",
"76	c #0395A4",
"86	c #057683",
"96	c #00152C",
"06	c #017585",
"a6	c #02A7B7",
"b6	c #01C2D0",
"c6	c #00B8C9",
"d6	c #00BACB",
"e6	c #01B6C3",
"f6	c #00C5D4",
"g6	c #00C0CE",
"h6	c #00C0D0",
"i6	c #01CDDC",
"j6	c #02CCDE",
"k6	c #01C7D8",
"l6	c #00B4C5",
"m6	c #016979",
"n6	c #067D8B",
"o6	c #058C9C",
"p6	c #0791A1",
"q6	c #02566D",
"r6	c #025D72",
"s6	c #067F91",
"t6	c #098999",
"u6	c #0D8E9E",
"v6	c #019AAA",
"w6	c #00AFBF",
"x6	c #00B5C6",
"y6	c #01C8D8",
"z6	c #01CDDD",
"A6	c #01C5D3",
"B6	c #00BBC9",
"C6	c #01CDDB",
"D6	c #02CEDE",
"E6	c #01C5D5",
"F6	c #00B6C7",
"G6	c #01C3D2",
"H6	c #034E5E",
"I6	c #0D9AA9",
"J6	c #0B91A0",
"K6	c #088596",
"L6	c #047487",
"M6	c #024F66",
"N6	c #02697C",
"O6	c #078A9B",
"P6	c #068FA0",
"Q6	c #048D9E",
"R6	c #046D7A",
"S6	c #017E8E",
"T6	c #02CCDD",
"U6	c #01CEDE",
"V6	c #02BCCC",
"W6	c #17CFDF",
"X6	c #0CCDDF",
"Y6	c #01BFCF",
"Z6	c #00BBCB",
"`6	c #01C2D1",
" 7	c #016776",
".7	c #066B7A",
"+7	c #0F909E",
"@7	c #1293A1",
"#7	c #087B8C",
"$7	c #057286",
"%7	c #004B63",
"&7	c #03687D",
"*7	c #097788",
"=7	c #1595A4",
"-7	c #1198A6",
";7	c #0B7988",
">7	c #015A6A",
",7	c #0191A1",
"'7	c #01BCCC",
")7	c #15CBDB",
"!7	c #18CDDD",
"~7	c #0ABECF",
"{7	c #0AC0CF",
"]7	c #16CCDB",
"^7	c #0EC6D6",
"/7	c #01BBCC",
"(7	c #01BCCB",
"_7	c #01A9B6",
":7	c #01B6C4",
"<7	c #013849",
"[7	c #034353",
"}7	c #0F8A99",
"|7	c #1194A2",
"17	c #118B9B",
"27	c #046B7E",
"37	c #046D80",
"47	c #047084",
"57	c #02596E",
"67	c #0A7E8F",
"77	c #1092A1",
"87	c #0D8A99",
"97	c #05606E",
"07	c #017989",
"a7	c #01B4C2",
"b7	c #01C0CF",
"c7	c #00BCCD",
"d7	c #02C1D2",
"e7	c #10CBDC",
"f7	c #0EC8D8",
"g7	c #01A7B7",
"h7	c #0195A6",
"i7	c #019BAC",
"j7	c #01A3B4",
"k7	c #02A8B9",
"l7	c #0CB3C3",
"m7	c #01BDCE",
"n7	c #01C1D3",
"o7	c #03C8DE",
"p7	c #03C6DC",
"q7	c #01C3D6",
"r7	c #01B8C7",
"s7	c #01C9D8",
"t7	c #015D6D",
"u7	c #0F8593",
"v7	c #1794A1",
"w7	c #0D7E8E",
"x7	c #036176",
"y7	c #025B70",
"z7	c #03667B",
"A7	c #02667D",
"B7	c #025E74",
"C7	c #1797A6",
"D7	c #118796",
"E7	c #045262",
"F7	c #015666",
"G7	c #0198A5",
"H7	c #01CCDA",
"I7	c #00C1D0",
"J7	c #00C4D4",
"K7	c #02CDE0",
"L7	c #02CBE1",
"M7	c #03CCDF",
"N7	c #02C6D8",
"O7	c #01B8C9",
"P7	c #0BA8B8",
"Q7	c #0DA5B6",
"R7	c #059FB1",
"S7	c #019DAF",
"T7	c #019BAD",
"U7	c #0198A8",
"V7	c #0196A8",
"W7	c #09A8BA",
"X7	c #12AFC0",
"Y7	c #0DB4C3",
"Z7	c #01BECF",
"`7	c #03CADC",
" 8	c #02CEE1",
".8	c #02CDE2",
"+8	c #00B1BF",
"@8	c #01CBD9",
"#8	c #01CBD8",
"$8	c #018D9A",
"%8	c #096B7A",
"&8	c #168E9D",
"*8	c #025F73",
"=8	c #036A80",
"-8	c #025B72",
";8	c #046E82",
">8	c #026075",
",8	c #0F8090",
"'8	c #1895A2",
")8	c #0D7D8B",
"!8	c #024453",
"~8	c #016E7E",
"{8	c #01AEBC",
"]8	c #01CCDB",
"^8	c #02CADF",
"/8	c #04C9DF",
"(8	c #02C9DE",
"_8	c #01C6D7",
":8	c #02BDCE",
"<8	c #0EBACA",
"[8	c #0BBACB",
"}8	c #01A8B9",
"|8	c #00A7B8",
"18	c #009BAC",
"28	c #015E70",
"38	c #016476",
"48	c #016879",
"58	c #01687B",
"68	c #016071",
"78	c #016677",
"88	c #017282",
"98	c #017A89",
"08	c #018493",
"a8	c #009BAA",
"b8	c #017685",
"c8	c #017482",
"d8	c #015E6E",
"e8	c #004354",
"f8	c #045061",
"g8	c #096576",
"h8	c #0E8696",
"i8	c #097B8E",
"j8	c #046A7E",
"k8	c #03647A",
"l8	c #077386",
"m8	c #076475",
"n8	c #014958",
"o8	c #016E7D",
"p8	c #017583",
"q8	c #017987",
"r8	c #018C99",
"s8	c #019DAD",
"t8	c #01A0AE",
"u8	c #017F8D",
"v8	c #017D8B",
"w8	c #016A79",
"x8	c #016274",
"y8	c #015F71",
"z8	c #01687A",
"A8	c #016A7C",
"B8	c #01697B",
"C8	c #016A7A",
"D8	c #016070",
"E8	c #017785",
"F8	c #00AAB9",
"G8	c #01A9B9",
"H8	c #01919E",
"I8	c #017C8A",
"J8	c #017B89",
"K8	c #086B7C",
"L8	c #087082",
"M8	c #057184",
"N8	c #036076",
"O8	c #02596F",
"P8	c #040527",
"Q8	c #070121",
"R8	c #056C81",
"S8	c #0B8194",
"T8	c #0E8595",
"U8	c #0A6979",
"V8	c #034E60",
"W8	c #015061",
"X8	c #016D7C",
"Y8	c #017A88",
"Z8	c #00A6B6",
"`8	c #018291",
" 9	c #018190",
".9	c #017181",
"+9	c #016978",
"@9	c #016E81",
"#9	c #016D7F",
"$9	c #016072",
"%9	c #003143",
"&9	c #003245",
"*9	c #003647",
"=9	c #003648",
"-9	c #003548",
";9	c #004152",
">9	c #002F41",
",9	c #012C40",
"'9	c #04586A",
")9	c #04697E",
"!9	c #060223",
"~9	c #014E68",
"{9	c #036078",
"]9	c #046279",
"^9	c #05647A",
"/9	c #045A6F",
"(9	c #023D50",
"_9	c #012E41",
":9	c #012B3D",
"<9	c #012C3F",
"[9	c #003D4F",
"}9	c #013243",
"|9	c #013848",
"19	c #003445",
"29	c #012C3E",
"39	c #034E61",
"49	c #035D71",
"59	c #02586E",
"69	c #056077",
"79	c #025D73",
"89	c #03667C",
"99	c #036075",
"09	c #035A6E",
"a9	c #055668",
"b9	c #004959",
"c9	c #014A5A",
"d9	c #004253",
"e9	c #00384A",
"f9	c #015160",
"g9	c #016C7B",
"h9	c #017B8A",
"i9	c #01B7C8",
"j9	c #01BFD0",
"k9	c #03C9DA",
"l9	c #03B3C2",
"m9	c #017988",
"n9	c #0296A4",
"o9	c #00142C",
"p9	c #011B31",
"q9	c #003449",
"r9	c #013F55",
"s9	c #013950",
"t9	c #01283F",
"u9	c #00243C",
"v9	c #030625",
"w9	c #040523",
"x9	c #070021",
"y9	c #080020",
"z9	c #030423",
"A9	c #012A41",
"B9	c #01364C",
"C9	c #013A4F",
"D9	c #00192F",
"E9	c #028F9E",
"F9	c #018392",
"G9	c #017C8B",
"H9	c #07B4C6",
"I9	c #01C4D5",
"J9	c #01C2D2",
"K9	c #016977",
"L9	c #003C4D",
"M9	c #002D3F",
"N9	c #01B1C0",
"O9	c #01B8C8",
"P9	c #01BACB",
"Q9	c #04BFD1",
"R9	c #017786",
"S9	c #017A8A",
"T9	c #012B3E",
"U9	c #01293D",
"V9	c #01374B",
"W9	c #024258",
"X9	c #013B51",
"Y9	c #013047",
"Z9	c #011C38",
"`9	c #020626",
" 0	c #020D2A",
".0	c #02485E",
"+0	c #013B4F",
"@0	c #00142D",
"#0	c #016574",
"$0	c #018795",
"%0	c #017382",
"&0	c #027686",
"*0	c #02BACA",
"=0	c #01B4C5",
"-0	c #01B3C4",
";0	c #01B2C3",
">0	c #015F6F",
",0	c #003546",
"'0	c #013142",
")0	c #00AFBE",
"!0	c #01C1D1",
"~0	c #01C3D3",
"{0	c #02C6D7",
"]0	c #03C0CF",
"^0	c #08BCCA",
"/0	c #0DC5D3",
"(0	c #14D0DD",
"_0	c #04C5D2",
":0	c #01BDCB",
"<0	c #02A9B9",
"[0	c #035969",
"}0	c #003E4F",
"|0	c #03303F",
"10	c #10636D",
"20	c #116671",
"30	c #0A616D",
"40	c #045261",
"50	c #024959",
"60	c #024556",
"70	c #034051",
"80	c #01394C",
"90	c #02394C",
"00	c #013549",
"a0	c #034256",
"b0	c #06495D",
"c0	c #06485C",
"d0	c #043F55",
"e0	c #013B52",
"f0	c #01364E",
"g0	c #02112E",
"h0	c #022039",
"i0	c #02243C",
"j0	c #022F46",
"k0	c #02354C",
"l0	c #034459",
"m0	c #04485C",
"n0	c #05485C",
"o0	c #084F61",
"p0	c #084F60",
"q0	c #034153",
"r0	c #024255",
"s0	c #034254",
"t0	c #023E51",
"u0	c #024253",
"v0	c #064C5B",
"w0	c #0D5764",
"x0	c #176B76",
"y0	c #016473",
"z0	c #01C1D0",
"A0	c #01BECD",
"B0	c #03CEDC",
"C0	c #04C6D4",
"D0	c #02B8C6",
"E0	c #06C0D2",
"F0	c #03C5D5",
"G0	c #01C7D6",
"H0	c #00C7D6",
"I0	c #00AEBE",
"J0	c #0093A0",
"K0	c #01717F",
"L0	c #016B7A",
"M0	c #01A5B4",
"N0	c #01C4D3",
"O0	c #00CAD9",
"P0	c #05CBDD",
"Q0	c #06BDCE",
"R0	c #02B1C0",
"S0	c #04CAD8",
"T0	c #02CAD8",
"U0	c #01BBCA",
"V0	c #029CAB",
"W0	c #0E4C57",
"X0	c #105763",
"Y0	c #074858",
"Z0	c #033F4F",
"`0	c #01394B",
" a	c #013648",
".a	c #023A4C",
"+a	c #033B4E",
"@a	c #023B4D",
"#a	c #054051",
"$a	c #074A5B",
"%a	c #054457",
"&a	c #034054",
"*a	c #034156",
"=a	c #023A4F",
"-a	c #022D44",
";a	c #02263D",
">a	c #031E36",
",a	c #031630",
"'a	c #040728",
")a	c #02253D",
"!a	c #023149",
"~a	c #01354C",
"{a	c #03384E",
"]a	c #054155",
"^a	c #054256",
"/a	c #033C4F",
"(a	c #022F42",
"_a	c #013245",
":a	c #044C5A",
"<a	c #095765",
"[a	c #0F5C67",
"}a	c #0D545F",
"|a	c #022637",
"1a	c #026E7E",
"2a	c #06C7D4",
"3a	c #13CFDC",
"4a	c #09BAC8",
"5a	c #04B4C3",
"6a	c #02AEBD",
"7a	c #04CBDB",
"8a	c #00C9DA",
"9a	c #01CADB",
"0a	c #01B9C9",
"aa	c #018F9F",
"ba	c #028495",
"ca	c #023345",
"da	c #037181",
"ea	c #00C0CD",
"fa	c #00BDCB",
"ga	c #00ABBA",
"ha	c #03C6D4",
"ia	c #05C0CD",
"ja	c #08B9C7",
"ka	c #02A0AE",
"la	c #01B7C6",
"ma	c #017080",
"na	c #033D4B",
"oa	c #1B98A1",
"pa	c #24B8BE",
"qa	c #2CC5CA",
"ra	c #22BAC3",
"sa	c #14AFBA",
"ta	c #0CA2AF",
"ua	c #139BAA",
"va	c #1D9AA8",
"wa	c #0F8496",
"xa	c #0C8093",
"ya	c #10899B",
"za	c #0B8093",
"Aa	c #0A7C90",
"Ba	c #0F7B8E",
"Ca	c #117B8E",
"Da	c #0A687E",
"Ea	c #024D67",
"Fa	c #014661",
"Ga	c #01445F",
"Ha	c #011535",
"Ia	c #024760",
"Ja	c #02465F",
"Ka	c #024C64",
"La	c #076178",
"Ma	c #0D7287",
"Na	c #127C8F",
"Oa	c #158090",
"Pa	c #147F90",
"Qa	c #128393",
"Ra	c #128697",
"Sa	c #128798",
"Ta	c #0C8495",
"Ua	c #0D8F9F",
"Va	c #149DA9",
"Wa	c #25B1BA",
"Xa	c #30BFC3",
"Ya	c #2BBBC2",
"Za	c #0D7C89",
"`a	c #025061",
" b	c #012639",
".b	c #02A5B3",
"+b	c #00ADBC",
"@b	c #00AEBD",
"#b	c #02C2CF",
"$b	c #00ABBB",
"%b	c #00A7B7",
"&b	c #01B0BF",
"*b	c #027080",
"=b	c #01BACA",
"-b	c #00A8B7",
";b	c #01B2C2",
">b	c #01C9D7",
",b	c #02CDDB",
"'b	c #0297A6",
")b	c #001D32",
"!b	c #035263",
"~b	c #1E8C95",
"{b	c #2EB4BA",
"]b	c #2AAEB3",
"^b	c #1D9EA7",
"/b	c #108C9A",
"(b	c #0B8493",
"_b	c #0A8292",
":b	c #0E8192",
"<b	c #128495",
"[b	c #128192",
"}b	c #128090",
"|b	c #17808F",
"1b	c #148192",
"2b	c #117B8F",
"3b	c #0A6C82",
"4b	c #055A71",
"5b	c #014962",
"6b	c #034963",
"7b	c #014560",
"8b	c #014964",
"9b	c #02506B",
"0b	c #0A6A7F",
"ab	c #107D90",
"bb	c #0B7D91",
"cb	c #0A7E90",
"db	c #108394",
"eb	c #0B7B8D",
"fb	c #118192",
"gb	c #1C96A3",
"hb	c #0F92A1",
"ib	c #16A6B2",
"jb	c #25B3BB",
"kb	c #2BBBBF",
"lb	c #21A8AF",
"mb	c #12747D",
"nb	c #01B9C8",
"ob	c #01B0C0",
"pb	c #04B1BF",
"qb	c #10CCD9",
"rb	c #08CBD9",
"sb	c #04CEDD",
"tb	c #048695",
"ub	c #026F80",
"vb	c #00A0AE",
"wb	c #03616D",
"xb	c #10B2BD",
"yb	c #14B4BD",
"zb	c #13ACB7",
"Ab	c #0CA2AE",
"Bb	c #0C9DAB",
"Cb	c #098C9C",
"Db	c #097F91",
"Eb	c #0A7487",
"Fb	c #036177",
"Gb	c #035E74",
"Hb	c #05687D",
"Ib	c #014861",
"Jb	c #02556C",
"Kb	c #046278",
"Lb	c #077B8D",
"Mb	c #088998",
"Nb	c #0D92A1",
"Ob	c #15A1AC",
"Pb	c #1BAAB3",
"Qb	c #16A5AF",
"Rb	c #13AEB9",
"Sb	c #036170",
"Tb	c #00B7C8",
"Ub	c #028292",
"Vb	c #028D9E",
"Wb	c #00ACBB",
"Xb	c #097D8A",
"Yb	c #14A5AF",
"Zb	c #1CAEB6",
"`b	c #1EB1B9",
" c	c #149FAB",
".c	c #0C92A2",
"+c	c #098899",
"@c	c #08798C",
"#c	c #036277",
"$c	c #046177",
"%c	c #06677C",
"&c	c #03536A",
"*c	c #035168",
"=c	c #034F65",
"-c	c #024A62",
";c	c #030C2C",
">c	c #066C81",
",c	c #0D7D90",
"'c	c #0B8899",
")c	c #0B96A5",
"!c	c #0CA3B0",
"~c	c #0FA8B3",
"{c	c #16B3BC",
"]c	c #17B7BF",
"^c	c #12A4AE",
"/c	c #045562",
"(c	c #0192A0",
"_c	c #01B2C1",
":c	c #01BDCC",
"<c	c #00AABA",
"[c	c #035A66",
"}c	c #0FAFBA",
"|c	c #0D9EAA",
"1c	c #088D9C",
"2c	c #098B9B",
"3c	c #04687D",
"4c	c #025F75",
"5c	c #026176",
"6c	c #067385",
"7c	c #088192",
"8c	c #088696",
"9c	c #098A98",
"0c	c #15B5BF",
"ac	c #045C6B",
"bc	c #00B1C2",
"cc	c #00ADBD",
"dc	c #00A8B8",
"ec	c #016C7C",
"fc	c #0B8591",
"gc	c #10A4AF",
"hc	c #098896",
"ic	c #098494",
"jc	c #098898",
"kc	c #025C72",
"lc	c #00314D",
"mc	c #03102E",
"nc	c #03697D",
"oc	c #067A8C",
"pc	c #0A8F9F",
"qc	c #098D9C",
"rc	c #0A94A1",
"sc	c #0EA4AF",
"tc	c #0CA0AB",
"uc	c #02515E",
"vc	c #00A2B1",
"wc	c #025563",
"xc	c #023446",
"yc	c #027B8A",
"zc	c #0397A5",
"Ac	c #026A79",
"Bc	c #026C7A",
"Cc	c #046673",
"Dc	c #1AB2BA",
"Ec	c #1497A3",
"Fc	c #098395",
"Gc	c #077B8E",
"Hc	c #04667B",
"Ic	c #011633",
"Jc	c #021431",
"Kc	c #004964",
"Lc	c #01576F",
"Mc	c #026077",
"Nc	c #036B80",
"Oc	c #047286",
"Pc	c #05788A",
"Qc	c #088291",
"Rc	c #17ACB7",
"Sc	c #05606D",
"Tc	c #01B1BF",
"Uc	c #027482",
"Vc	c #018290",
"Wc	c #016876",
"Xc	c #026E7C",
"Yc	c #028C99",
"Zc	c #01A7B4",
"`c	c #01A3B2",
" d	c #0C808C",
".d	c #119DA8",
"+d	c #057A8A",
"@d	c #057889",
"#d	c #067C8E",
"$d	c #036B7F",
"%d	c #026379",
"&d	c #030E2C",
"*d	c #04657B",
"=d	c #067487",
"-d	c #098495",
";d	c #088595",
">d	c #078291",
",d	c #149DA7",
"'d	c #15A5AE",
")d	c #025562",
"!d	c #017281",
"~d	c #00A3B3",
"{d	c #01828F",
"]d	c #026573",
"^d	c #0293A2",
"/d	c #028797",
"(d	c #00C3D3",
"_d	c #00C0D1",
":d	c #00BFD0",
"<d	c #00BDCE",
"[d	c #00A9B9",
"}d	c #01808F",
"|d	c #015B69",
"1d	c #086C78",
"2d	c #22ABB2",
"3d	c #27B2BB",
"4d	c #20B4C0",
"5d	c #0D96A4",
"6d	c #07778B",
"7d	c #067388",
"8d	c #04667C",
"9d	c #036077",
"0d	c #004B65",
"ad	c #014F69",
"bd	c #015E76",
"cd	c #03687E",
"dd	c #047185",
"ed	c #068495",
"fd	c #0B95A4",
"gd	c #22B1BA",
"hd	c #29B1BA",
"id	c #1CA1AB",
"jd	c #056373",
"kd	c #01798A",
"ld	c #019CAC",
"md	c #00A4B4",
"nd	c #00BECF",
"od	c #00C1D2",
"pd	c #00C3D4",
"qd	c #017A87",
"rd	c #01838F",
"sd	c #016B79",
"td	c #00C6D6",
"ud	c #00C2D2",
"vd	c #0E7C89",
"wd	c #1DA0AA",
"xd	c #22A3AD",
"yd	c #149AA7",
"zd	c #088B9B",
"Ad	c #067E90",
"Bd	c #057589",
"Cd	c #036379",
"Dd	c #01556E",
"Ed	c #025E75",
"Fd	c #087A8D",
"Gd	c #0A8899",
"Hd	c #0D94A2",
"Id	c #1BA7B3",
"Jd	c #21A9B3",
"Kd	c #1CA1A8",
"Ld	c #05616D",
"Md	c #00C4D3",
"Nd	c #01B3C2",
"Od	c #027683",
"Pd	c #03BACB",
"Qd	c #027E8D",
"Rd	c #00BBCC",
"Sd	c #01C1D2",
"Td	c #01BECE",
"Ud	c #01B7C9",
"Vd	c #028C9B",
"Wd	c #01606E",
"Xd	c #034A58",
"Yd	c #177C86",
"Zd	c #1E8893",
"`d	c #168A98",
" e	c #0A8394",
".e	c #077185",
"+e	c #067185",
"@e	c #05697E",
"#e	c #05667C",
"$e	c #021936",
"%e	c #025971",
"&e	c #026177",
"*e	c #02657B",
"=e	c #046F83",
"-e	c #078596",
";e	c #098E9D",
">e	c #1999A5",
",e	c #239DA6",
"'e	c #116F7B",
")e	c #055365",
"!e	c #013F4F",
"~e	c #026C7C",
"{e	c #01A4B6",
"]e	c #01A6B6",
"^e	c #01BBCD",
"/e	c #00B9CA",
"(e	c #00B3C0",
"_e	c #028698",
":e	c #01B4C4",
"<e	c #0199AA",
"[e	c #016375",
"}e	c #0A6877",
"|e	c #27AEB7",
"1e	c #16A4AF",
"2e	c #088E9E",
"3e	c #016178",
"4e	c #025670",
"5e	c #014A65",
"6e	c #066E83",
"7e	c #077286",
"8e	c #0B8999",
"9e	c #0E93A2",
"0e	c #1EA2AE",
"ae	c #259AA4",
"be	c #19828B",
"ce	c #034A57",
"de	c #01707F",
"ee	c #029DAC",
"fe	c #01AFC0",
"ge	c #00BDCF",
"he	c #02B0C1",
"ie	c #038A9B",
"je	c #0197A7",
"ke	c #019CAE",
"le	c #019EAF",
"me	c #01A0B1",
"ne	c #01A5B6",
"oe	c #01A5B7",
"pe	c #019FB1",
"qe	c #014A59",
"re	c #024557",
"se	c #024D60",
"te	c #045F71",
"ue	c #0A798B",
"ve	c #097C8E",
"we	c #0B7A8C",
"xe	c #0D7C8E",
"ye	c #0B7B8E",
"ze	c #076B80",
"Ae	c #05667D",
"Be	c #05657C",
"Ce	c #046078",
"De	c #045B73",
"Ee	c #013E56",
"Fe	c #02526B",
"Ge	c #055E75",
"He	c #04667D",
"Ie	c #066B81",
"Je	c #08798D",
"Ke	c #09788B",
"Le	c #087588",
"Me	c #08798B",
"Ne	c #024A5D",
"Oe	c #044E5F",
"Pe	c #00132C",
"Qe	c #014F60",
"Re	c #01A0B2",
"Se	c #019AAB",
"Te	c #01A2B4",
"Ue	c #01A3B5",
"Ve	c #019AAC",
"We	c #0198A9",
"Xe	c #01BBCB",
"Ye	c #0199A7",
"Ze	c #026675",
"`e	c #00ACBC",
" f	c #01A4B4",
".f	c #01A1B1",
"+f	c #00ACBD",
"@f	c #01ADBE",
"#f	c #01AABC",
"$f	c #085E6D",
"%f	c #077081",
"&f	c #0B8396",
"*f	c #097C8F",
"=f	c #087A8E",
"-f	c #097E91",
";f	c #05647B",
">f	c #045B72",
",f	c #013851",
"'f	c #011735",
")f	c #046077",
"!f	c #05657B",
"~f	c #086E82",
"{f	c #0C7E91",
"]f	c #0E7F91",
"^f	c #0B7F91",
"/f	c #0B8395",
"(f	c #0B7F92",
"_f	c #066A7B",
":f	c #035C6D",
"<f	c #054F60",
"[f	c #01606F",
"}f	c #028697",
"|f	c #02A1B3",
"1f	c #00A8B9",
"2f	c #01B1C1",
"3f	c #01ACBD",
"4f	c #01ABBC",
"5f	c #02BACB",
"6f	c #026F7F",
"7f	c #0199AB",
"8f	c #017083",
"9f	c #017284",
"0f	c #018597",
"af	c #016273",
"bf	c #004455",
"cf	c #003B4E",
"df	c #014154",
"ef	c #014357",
"ff	c #014458",
"gf	c #01465C",
"hf	c #014056",
"if	c #01455A",
"jf	c #024A60",
"kf	c #035266",
"lf	c #035165",
"mf	c #02495C",
"nf	c #00364B",
"of	c #003045",
"pf	c #013D50",
"qf	c #017485",
"rf	c #017C8D",
"sf	c #017586",
"tf	c #017486",
"uf	c #017385",
"vf	c #01A9BB",
"wf	c #002B3C",
"xf	c #01B5C4",
"yf	c #01B3C5",
"zf	c #017587",
"Af	c #017A8B",
"Bf	c #004A5D",
"Cf	c #00122C",
"Df	c #013D51",
"Ef	c #045A6D",
"Ff	c #045C71",
"Gf	c #024F64",
"Hf	c #01485F",
"If	c #01435A",
"Jf	c #01455D",
"Kf	c #024B62",
"Lf	c #025066",
"Mf	c #024E65",
"Nf	c #02485C",
"Of	c #014155",
"Pf	c #013E52",
"Qf	c #00364A",
"Rf	c #003348",
"Sf	c #01889B",
"Tf	c #018A9D",
"Uf	c #017588",
"Vf	c #017184",
"Wf	c #016A7B",
"Xf	c #002E3F",
"Yf	c #002D40",
"Zf	c #00162F",
"`f	c #00142E",
" g	c #00122D",
".g	c #00112D",
"+g	c #000A2A",
"@g	c #010D2A",
"#g	c #020827",
"$g	c #000C2B",
"%g	c #000929",
"&g	c #000D2B",
"*g	c #000E2B",
"=g	c #001B32",
"-g	c #003142",
";g	c #015968",
">g	c #015262",
",g	c #004454",
"'g	c #002439",
")g	c #00102C",
"!g	c #00122E",
"~g	c #001630",
"{g	c #00132F",
"]g	c #001530",
"^g	c #011A32",
"/g	c #021831",
"(g	c #021730",
"_g	c #01102C",
":g	c #040124",
"<g	c #011730",
"[g	c #00112E",
"}g	c #00102D",
"|g	c #001832",
"1g	c #001A33",
"2g	c #002136",
"3g	c #015565",
"4g	c #015564",
"5g	c #003A4B",
"6g	c #025A69",
"7g	c #002035",
"8g	c #013248",
"9g	c #003146",
"0g	c #021B31",
"ag	c #022D40",
"bg	c #04596A",
"cg	c #024154",
"dg	c #02394E",
"eg	c #032D43",
"fg	c #031D35",
"gg	c #041732",
"hg	c #040A29",
"ig	c #040B29",
"jg	c #040D2A",
"kg	c #041731",
"lg	c #031831",
"mg	c #021E36",
"ng	c #022D43",
"og	c #02364B",
"pg	c #034457",
"qg	c #045668",
"rg	c #025869",
"sg	c #03162F",
"tg	c #020D28",
"ug	c #011F37",
"vg	c #002A41",
"wg	c #012F45",
"xg	c #003046",
"yg	c #002E44",
"zg	c #002A3F",
"Ag	c #00263D",
"Bg	c #01263C",
"Cg	c #02182F",
"Dg	c #024658",
"Eg	c #033D4F",
"Fg	c #03384A",
"Gg	c #032F42",
"Hg	c #03263B",
"Ig	c #031A31",
"Jg	c #03102B",
"Kg	c #040F2B",
"Lg	c #050E2A",
"Mg	c #040A27",
"Ng	c #040928",
"Og	c #050E29",
"Pg	c #06102A",
"Qg	c #04142D",
"Rg	c #03273D",
"Sg	c #022C40",
"Tg	c #023C4D",
"Ug	c #034557",
"Vg	c #033C4E",
"Wg	c #021E34",
"Xg	c #02112B",
"Yg	c #002137",
"Zg	c #03A4B6",
"`g	c #014D5E",
" h	c #028294",
".h	c #015F72",
"+h	c #015B6F",
"@h	c #015A6F",
"#h	c #014C63",
"$h	c #020424",
"%h	c #084252",
"&h	c #068394",
"*h	c #0394A7",
"=h	c #03798E",
"-h	c #024F67",
";h	c #036378",
">h	c #04768A",
",h	c #0D5464",
"'h	c #02152D",
")h	c #015F74",
"!h	c #004F5F",
"~h	c #01798B",
"{h	c #014E5E",
"]h	c #016C7D",
"^h	c #016E80",
"/h	c #017686",
"(h	c #015063",
"_h	c #083847",
":h	c #028596",
"<h	c #038497",
"[h	c #056A7E",
"}h	c #02667B",
"|h	c #03788C",
"1h	c #048A9C",
"2h	c #057384",
"3h	c #073C4D",
"4h	c #01102B",
"5h	c #016B7C",
"6h	c #016C7E",
"7h	c #016679",
"8h	c #016173",
"9h	c #017889",
"0h	c #028B9D",
"ah	c #03A5B6",
"bh	c #023B4C",
"ch	c #045B6C",
"dh	c #06697D",
"eh	c #018296",
"fh	c #0291A6",
"gh	c #0296AB",
"hh	c #018A9E",
"ih	c #01889C",
"jh	c #018B9F",
"kh	c #028399",
"lh	c #018298",
"mh	c #01778C",
"nh	c #02687E",
"oh	c #017186",
"ph	c #01748A",
"qh	c #017287",
"rh	c #016B81",
"sh	c #02677E",
"th	c #01162F",
"uh	c #0E6270",
"vh	c #077184",
"wh	c #025F74",
"xh	c #034F64",
"yh	c #055C70",
"zh	c #077282",
"Ah	c #157D8B",
"Bh	c #022237",
"Ch	c #01637A",
"Dh	c #016D83",
"Eh	c #01657C",
"Fh	c #016A81",
"Gh	c #01778D",
"Hh	c #018095",
"Ih	c #018398",
"Jh	c #018598",
"Kh	c #018DA0",
"Lh	c #0294A8",
"Mh	c #0292A6",
"Nh	c #028DA1",
"Oh	c #018DA1",
"Ph	c #026F81",
"Qh	c #01A7B9",
"Rh	c #0197A9",
"Sh	c #027688",
"Th	c #018FA2",
"Uh	c #028EA2",
"Vh	c #0295AA",
"Wh	c #029BAE",
"Xh	c #0198AB",
"Yh	c #0192A6",
"Zh	c #018EA1",
"`h	c #01869A",
" i	c #01859A",
".i	c #028298",
"+i	c #02758A",
"@i	c #01647A",
"#i	c #01667D",
"$i	c #016A80",
"%i	c #016980",
"&i	c #030726",
"*i	c #0F5B68",
"=i	c #0E7E8E",
"-i	c #067D8E",
";i	c #057183",
">i	c #045E72",
",i	c #027E91",
"'i	c #088092",
")i	c #0E5E6C",
"!i	c #026C83",
"~i	c #016C81",
"{i	c #017288",
"]i	c #016E84",
"^i	c #026A80",
"/i	c #027288",
"(i	c #027F94",
"_i	c #02879B",
":i	c #02849A",
"<i	c #02889E",
"[i	c #0194A8",
"}i	c #0292A7",
"|i	c #028A9F",
"1i	c #018498",
"2i	c #027F92",
"3i	c #024051",
"4i	c #02ABBD",
"5i	c #02A5B6",
"6i	c #036071",
"7i	c #026175",
"8i	c #01788C",
"9i	c #085A6A",
"0i	c #025166",
"ai	c #116F7D",
"bi	c #012136",
"ci	c #004E66",
"di	c #016A7F",
"ei	c #02687A",
"fi	c #015868",
"gi	c #036477",
"hi	c #026174",
"ii	c #030926",
"ji	c #00152F",
"ki	c #0B5663",
"li	c #0B6576",
"mi	c #095C6B",
"ni	c #030725",
"oi	c #015C72",
"pi	c #016076",
"qi	c #017B8F",
"ri	c #018396",
"si	c #018295",
"ti	c #0196A9",
"ui	c #027F91",
"vi	c #015C6E",
"wi	c #026078",
"xi	c #015F77",
"yi	c #015D76",
"zi	c #015C75",
"Ai	c #015A74",
"Bi	c #001730",
"Ci	c #045365",
"Di	c #0D6878",
"Ei	c #012035",
"Fi	c #015B74",
"Gi	c #025F70",
"Hi	c #027E8F",
"Ii	c #0193A5",
"Ji	c #016878",
"Ki	c #02697B",
"Li	c #015D75",
"Mi	c #001531",
"Ni	c #040825",
"Oi	c #084E5D",
"Pi	c #096274",
"Qi	c #030624",
"Ri	c #025F77",
"Si	c #016078",
"Ti	c #016179",
"Ui	c #024D5D",
"Vi	c #0293A5",
"Wi	c #019EB0",
"Xi	c #01A6B9",
"Yi	c #028C9E",
"Zi	c #015164",
"`i	c #004E67",
" j	c #030826",
".j	c #04566C",
"+j	c #046176",
"@j	c #055769",
"#j	c #015872",
"$j	c #015466",
"%j	c #059DAF",
"&j	c #02B6C6",
"*j	c #02B5C5",
"=j	c #058A9C",
"-j	c #01596C",
";j	c #016075",
">j	c #014D67",
",j	c #044757",
"'j	c #066377",
")j	c #045A70",
"!j	c #01455B",
"~j	c #05586E",
"{j	c #025E76",
"]j	c #025D75",
"^j	c #02A4B9",
"/j	c #01A4B7",
"(j	c #017285",
"_j	c #017084",
":j	c #016C80",
"<j	c #01677D",
"[j	c #018599",
"}j	c #037587",
"|j	c #004056",
"1j	c #030524",
"2j	c #000E2C",
"3j	c #040423",
"4j	c #000A29",
"5j	c #027889",
"6j	c #014F62",
"7j	c #004B60",
"8j	c #000D2A",
"9j	c #01283E",
"0j	c #012F46",
"aj	c #029AAE",
"bj	c #01798C",
"cj	c #002C42",
"dj	c #003349",
"ej	c #031B31",
"fj	c #01273D",
"gj	c #00283F",
"hj	c #01102D",
"ij	c #001C36",
"jj	c #015668",
"kj	c #016376",
"lj	c #016073",
"mj	c #015768",
"nj	c #00344B",
"oj	c #001833",
"pj	c #031A32",
"qj	c #012A40",
"rj	c #001934",
"sj	c #010224",
"tj	c #022339",
"uj	c #02677D",
"vj	c #052639",
"wj	c #032739",
"xj	c #012236",
"yj	c #01162E",
"zj	c #01192F",
"Aj	c #011C34",
"Bj	c #02102A",
"Cj	c #010F2B",
"Dj	c #01182F",
"Ej	c #042133",
"Fj	c #042637",
"Gj	c #012238",
"Hj	c #012138",
"Ij	c #00233A",
"Jj	c #01253C",
"Kj	c #010D29",
"Lj	c #01273E",
"Mj	c #012339",
"Nj	c #012037",
"Oj	c #002238",
"Pj	c #1C4957",
"Qj	c #48A8A9",
"Rj	c #349DA0",
"Sj	c #1B8F9C",
"Tj	c #048C9E",
"Uj	c #048797",
"Vj	c #046C7C",
"Wj	c #01112A",
"Xj	c #01293E",
"Yj	c #01354A",
"Zj	c #01263B",
"`j	c #02142E",
" k	c #010425",
".k	c #073141",
"+k	c #0C5A69",
"@k	c #0B5E6D",
"#k	c #0C5E6D",
"$k	c #0C5E6E",
"%k	c #0E616F",
"&k	c #063A4A",
"*k	c #022337",
"=k	c #022136",
"-k	c #021F35",
";k	c #021F36",
">k	c #02243B",
",k	c #02253C",
"'k	c #022038",
")k	c #021530",
"!k	c #02132F",
"~k	c #021430",
"{k	c #021732",
"]k	c #021531",
"^k	c #02122E",
"/k	c #02243A",
"(k	c #02293E",
"_k	c #02283E",
":k	c #043E51",
"<k	c #0C6170",
"[k	c #0D5D6C",
"}k	c #0C5C6B",
"|k	c #085969",
"1k	c #0D5766",
"2k	c #073342",
"3k	c #020524",
"4k	c #012E42",
"5k	c #013045",
"6k	c #013247",
"7k	c #013044",
"8k	c #013145",
"9k	c #010827",
"0k	c #010D28",
"ak	c #028999",
"bk	c #038E9F",
"ck	c #43A0A2",
"dk	c #44A3A4",
"ek	c #38868A",
"fk	c #137482",
"gk	c #027385",
"hk	c #027181",
"ik	c #025A6A",
"jk	c #000E28",
"kk	c #000B27",
"lk	c #010927",
"mk	c #010726",
"nk	c #010525",
"ok	c #010625",
"pk	c #021C32",
"qk	c #020323",
"rk	c #093D4C",
"sk	c #084B59",
"tk	c #074D5C",
"uk	c #0B4D5C",
"vk	c #0A505F",
"wk	c #074757",
"xk	c #03293E",
"yk	c #032237",
"zk	c #032137",
"Ak	c #032036",
"Bk	c #021D34",
"Ck	c #040F2C",
"Dk	c #04102C",
"Ek	c #030D2A",
"Fk	c #030E2A",
"Gk	c #03112E",
"Hk	c #031D34",
"Ik	c #031930",
"Jk	c #03192F",
"Kk	c #052F41",
"Lk	c #0A5160",
"Mk	c #095060",
"Nk	c #094F5F",
"Ok	c #094E5D",
"Pk	c #0B4E5C",
"Qk	c #041A2F",
"Rk	c #01253A",
"Sk	c #012D41",
"Tk	c #012C41",
"Uk	c #01243A",
"Vk	c #010725",
"Wk	c #010E28",
"Xk	c #056A7A",
"Yk	c #037284",
"Zk	c #087384",
"`k	c #217A82",
" l	c #37878A",
".l	c #43A6A6",
"+l	c #1CA0AA",
"@l	c #0E9EAD",
"#l	c #01A7BA",
"$l	c #01ADBF",
"%l	c #019AAD",
"&l	c #028B9C",
"*l	c #026978",
"=l	c #02697A",
"-l	c #03112A",
";l	c #00475A",
">l	c #01687C",
",l	c #014B60",
"'l	c #010F2A",
")l	c #033544",
"!l	c #024857",
"~l	c #025160",
"{l	c #056578",
"]l	c #046779",
"^l	c #056577",
"/l	c #046274",
"(l	c #055F72",
"_l	c #036478",
":l	c #01566A",
"<l	c #040926",
"[l	c #031A34",
"}l	c #045B6F",
"|l	c #036074",
"1l	c #036275",
"2l	c #036376",
"3l	c #046071",
"4l	c #035768",
"5l	c #015362",
"6l	c #01152E",
"7l	c #021A31",
"8l	c #004054",
"9l	c #004F61",
"0l	c #026D7E",
"al	c #01B7C7",
"bl	c #0A9FB0",
"cl	c #239EA7",
"dl	c #29A5AA",
"el	c #31ADB2",
"fl	c #12A9B9",
"gl	c #01B6C8",
"hl	c #02B0C0",
"il	c #028293",
"jl	c #012338",
"kl	c #012C42",
"ll	c #003C51",
"ml	c #02293A",
"nl	c #023546",
"ol	c #085161",
"pl	c #076275",
"ql	c #056275",
"rl	c #00495D",
"sl	c #040B27",
"tl	c #021B35",
"ul	c #01233D",
"vl	c #056073",
"wl	c #096375",
"xl	c #076073",
"yl	c #066374",
"zl	c #086072",
"Al	c #02142B",
"Bl	c #00576A",
"Cl	c #014C5D",
"Dl	c #0296A7",
"El	c #02AFC1",
"Fl	c #01B0C2",
"Gl	c #05ACBE",
"Hl	c #1EA5AF",
"Il	c #31B9BD",
"Jl	c #2CA5AB",
"Kl	c #047586",
"Ll	c #037385",
"Ml	c #027689",
"Nl	c #03899B",
"Ol	c #0394A6",
"Pl	c #028FA0",
"Ql	c #023545",
"Rl	c #016D82",
"Sl	c #013D53",
"Tl	c #022238",
"Ul	c #034050",
"Vl	c #0592A0",
"Wl	c #028A9C",
"Xl	c #058395",
"Yl	c #047C8F",
"Zl	c #04778A",
"`l	c #046E81",
" m	c #026679",
".m	c #060925",
"+m	c #034157",
"@m	c #014660",
"#m	c #016B80",
"$m	c #029FAD",
"%m	c #059CA9",
"&m	c #036877",
"*m	c #033C4D",
"=m	c #0192A5",
"-m	c #03798A",
";m	c #037687",
">m	c #047C8C",
",m	c #019FB2",
"'m	c #019BAE",
")m	c #026779",
"!m	c #02374B",
"~m	c #013F54",
"{m	c #011C32",
"]m	c #013B4C",
"^m	c #036777",
"/m	c #0499A6",
"(m	c #021F37",
"_m	c #02354B",
":m	c #057486",
"<m	c #057E91",
"[m	c #058596",
"}m	c #038D9D",
"|m	c #0491A1",
"1m	c #057D8B",
"2m	c #024252",
"3m	c #022E40",
"4m	c #003D52",
"5m	c #017185",
"6m	c #013A4D",
"7m	c #0298A9",
"8m	c #04A0B2",
"9m	c #028496",
"0m	c #018699",
"am	c #027E90",
"bm	c #04788A",
"cm	c #067887",
"dm	c #057788",
"em	c #026F82",
"fm	c #011F35",
"gm	c #034756",
"hm	c #188991",
"im	c #159EA7",
"jm	c #0BA6B2",
"km	c #0493A2",
"lm	c #001631",
"mm	c #050E27",
"nm	c #04526A",
"om	c #014862",
"pm	c #03162D",
"qm	c #000728",
"rm	c #039AA8",
"sm	c #09B2BE",
"tm	c #0FA4AE",
"um	c #178F98",
"vm	c #034455",
"wm	c #020926",
"xm	c #024E62",
"ym	c #016A7D",
"zm	c #02556A",
"Am	c #0B5965",
"Bm	c #108C96",
"Cm	c #0BAAB4",
"Dm	c #05B5C2",
"Em	c #05263A",
"Fm	c #027184",
"Gm	c #049EAC",
"Hm	c #0AA7B4",
"Im	c #138F9A",
"Jm	c #12747E",
"Km	c #023245",
"Lm	c #02162C",
"Mm	c #017286",
"Nm	c #005066",
"Om	c #024251",
"Pm	c #020F2A",
"Qm	c #065160",
"Rm	c #2DACAC",
"Sm	c #15929B",
"Tm	c #048391",
"Um	c #015C70",
"Vm	c #041028",
"Wm	c #04546B",
"Xm	c #027888",
"Ym	c #048998",
"Zm	c #0A95A1",
"`m	c #1DB4BB",
" n	c #055767",
".n	c #004F65",
"+n	c #127883",
"@n	c #16B2BA",
"#n	c #0998A4",
"$n	c #038E9D",
"%n	c #027383",
"&n	c #014A60",
"*n	c #000628",
"=n	c #02425A",
"-n	c #014159",
";n	c #034E66",
">n	c #05283B",
",n	c #037787",
"'n	c #078E9B",
")n	c #1FA2A8",
"!n	c #269D9F",
"~n	c #044555",
"{n	c #01495F",
"]n	c #02152C",
"^n	c #01374C",
"/n	c #014960",
"(n	c #05505F",
"_n	c #29A5A6",
":n	c #108993",
"<n	c #047B89",
"[n	c #016678",
"}n	c #051029",
"|n	c #055871",
"1n	c #03172F",
"2n	c #026C7E",
"3n	c #037D8E",
"4n	c #0C8E99",
"5n	c #22A5AA",
"6n	c #045565",
"7n	c #00384E",
"8n	c #02485F",
"9n	c #157781",
"0n	c #1BA6AD",
"an	c #078B97",
"bn	c #027D8E",
"cn	c #024059",
"dn	c #062C3F",
"en	c #01697A",
"fn	c #047E8D",
"gn	c #19949B",
"hn	c #259D9F",
"in	c #044B5A",
"jn	c #004F66",
"kn	c #0A5967",
"ln	c #1E8F96",
"mn	c #0C7B88",
"nn	c #056E7E",
"on	c #004D62",
"pn	c #041029",
"qn	c #045872",
"rn	c #03152E",
"sn	c #015D6F",
"tn	c #0E828E",
"un	c #2CA4A7",
"vn	c #075D6D",
"wn	c #01122B",
"xn	c #00273E",
"yn	c #005267",
"zn	c #023F50",
"An	c #19767F",
"Bn	c #219AA0",
"Cn	c #077F8D",
"Dn	c #023D55",
"En	c #04546E",
"Fn	c #052A3F",
"Gn	c #057584",
"Hn	c #148691",
"In	c #208E93",
"Jn	c #064D5D",
"Kn	c #01495D",
"Ln	c #022639",
"Mn	c #105F6C",
"Nn	c #0E7280",
"On	c #0D7583",
"Pn	c #02455D",
"Qn	c #013952",
"Rn	c #03102A",
"Sn	c #025F71",
"Tn	c #0C7988",
"Un	c #2A9DA2",
"Vn	c #0F6D7D",
"Wn	c #02162D",
"Xn	c #064F5D",
"Yn	c #1F838B",
"Zn	c #279DA2",
"`n	c #056E7F",
" o	c #066475",
".o	c #0E7885",
"+o	c #107482",
"@o	c #0F5D6A",
"#o	c #02122C",
"$o	c #053A4B",
"%o	c #075667",
"&o	c #0A6A7B",
"*o	c #045F73",
"=o	c #025569",
"-o	c #026478",
";o	c #0A6776",
">o	c #044F61",
",o	c #013148",
"'o	c #000727",
")o	c #054050",
"!o	c #095D6D",
"~o	c #0B6E7E",
"{o	c #046B7D",
"]o	c #02566B",
"^o	c #0D6E7E",
"/o	c #095A6B",
"(o	c #073E4E",
"_o	c #000C2A",
":o	c #02455A",
"<o	c #065466",
"[o	c #0A6578",
"}o	c #04566A",
"|o	c #02445A",
"1o	c #01243D",
"2o	c #011E37",
"3o	c #011B38",
"4o	c #020D2C",
"5o	c #01344C",
"6o	c #013A51",
"7o	c #024E64",
"8o	c #03566C",
"9o	c #024E63",
"0o	c #014055",
"ao	c #01273B",
"bo	c #000927",
"co	c #024057",
"do	c #00132E",
"eo	c #002B41",
"fo	c #000B29",
"go	c #024D65",
"ho	c #035D73",
"io	c #035970",
"jo	c #045D72",
"ko	c #08687B",
"lo	c #0A6C7F",
"mo	c #05596B",
"no	c #002038",
"oo	c #02556D",
"po	c #01384D",
"qo	c #003B50",
"ro	c #021A33",
"so	c #013349",
"to	c #01364D",
"uo	c #010E29",
"vo	c #000C27",
"wo	c #00132B",
"xo	c #000D28",
"yo	c #01344A",
"zo	c #01354B",
"Ao	c #010F29",
"Bo	c #001129",
"Co	c #011C31",
"Do	c #011930",
"Eo	c #010C28",
"Fo	c #010B27",
"Go	c #010826",
"Ho	c #01172F",
"Io	c #011E33",
"Jo	c #022236",
"Ko	c #011A2F",
"Lo	c #02273D",
"Mo	c #020E29",
"No	c #01132C",
"Oo	c #01162D",
"Po	c #012137",
"Qo	c #03132D",
"Ro	c #03142D",
"So	c #03112B",
"To	c #030E29",
"Uo	c #030F2A",
"Vo	c #02102B",
"Wo	c #030F29",
"Xo	c #02132C",
"Yo	c #01233A",
"Zo	c #01172E",
"`o	c #01142C",
" p	c #01112B",
".p	c #010F28",
"+p	c #000F29",
"@p	c #011129",
"#p	c #011D33",
"$p	c #014B5E",
"%p	c #025B71",
"&p	c #004C66",
"*p	c #013C54",
"=p	c #004F68",
"-p	c #005168",
";p	c #02667E",
">p	c #02637A",
",p	c #02112A",
"'p	c #02172E",
")p	c #021D32",
"!p	c #021A30",
"~p	c #020F29",
"{p	c #020A26",
"]p	c #014356",
"^p	c #01455C",
"/p	c #01253D",
"(p	c #014257",
"_p	c #014358",
":p	c #013448",
"<p	c #026678",
"[p	c #025E70",
"}p	c #025B6C",
"|p	c #026171",
"1p	c #025C6C",
"2p	c #01394E",
"3p	c #035F74",
"4p	c #056B80",
"5p	c #026278",
"6p	c #02647C",
"7p	c #024058",
"8p	c #056E83",
"9p	c #013147",
"0p	c #01465A",
"ap	c #01495C",
"bp	c #036172",
"cp	c #046070",
"dp	c #036474",
"ep	c #026576",
"fp	c #026375",
"gp	c #026476",
"hp	c #02586A",
"ip	c #025666",
"jp	c #025363",
"kp	c #025667",
"lp	c #013F52",
"mp	c #047086",
"np	c #025D77",
"op	c #026880",
"pp	c #02152E",
"qp	c #025F78",
"rp	c #026179",
"sp	c #03697F",
"tp	c #013347",
"up	c #014E60",
"vp	c #024E60",
"wp	c #025669",
"xp	c #079AA8",
"yp	c #0698A8",
"zp	c #038392",
"Ap	c #00465A",
"Bp	c #020B2C",
"Cp	c #003A4F",
"Dp	c #00485D",
"Ep	c #088E9D",
"Fp	c #0A94A2",
"Gp	c #0991A0",
"Hp	c #058E9D",
"Ip	c #048C9C",
"Jp	c #048E9F",
"Kp	c #0694A3",
"Lp	c #0A97A5",
"Mp	c #0B99A7",
"Np	c #0892A3",
"Op	c #02142D",
"Pp	c #013B50",
"Qp	c #027284",
"Rp	c #089AA9",
"Sp	c #079BAB",
"Tp	c #079CAC",
"Up	c #02788C",
"Vp	c #027B8F",
"Wp	c #01586B",
"Xp	c #00354B",
"Yp	c #00374D",
"Zp	c #02596C",
"`p	c #004156",
" q	c #00394E",
".q	c #01374D",
"+q	c #00384C",
"@q	c #015265",
"#q	c #015163",
"$q	c #026071",
"%q	c #026072",
"&q	c #021F38",
"*q	c #020E2D",
"=q	c #012B45",
"-q	c #013A50",
";q	c #00293F",
">q	c #003E52",
",q	c #021C35",
"'q	c #023D56",
")q	c #023C56",
"!q	c #023B54",
"~q	c #04132D",
"{q	c #02213B",
"]q	c #023952",
"^q	c #023750",
"/q	c #01122D",
"(q	c #013B53",
"_q	c #012B42",
":q	c #002940",
"<q	c #013E54",
"[q	c #021C37",
"}q	c #01344E",
"|q	c #05102A",
"1q	c #05112A",
"2q	c #04102A",
"3q	c #050926",
"4q	c #04122B",
"5q	c #050A27",
"6q	c #031F37",
"7q	c #032239",
"8q	c #03253C",
"9q	c #03243C",
"0q	c #031A33",
"aq	c #03122D",
"bq	c #03142E",
"cq	c #040225",
"dq	c #03132E",
"eq	c #04253D",
"fq	c #03223A",
"gq	c #03213A",
"hq	c #03243B",
"iq	c #032139",
"jq	c #031F36",
"kq	c #012139",
"lq	c #02132D",
"mq	c #031933",
"nq	c #021D35",
"oq	c #021B33",
"pq	c #030C29",
"qq	c #021630",
"rq	c #040D28",
"sq	c #03112C",
"tq	c #012C44",
"uq	c #021631",
"vq	c #013C55",
"wq	c #033E55",
"xq	c #034159",
"yq	c #023D54",
"zq	c #034057",
"Aq	c #03102D",
"Bq	c #03112D",
"Cq	c #060E29",
"Dq	c #05122A",
"Eq	c #050D27",
"Fq	c #040D27",
"Gq	c #050D28",
"Hq	c #050C26",
"Iq	c #050422",
"Jq	c #070222",
"Kq	c #070322",
"Lq	c #070422",
"Mq	c #013C50",
"Nq	c #02384D",
"Oq	c #03122C",
"Pq	c #040F2A",
"Qq	c #031C34",
"Rq	c #031730",
"Sq	c #023249",
"Tq	c #012942",
"Uq	c #01394D",
"Vq	c #023146",
"Wq	c #031F34",
"Xq	c #032035",
"Yq	c #040E28",
"Zq	c #050724",
"`q	c #031D33",
" r	c #031830",
".r	c #03182F",
"+r	c #050A26",
"@r	c #060523",
"#r	c #03182E",
"$r	c #022036",
"%r	c #021A34",
"&r	c #012D44",
"*r	c #032D40",
"=r	c #065265",
"-r	c #07586A",
";r	c #012E44",
">r	c #034B5F",
",r	c #046B7F",
"'r	c #024D63",
")r	c #05576B",
"!r	c #055C6F",
"~r	c #034659",
"{r	c #023C50",
"]r	c #025A70",
"^r	c #030C28",
"/r	c #030D29",
"(r	c #03132C",
"_r	c #014258",
":r	c #02586D",
"<r	c #023447",
"[r	c #024257",
"}r	c #023F53",
"|r	c #02364A",
"1r	c #05485A",
"2r	c #044C5E",
"3r	c #013249",
"4r	c #023A50",
"5r	c #02475E",
"6r	c #013F58",
"7r	c #013E58",
"8r	c #02485D",
"9r	c #014359",
"0r	c #014D60",
"ar	c #040A28",
"br	c #035268",
"cr	c #024359",
"dr	c #01384E",
"er	c #040E2A",
"fr	c #02445D",
"gr	c #03374D",
"hr	c #050D2A",
"ir	c #031531",
"jr	c #070623",
"kr	c #023048",
"lr	c #050E2B",
"mr	c #031632",
"nr	c #070724",
"or	c #050927",
"pr	c #021130",
"qr	c #000829",
"rr	c #040221",
"sr	c #030222",
"tr	c #02102E",
"ur	c #021230",
"vr	c #020D2D",
"wr	c #040020",
"xr	c #040929",
"yr	c #09001E",
"zr	c #011F3C",
"Ar	c #000427",
"Br	c #030121",
"Cr	c #040120",
"Dr	c #05001F",
"Er	c #010324",
"Fr	c #08001B",
"Gr	c #05001E",
"Hr	c #06001D",
"Ir	c #09011D",
"Jr	c #09001B",
"Kr	c #09011B",
"Lr	c #09001A",
"Mr	c #08011C",
"Nr	c #0A021B",
"Or	c #08021C",
"Pr	c #08021D",
"Qr	c #09021C",
"Rr	c #08011B",
"Sr	c #0A041B",
"Tr	c #0A031B",
"Ur	c #07011D",
"Vr	c #06021F",
"Wr	c #040321",
"Xr	c #050421",
"Yr	c #0A021C",
"Zr	c #05021F",
"`r	c #05011F",
" s	c #0A011B",
".s	c #09011A",
"+s	c #011332",
"@s	c #000627",
"#s	c #0A031C",
"$s	c #0A011C",
"%s	c #030021",
"&s	c #07021D",
"*s	c #09021A",
"=s	c #0A041A",
"-s	c #0A031D",
";s	c #0A021D",
">s	c #09021D",
",s	c #09031C",
"'s	c #0D061F",
")s	c #09011E",
"!s	c #8C8B8E",
"  . + @ # @ $ % & * * = - ; > , ' ) ! ~ { ] ^ / ( _ : < [ [ : } ( { | ' 1   2 3 4 5 5 ~ ~ 6         7 8 9 0 0 0 0 9     8 : a b c { d   _ 9 0 9 (     8   . 8   d e e 5 5 d ~ ~ f g h i 6 8 _ j } / 0 9 ( k ( l m n o p q q r ! s f q p t u v & * * ; w x y z A B C D * & E ; v u u u v , u F t G H I l     / 0 0 : j 0 : J K L M s f ! m ~ 5 5 e d { { {         8 ( j j 9 k   . k N O } / P   . l 9 j 0 9 ( .         { { ~ 5 5 5 5 6 { f Q Q R J S 0 : : [ j 9 ( T c l 2 d G | t F ' , > > v U V ; * W W X Y Z ` ",
" ...E X +.# # @.#.$.%.X * & V > F > &.; m { *.: ( ( T =.[ -.;.l >.) ' ,., '.f 5 5 5 5 5 5 2           8 9 9 j ).9 9   J } j b !./ } { I k ( _ ( _ k             ~ s ~.5 5 e 5 | {.g ].,.Q { .   ^./.(.j k   ( _.{ m :.<., q q r ! F > [.}.|.1.* = @ 1.2.3.4.3.2.1.@ = * 5.|.6.E > ) ! r q q = 7.8.m 9.0.8   ( a.b._.l   . ~.Q c.c.{.Q s e 5 5 ~.s ~.{           8 ( ( 9 9 k { ~ : d.b a : : ( ] 9 9 0 j 9 9 8 .     ] ] 2 5 5 5 4 4 5 f '., ,.F ) e.J ;.f.[ [ j ( ( / P { m $ g.F ' > ; & * # h.$.#.2.@ # W [.i. .j.",
"k.l.m.n.o.p.o.q.q.o.r.m.m.s.5.2.= t.u.! d { N : k   v.w.[ ;.f i f x.e d H s f x.x.i ~.d m { I y.  . 8 8 ( 9 c ( l J J k c z.b a / ( J 9.e.J J k ( 9 k     { I I m ~ 5 5 5 s f r i f e ~.f A.| x.B.z.N C.{ { J N m m o v V = # D.%.E.#.m.m.r.F.F.p.p.G.H.q.G.q.H.H.p.p.F.F.r.m.#.#.$.5.I.+.% , u.d 6 I 0.] { J.K.L.-.f A.| | s e s s f r s ~.5 e d ~ I I {       9 ( ( J J J e.e.l : b M.L.: k J J l ( N.9 ( ( 8 .   y.I { m 5 ~.i O.x.i H e n e | f i O.l [ P.Q.  ( / P 6 d p u.& +.2.%.E.m.m.r.q.q.q.o.p.m.m.r.H.R.",
"}.S.T.m.l.l.U.m.m.U.#.F.V.W.X.# ; t H d I { Y.} c ( { O Z.T `.`.y. +{ .+m 5 8.++@+Z >.>.e.#+$+$+%+f.f./ &+0.0.Z.Z.Z.L.L.Z.b !.*+!.a b b b b Z.L.L.&+&+: P =+-+;+>+#+>.,+>.'+x ++i f ~.y.e.>.>.)+!+L.^ ~+l J ^.N { 2 d s ) , * {+]+^+/+k.r.q.(+_+q.H./+U.o.:+<+<+/+H.q.[+}+q.r.q.|+1+2+3+; u r H ~ { { ^ ^.J >.4+(./ `.5+>.>.J d s O.f 6+x '+,+,+#+x >+6+)+f.: &+&+0.L.(.b b b b a a !.*+b Z.L.7+Z./.Z.7+0.&+/ f.f.8+$+$+x e.e.>.Z @+R @+d m m ]  +>.`.9+a./.Y.  ( 9 z.P { I e ! u.& 0+a+b+c+m.#.m.m.[+o.l.p.d+e+|.f+",
"g+h+,+i+j+k+l+m+G.r.6.n+o+p+q+r+s+s+t+u+f.v+w+x+y+z+y+A+B+C+x+x+x+N D+v+y+E+&+_._.0.F+Z.G+G+Z.Z.b b _.H+I+>+J+y+z+y `.K+^._.*+L+N K+M+M+M+N+%+6+K.O+H+w.b Z.b b /.b G+Z.G+Z.Z.O P+D+%+Q+O R+R+x+A+F+A+v+y+N x+S+E+E+f.v+T+U+V+W+X+Y+Z+`+|. @H..@+@@@m.#@$@%@&@#@*@@@=@-@;@q.}.>@,@'@)@!@~@{@]@v+E+E+Q+^@_.y+Q+Q+^@F+A+x+R+N O D+%+P.Q+C+Z.Z.G+Z.G+b b b Z./._.J+K.O+6+/@N+y M+M+M+E+(@_@C+P K+`.:@z+y+)+x I+H+E+/.b Z.Z.G+<@Z.[@0.&+_.y+y+E+v+P+N x+^@A+C+B+A+y+y+y+x+R+P f.y t+U+s+}@|@1@2@3@|.p.4@5@6@7@8@9@0@g+a@",
"b@c@d@e@f@g@e+h@i@j@j@k@l@m@n@o@p@q@r@s@t@u@v@w@x@y@z@A@B@C@A@D@z@A@A@E@K.F@b !.!.b b G@H@I@J@K@L@M@N@O@P@P@P@Q@R@S@A.x.f T@b (@!+e r | F U@V@U@U@W@X@Y@Z@`@J@ #.#+#O /.b b M./._.@###$#w@w@w@v@%#S.&#*#=#-#-#v@%#S.;#g@>#,#'#)#!#~#{#]#]#,+a@^#f@/#l@(#_#b@_#:#<#/#[#}#a@|#]#j@~#~#1#2#3#,#4#e+5#6#-#7#%#-#=#=#-#i+-#=#8#*#w@z@9#Q+Z.M.!.b b F+0# #.#a#b#c#$+d#W@U@e#f#R@,.| r s ;.^@*+g#f O.A.g W@W@P@P@P@O@) /@h#K@J@I@i#G@b b a !.b F@j#k#A@z@$#x@z@i+i+A@z@z@x@=#-#6#4#s@l#m#n#o#p#q#~#r#j@s#t#2#3@g@u#v#w#x#y#",
"z#A#B#C#D#T.E#c F#G#H#I#J#K#L#M#N#O#P#Q#R#=@S#S#T#T#U#V#W#g.g.X#Y#@.Z#`#X@-  $x+b B+.$+$@$#$$$7.% %$d#c.c.{.C.C.{.Q A.x.f &$(@C+*$x.A.Q Q Q A.C.' ].c.P@].W@=$-$-$V#y@;$_.Z.C+>$,$+.g.<.'$'$7.7.7.)$'$+@T#!$!$!$~$!${$]$^$/$($_$:$<$[$}$|$. . 1$2$3$4$5$6$7$8$9$0$a$b$c$8 9.d$e$f$g$h$i$j$k$l$]${$S#!$S#!$!$T#m$)$'$7.n$'$7.<.o$Y#- p$q$/.(.r$f+ @-$-$V#Z#].s$].].,.{.Q A.C.A.| x.v.y+*+!+i x.| A.{.C.Q {.c.c.t$%$u$7.v$#$@$+$.$w$b x+ $- X@x$Z#Y#Y#X#X#$.W##$~$T#T#S#=@+@y$@@z$A$B$C$D$E$F$G$H$I$9 u+J$K$L$M$N$O$P$",
"Q$R$S$T$U$l$4@3@I$V$W$X$Y$Z$`$ %.%{$R.4@;@'$7.+%+%@.I.O@P@u$P@].].- Q@O@d#@%Y##%/ /@z@7.R@c.{.C.{.g {.{.s$$%%%g C.| x.x.C.&%F+C+L g x.*%A.A.=%=%S@].{.%%C.S@S@=%P@x$-%D@;%: F@V@&.V@I.Y#R@d#Q@Q@U@+.W@Z##.g.$.$.$.E.#.q.G.>%,%'%)%!%~%{%]%` ..^$^%/%(%_%:%<%[%}%|%/%1%2%%@3%4%5%6%7%8%'%9%0%F.q.E.E.$.$.$.g.n.@.+.W@Q@Q@d#U@Y#a%R@a%7.b%/ =+c%v$+%X@d%S@S@h h h c.c.S@d%C.A.*%| {.e%y+(@e.C.A.x.x.C.g g ].O@h {.g g C.{.c.R@7.z@J+/ #%Y#f%d#O@W@u$].$%P@P@t$d#I.g.+%+%'$W#;@4@R.|+g%h%`$i%j%k%l%m%h+S.]$n%o%p%q%r%s%",
"t%u%l+v%w%w%P#x%y%z%A%B%C%D%E%F%H.G%4@;@;@+%Z#X#Y#x$U@O@t$t$O@O@d#Q@d#].S@P@v H%)+% g.Y#W@P@g g d%d%S@h e#s$O.O.O.*%*%x.=%I%C+C+J%d%*%O.*%K%O.*%d%s$P@O@s$O@].$%U@f#L%o$V@&%E+c.% %$t$`#x$`#f#W@W@$ $ $ n.Y#M%M%%.h.n.#.p..@N%O%P%Q%R%S%T%U%V%W%X%X%Y%Z%`% &.&Z%+&X%+&W%@&#&$&%&&&*&=&O%E%-&r.m.Z#h.%.M%%.@.g.$ $ $ W@X@V@`#X#W@].c.Q@I+y ;&&.f%`#X@O@$%P@O@O@s$$%$%C.>&O.K%O.O.=%,&*.(@>.S@A.K%*%O.O.O.$%e#g S@].d%g %%t$W@Y#X#% )+H%, u$S@P@Q@Q@t$O@O@t$O@O@X@Y#@.g.Z#'$F.H.'&H.H.2$O%)&!&~&{&]&^&P%/&(&_&U$A$X%:&",
"<&[&}&|&1&2&l+3&4&5&6&7&8&9&0&a&:+-@G%4@q.Z#g.X#Y#R@Q@% % t$P@P@O@d#t$%$s { l _.)+= &.Z#@%`#V@U@U@P@b&c&%%C.A.d&*%*%i ~ e&J C+F+{ ~.s i O.O.K%*%C.h d%P@P@U@f&`#`#g&h&i&W@I%j&`.H s %$V@a%V@R@W@W@+.+.W@D.M%D.a%@.E.q.r.2$E%k&l&m&n&o&p&q&r&s&t&u&v&w&x&y&z&A&x&w&v&u&B&C&D&E&F&G&H&I&l&J&K&L&o.W#h.@.D.D.M%$ $ W@+.W@U@I.I.Y#W@Q 5 B.a.g#Y@X#i&L%g&`#M&X@t$P@P@h N&*%K%K%O.O.i ~.e&_.(@k I ~ ~.*%*%*%A.C.%%d%s$P@O&O&f#g&@%&.Z#= )+^ l { ! %$t$O@O@P@P@t$% % Q@I.Y#X#@%&.;@H.'&.@P&Q&_&R&S&T&U&V&W&k&X%2&X&Y&Z&`& &",
" *.*+*@*#*$*%*&***=*-*;*>*|&,*'*)*!*@@~*{*^+]*'$g.g.^*|+U#/*Z#@.X#a%% ,.B.( 0 =.J++.7.o$x$X@e#X@(*e#b&%%_*_*_*_*_*C.C.i ~.I x+F+2 O.x.A._**%:*<*d&*%S@O&X@e#X@X@U@X@h&<.V@[*j&j   e }*D.7.W#G%|*1*2*3*4*k. @'$ @#$]$5*_&6*7*X%8*#*9*0*a*b*c*d*l&2&|&e*f*g*A&h*i*j*k*8*D%l*m*n*o*p*q*r*+&s*7*t*0&u*{$'&k.k. @/+v*w*w*w*x*/*<.+%= y*m k z*!+,.o$A*B*U@X@X@e#e#e#$%_*_*_*<*d&*%_*x.O.Q._.(@{ ~.i A.h _*_*_*_*d&%%b&e#O&X@e#e#x$o$7.+.J+=.0 9 8.,.Q@a%X#@.Z#G%~$~$C*g.$.@$D*E*F*^$G*H*I*J*K* &L*M*N*O***P*w%u&Q*R*S*S*A&",
"T*U*V*R*W*0%X*l*Y*Z*`* =.=/%X%+=@=#=$=%=&=*=D*G%W#'$|*^*x*'&==@.-== w >.( : [ b.>+# '$+%X@$%(*O&=%s$s$*%<*<*_*_*_*_*C.C.*%Q.N C+e&*%d&N&N&d&<*<*<*d&*%s$O&S@d#O&O@].Y#=$Z#[*=.j&j ^.k ;=>=%.x@,=3*'=3*2+R.#$'&/+]$)=!=k$~={=]=^=/=(=_=:=<=c*[=}=|=1=2=3=4=5=4=q*6=7=8=9=0=m*a=b=c=d=e=u%f=g=h=w%i=8@!$R.#$-$^*j=1*k='=x*l=%.W m=( c : =.n=- v$W#d#$%d#U@d%s$b&C.d&<*<*<*d&_*N&_**%v./ B+e&K%_*C._*C._*_*<*<*A.$%s$%%O&O&c&X@+%'$# >+b.[ } ( >.o=W p=g.v$V#x*q=3+)$W#C*r=s=c+%=t=u=v=u%w=x=y=z=A=B=**C=D=E=F=G=H=I=J=",
"K=L=M=N=O=P=Q=R=S=T=U=V=W=X=Y=Z=`=}+(+ -.-S.+-@-#-+ $-$-%-&-*-=---;->-,-@#'-N b.x )-!-;@x$B*M&e#=%~-{-_*N&N&N&N&C.C.N&_**%Q.N C+e&d&d&N&_*d&<*]-]-_*C.$%b&=%e#B*`#h&^-/-(-B j&_-:->-;--+<-[-[-}-|-$-$-J$1$1-@-2-4#+-,#3-4-5-6-7-V%8-9-0-a-a-O=b-c-d-e-f-g-h-i-f-j-k-c-l-m-n-o-p-q-7-r-s-4-5-s-4-t-+-u-3#@-v-$-J$$-w-|-x-[-y-z---;-@#P.j&!+A-(-B-i&g&B*f#c&s$s$h _*<*]-<*d&_*N&_*d&v.y+B+I *%_*C.N&C.N&N&N&N&_*s$~-%%e#M&B*x$;@C-D-x b.N '-@#>->-----y-*-&-&-$-$-..E-F-u-4-.-6#(+[+7#x%Y=K$G-H-I-J-S=K-l-&*L-M-N-N-O-",
"P-Q-R-S-T-U-V-W-X-A&Y-d=Z-`- ;r*.;B&+;@;#;$;Q#=@{$'&;@=$/*<.n$Z#&.+%g.$ Q@%$%;=.&;*;=;T#==f%g&-;(*(*b&d%c&;;;;N&N&N&N&_*d&Q.N C+e&_*_*N&N&N&]-]-]-=%~-(*e#e#f&V@x$A*>;,;';;=a.);t$R@!;g.n$'$+%#.)$ @/*G%R.=@R#~;u*u*1%'*+&t%2&:&6={;];^;M-/;(;_;:;<;[;};|;1;2;3;4;5;6;7;K=N-L=^;8;{;9;:&2&2&^=A$(&$=@@0;a;~$4@G% @W#n$n$+%'$n.g.x$U@b;_-c;F*d;e;^-h&B*f#e#e#e#s$d%%%]-]-]-N&N&N&_*v./ B+I d&_*N&N&N&N&;;;;c&c&{-(*(*-;g&f%^-S#=;b+&;=.z V Q@I.g.+%&.Z#7.W#;@=$@$R.:+)=@@f;O#W%$*g;.;h;`-`&i;d=Y-(=j;k;l;m;1=S-n;o;S=",
"p;q;r;s;t;u;v;w;x;y;z;A;B;C;D;E;F;E;B&G;+;H;W%I;u*y$a;S#|+m$-$J;K;K;+%V@U@O&L;[ #+M;N;O;T#Y#U@f&P;Q;R;S;(*d%%%%%;;N&h h N&~.N ^ e&_*;;;;N&]-;;=%c&P;P;P;f&f&Q;U@U@T;U;V;W;X;a.Y;O@X@!;&.=$-$B-m${${$Z;0;Q#u*`;#; >@;G;B&.>+>@>#>$>%>&>&>*>=>->;>>>,>'>)>!>~>{>]>'>,>^>/>/>(>*>_>:><>[>#>}>|>1>B&2>@;O#3>z$4>~;a;{$|+{$m$B--$==&.`#U@5>_-)+@ ^+6>7>@%O@f&f&P;P;f&P;{-d%;;]-N&h h <*v.E+B+e&N&N&h N&;;%%8>=%(*(*R;Q;P;f&U@Y#9>0>N;M;&%[ L;O&U@`#o$K;=$J;-$m$~$=@~*~;P#O#W%2>J*$*a>F;F;b>c>d>e>A;f>g>h>i>j>k>l>m>n>o>p>",
"q>0$0$r>4$s>t>u>v>w>x>y>z>+*i;F=}&A>B>B>`-C>D>E>F>G>H>!-I>$;J>J>Z#u$c.%$d#K>z [ ;.! & D*L>v$7.U@e#P;(*(*f&b&d%S@%%=%O@M>g B.^ _.2 N>$%s$h _*%%c&b&(*P;X@f&f&e#'$O>T#Q#& r Z < P>;&> F > - a%#$Q>Q>Q#P#R>S>T>U>U>V>W>+&+&A>X>x&4$Y>Z>l;x>`> ,.,+,@,#,$,$,%,&,%,*,@,#,6;x>.,=,-,;,>,v>4$,,Y-,,',^=+&),S>!,~,{,],^,4>/,(,T#==% ; ' ' >  $< !+! u ;@4>V#;@X#P;f&X@e#(*b&s$%%_*C.c&s$O.e&E+(@I h _,d#d%%%%%c&O@f&(*(*P;e#U@'$@$T;D*& ! ;.j&z K>d#%$c.u$ @J>J>f;:,/-<,G>F>],{,C>9;B>Z%t%[,,,},f*|,1,x>2,3,|,4,5,4$0$0$6,7,",
"8,9,0,a,a,b,c,d,R-d,e,f,g,S=f,h,i,P-j,Q-&*k,}=l,m,n,r-o,p,q,r,& u | | Q p e.: z*S I r Q R@<.s,@%M&e#O&b&O&e#e#O&s$P@M e&5 Q._._.{ 4 5 @+S@O&O&e#Q;Q;(*e#M&x$^-s,t,@.' f ! e.< a.{ e s q u,v,U m.m.r.q.%#w,(+U.X*U.x,}=&*Q-n;P-b,y,z,A,B,C,C,c,o>D,E,F,F,G,H,I,F,F,J,K,L,f,h,M,N,O,C,i,b,P-n;Q-}=P,Q,x%*@Z=M;v@r,4@G.4@s.v u t q s e c j&P J.x.| +.R,x*S,f%B*f&(*e#M&P;b&O@$%x.5 4 I E+B+I i 2 ++$%~-s$O&O&O&b&b&e#f&!;T,v$a%) r I S z*: >.t Q | ) v = U,F*V,W,V%n,9=P,}=Q-&*Q-}=P,O=X,Y,Y,Y,Z,`,c,`,`,X, 'a,a,.'+'@'",
"#'$'%'&'%'*'='-';'>',''')'!'~'{']'^'/'('_':'g=e=w=l+<'['r=r=F*}'2*x@V , q I ^.a.j   { { 2 ;.x |'@+i ~.~.f r r ~.5 I 6 1'1'] / _.k 2 3 ~ m J.i O.A.Q x.i f Q Q N@B.J.e&e&  j < : 9.Z y*t 6.2'3'4'4']$!$=@!$~*/&o%g=5'6'7'8'9'0'a'b'c'd'e'f'g'h'a,i'j'j'g'k'l'm'n'a,a,>'o'J,E,p'q'r's't'u'v'w'x'y'z'A'B'n%J&-@R./+4@t,W;G.C'3-D'r 8.I N.< : k ~ 5 e e | V ,.Q A.*%{.g C.A.f e ~ 3 ~   a.=.  ~ ~ 6 J.s O.A.Q | f i x.| y*Y J.Q.~ m   N.a.j { G u , u@E'F'G'G'H'~;u*5*I&I'6=J'K'L'M'N'`>O'P'Q'R'S'T'G, 'U'V'-'%'W'>'X'Y'",
"Z'm'F,>'>'`'.'g'a,0, ).)+)@)#)$)%)&)*)=)-);)>),)u&2>')))')!)U;~){)])^)W;+ x ^.j&*.%+:@=+u+P P P ^.k J | r e M+y y =+y y P a.(.(.[ f.P =+=+=+y y.f | | &%y.#+`.=+l l l ` $@: j&T /)()h.N;_)~)~):)H;O#Q>Q#y$/&^=W>G=<)[)})|)1)2)3)4)5)6)7)h'8)9)0)n'J,n'p'a)b)c)p'.'n'd)e)f)j'd)g)h)i)j)k)l)m)n)o)p)q)r)K*$*/&4>J>f;s)O;t)u)u)v)D** |'S j&< u+h+. ( k ( K+w)Q.&%x.| r B.`.=+K+l K+^./ (.(.: P =+=+K+K+K+)+e f r ;.J ^.P f.P c c =+c x)x)^.y)z)U,j+A)B)t)~)C)D)@;+;K* ;E)<)F)G)H)I)J)K)L)M)N)O)P)e'a,a,j'Q)>'0,>'G,R)S)",
"T)U)V)W)X)Y)Z)`) !n'.!+!@!#!$!%!&!*!=!-!},;!t&l+:,8@'&'&'&/*+%'$3*C)=;>!4'+ M+_-,!W,p,'!Y=%#i+)!$-)+K+J+!!P *.'-~!{!]!^!#+5+K+=+>.&;X;/!K>(!h#-.{ >.`.P w.>--=w,C@_!:!&=<![!Y.T ()y@#;}!!)!$ @V##$m$@$/+!$u*:,l+X%h;|!1!2!3!4!5!6!7!8!9!d)a)0!a!b!c!d!e!f!7,g!h!i!j!k!l!m!n!d)o!p!q!r!s!t!u!v!w!x!X&+=:,/&R#{$'&@$m$m$#$@$y!~)D)~*:.e.j&z!A!B!:! -t-f+C! $w.D!`.#+m=K+Y.|-E!F!G!)+`.y f.!+`.H!(!I!J!K!^ y J+>+=+M+;+L!M!4-8-Z+N!O!P!x)=+C Q!6>:)R!S!/*<.G%'&G%R.R#:,A$u&T!A&1!U!V!W!X!Y!Z!`! ~.~g'+~@~#~$~i!%~%~&~*~",
"=~-~;~>~,~'~)~!~~~p'{~]~^~/~(~_~:~<~[~}~|~D;1~2~3~4~7>`;5~6~/,G%V#/,7~8~9~W J+Z@0~a~b~c~d~e~))7>/,f~V@e.  a.g~g&L%h~i~J;j~k~O@c.l~m~i~n~J;^-x$,&k l I * o~p~7~#;0>q~r~s~t~u~r$y t.;@v~5~6~T,S#/,))w~x~D)H;y~z~A~B~@>=!}~C~D~E~F~G~H~I~J~n'K~L~M~N~O~P~;~Q~R~S~T~U~V~W~X~Y~Z~n'`~ {.{+{@{#{${%{&{D;E)*{={-{4~ >H;w~5~4>+@-$>;J>w~;{a%6+< >{b~,{'{){!{w~~{p~<.{{[*l ( Z W@o~^-]{^{/{({d%S@g&_{:{^{j~h&B*<{z*k l K>V#S#w~[{}{|{1{2{3{4{5{J+6{y!7{7~6~;@G%8{/,$;))`;9{0{a{b{c{d{e{[~f{g{h{i{j{k{l{m{n{o{p{q{r{s{t{u{v{w{",
"x{y{z{A{B{C{D{E{F{G{H{I{J{K{L{i{M{:~%!W![~N{O{P{Q{3~z~0>H;w~R{/,[{w~(,;{D)%.4+S{T{U{V{W{X{Y{8~')0;S!T#{{Z{`.b%f&d#' ~$i~g&O@$%].~-M&`{S!U@f#a% ]Z E@+.s,7~J>))e~.]r~+]@]#]$]%]%+6{m$w~8{6~5~[{R{7>x~0>.;y~={3~&]b{C;*!*]=]-];](~>],]'])]g'!]~]{]]]^]/](]_]:]<][]}]|]1]2]3]4]G,5]6]7]8]9];]g{X!0]N{a]@>b]c]-{.;0>d] >w~5~J>5~(,6~))n.e]a.f]g]h]i]j]k]Y{H;J>l]f~I.,$|'w a%`#f#B-U#L%b&$%c&O&-;h~/,t$O@f#m]K+n] ]-$9>(, >7{o]p]q]r]s]T{S{>+}.t]u](,v]6~7~))w~x~w]z~x]Q{y]z]d{A]&!X!B](~i{C]D]E]F]G]H]I]J]K]L]M]N]O]P]Q]",
"R]S]T]U]V]W]X]Y]Z]n!`] ^.^+^@^C]8]M{-]=]f{#^e{$^%^&^*^=^-^8~;^>^7{}{~{x~e~m$>-t+,^'^)^!^~^{^['~*{$m$0;X#`#,.]^N@| e ^^V#e#g d%d%h s$-%3+G q w ;=u$!;@%/^>;Z;=@')a>(^_^:^<^[^}^:@3+H;o]w~;^8~x~U;8~}{|^={c]B~1^c>2^%{3^E~4^M{5^L{6^7^8^9^0^a^b^c^d^e^f^g^h^i^j^g^k^e^l^m^n^o^p'p^q^r^s^/~t^u^-]v^w^&{=!x^2~*{y^z~e~4~U;')>^8~u]U;e~I>z^: A^q~$]B^$]A~B&f;S#S#8{<.f%U@) o=t G t,s,d#h S@c&g O@!;3*q | ~+y*) R@X#(,Z;Z;y$I;}{d~C^r~x]D^t+e]#$E^v~F^E^x~7>x~8~E^|{G^H^%^$^e{I^X!J^B]i{C]C]K^L^M^N^O^P^Q^R^S^T^U]U^T]R]/]",
"V^l^W^X^W^Y^Z^`^ /./+/@/#/$/%/&/>]L{*/u^-]%!*]%{=/c{-/Q{x]|^!{;/}{o]o]>/8~-$x t+,^,/c~'/9{`;8@P&{${$~$==v$-%x$x$)/s !/&.s$b&s$s$b&P;&.$$o k#`#`#$.g.7.T#>;!$]$8@w%c]~/{/]/4*t+e])=`;U;7{;/^/-^|^//0{G^2~(/_/O{:/I^X!_~u^/~</[/}/|/1/2/3/n{4/5/6/7/:]8/9/0/a/b/c/d/e/f/g/h/i/0^j/k/1/l/}/8]/~i{4^m/W!n/2^%^o/Q{p/q/|{|^r/!{^/7{7{;^ >;$c s/D)t/u/v/B&k&=@Z;!$S!v$g.@.@.V@`#8.-#^-f&(*P@s$b&O@W@C*r w/B*x$o~^--%U#:+{$P&8@`;9{x/3{d~!-t+#+#$;/>/E^o]w]0>!{|^x]Q{-/y/:/z/A/B/h{u^*/C/D/K{6^E/F/G/m'H/I/J/K/L/M/N/O/P/Q/",
"R/S/T/U/V/W/X/Y/Z/I,`/ (.(K^%/%/K{}/8]+(M{:~@([~:/O{c{P{t/x]>/-^E^#($(>^l]g.R %+%(&(*(r~F>G;i=8@/+#.k./*==i&W@L%=(s X % ].O&b&O@s$O@Q@t-H +$x$I.<.K;@$ @'$!$)=y$X%y]-(;(>(,(%+E##.m$w~^/=^Y{|{d~q/p/H^1{c{'(|~I^3^m/)(+(8]>]K{!(~({(](^(/(((_(:(<([(}(|(1(2(3(4(5(6(7(8(9(0(G{a(b(E/c(d(e(f(L{g(4^J^W!h(i(j(1~H^k(.]d~~^Y{l(l(w]~{'&m(P n(z$S>o(p(q(@@)=]$G%F.@$#$@$D.V@f%|'r(d#d%P@s$b&O&P@S@= s s(h&X@Z#v$@$;@n$R.8@%=2>H>r~*(Y{t(u(v(Z#w(;^o]>/!{r/|{x]k(P{c{x(y(z(A(B]i{</8]}/@^%/%/B(C(D(E(F(G(H(I(J(K(0/L(M(N(",
"k;k;O(P(Q(R(S(T(U(o'V(W(X(Y(Z(`( _._6^s^C]+_;]0]}~&{|~@_H^G^d~|^~^#_v~/^^{= m=D!J+v-I*F>t/O{$_y$R.n./*$ !;&.@%U@)/~.%_&_A*e#O&O&f&*_L>=_p -_W@&.W#g.@.n$)$@@@@;_>_t/)^,_e+'+T )+1.=$R{d]'_#(0{)_k]-/1~1~!_'(~_B/m/{_+(]_^_/_(_>~__:_<_V(e'[_}_|_1_2_3_l>4_5_4_6_7_8_9_W!0_a_/(,'b_c_d_e_f_g_K{C/i{_~h_i_j_O{k_1~l_k(<^*^Y{m_n_>^/,'$Y j M+%@o_C^Q{(/R*<'$=R.$.X#X#+%<.V@`#y)3'8{J;M&(*b&e#f%p_q_F )/f#x$&.!;R@W#g.H.^$#>k_k(q~r_4.;%D!J.Q@U#8{;^m_l(|^3~b]l_s_t_:/e{u_B]i{8]K{v_#/w_x_y_z_d^H//(A_B_C_D_E_F_G_H_I_J_",
"K_L_M_N_O_P_a_Q_R_o'o'S_T_U_V_W_X_Y_Z_`_ :.:u{+:@:#:$:j(%:k(<^&:;(*:8{9>@$; /)^.J$+-E.P&=:%:~,U>-:y!0;V W@Z#Y#{.s ~ ;:>:==f&e#X@g&K;,:':):r F X##$M%W f;!:~:{:~:Q{-{1%P&]:$-f.!!X k.))')t)u~^:1{3{/:(:|~j*_:::<:[:}:|:1:2:3:4:5:6:7:8:9:n{0:a:b:Q_c:N_d:e:f:X)U(g:a_h:&,Q_i:0^n!j:k:l:m:n:o:p:}:}:q:r:s:@^t:u:'(v:w:*(x:y:z:&(>^R#%.X;T %;..=#A:K*2~B:H>C:D:H;#.M%G%7.c.Q d E:J>i~x$X@U@e#A*S,F:) s Q a%&.I.- T#`;7@D>-/&:H^8@m.G:$-^.I u$=$T#7~&(C^o/H:Q{^:(:2^I:I(J:K:L:M:N:O:P:Q:R:S:T:T_I,U:I,V:U(U(W:7,U(6,X:Y:",
"Z:p>`: <.<+<^(n{G{G{o'o'n!};@<#<$<%<&<*<=<-<;<><,<'<)<!<1^V>~<A$P#+@!${<w,N@  k { /)I$]<M;C'@-r(C j#v({ m=^</<(<_<&%:<<<D@[<!/!/}<|<1<2<-+y*,$+$x@^<{ y* .B &->=2*F*=-` 9.9.l l 3<F-Z;4>P#4<B&{:2~5<H^-!6<7<8<9<0<;<a<b<c<d<e<M_f<V(n{0^9:g<n!h<i<3;i/j<k<@'l<m<n<o<p<^(n!n{0^0^n{^(q<r<s<t<u<v<w<x<w<:~y<v^q)%^P{l_Q{z<),J*['$;H.U e.^.]#/)g+A<B<['3+i+t@f+C<|'v(y@D<-_,$8.E<F<G<s,[<!/H<H<[<I<R '.Z{}*o=8.I + r(+-6#i+2'J<K<L<m=/)k   '.'$!$S!0;N;{^{:p/%:M<N<O<P<Q<x<R<S<T<U<5!*<!&V<U=n{G,U:G{G{./D,W<X<Y<Z<[_`<",
" [.[+[@[#[W:$[^(N,^(V(V(n!T'%[G{G{&[%[T'G{./Z,*[S-=[-[D=;[Q,Q,K-7->[V%,['[3@^#n m   . . /)/)9.9.^.^.( k   l J   J S J /)m=m=P+D+n n d >.l l K+>.m=I { 9.. k l I$g+g+{ 9.  /)m=3<g@d*l,K-x,K-)[s&R=;[![R-~[{[][X,^[./G{T'%[G{G{./^(/[ !/[([_[:[n<k<<[[[}[|[1[2[3[&,4[P_5[/[6[7[8[8[E(V(././9[./9[^[K,f,0[3;a[L,-[b[c[3&X*}=}=7-k,'[v-d[I m=9.  { L<e[L<]#k k   { { ` >.M+K+^.,+m=Z e M@F@m=J./),+-.K+J l l l k ( ^.^.. 9.m=/). .   f[m=]<9@g['[h[s-k,x,s&i[D=-[j[7=k[5[e,D,^[./H]l[9[I,T'0^n!n!9[N,n!h<m[n[V<o[p[q[r[",
"s[t[u[v[w[x[y[z[A[B[C[D[E[C[F[F[G[H[G,>'a,I[J[K[K[K[b-L[o;M[ /N[O[P[Q[R[S[T[U[+.R       ]<|' ]k#w @-k#n]K>M>c.{.A.| A.C.{.A.Z@5{F {.{.' {.{.g t$O@d#u$6{3#Y V[G:3<W[{ /)( y)u@X[Y[Z[`[ }.}+}f*%,~[i,@}k-V'='J[*'I[I[*'I[#}$}%}E[&}*}=}E[-}-};}>},}'})}!}~}{}]}^}/}(}_}:}c!L_Y:K_<}B[[}}}|}1};'*'I[I[I[*'*'*'k-V'd-j,2}3}4}5}6}7}8}9}0}C'C k . 2 /)a@()z)()W[..> u$P@u$> e%Q F C.Q F ;%x+*%Q e%M x.x.A.;&;&Z{()(<Y #+E@E-/)9.      8.= A-a}S[b}c}d}e}f}m;g}P=b-h}K[J[J[J[I[;'0,F,H]i}i}j}k}l}h:f!m}a_W)n}o}p}q}r}s}t}",
"u}v}w}x}y}z}A}K{B}f(C}D}E}F}G}H}I}#<Q_n<J}R_b,J[*'K}L}M}N}O}P}Q}R}S}T}2>P#a;/*R@@+  1$F-'$n.W#V#m$S!V#B*f#e#U@$%h {.{.g h Q Z@Z@h g %%S@S@d%P@X@f&f#f#-$B-'&==W#'$G%6{@-l r(/*'&R#z$^=){U}V}W}X}Y}Z}`}};./;'I[ |.|0:+|d:@|#|$|%|&|&|*|=|-|I}I};|>|,|'|)|!|~|{|]|^|/|(|;|_|d(:|<|[|}|||[|1|2|3|J}4|5|l[V'I[0,D,6|7|8|9|0|a|b|c|[^,^u*Z;G%y@9.=-]:}.@$n.'$'$#$T#@%f#f&X@O@d%%%S@g h g I+d|C.{.h {.C.{.d%O&e#f#B*V#(,=$@$7.g.#...K<  @+R@/*a;f;+;e|f|g|h|i|j|k|l|m|n|J[='&[o|p|+|%~q|r|s|t|u|v|t|c(w|x|!(A}y|C}z|A|B|C|",
"D|E|F|G|z|~(:|e(L{v[9]t^i{t^)(H|x<I|a<J|*<r;K|='F,L|M|N|O|C_P|Q|R|J&1%3>`;S!#$Y#R 9.m( @~$|+>;L>>;v$x$V@X@U@O@$%d%P@P@d%g f q$n={.S@d%s$s$P@s$U@X@B*B*&.o~B--$-$Z;=@#$G:J ;=@.W#=@Q#D)@;5*2=+*S|T|U|V|W|[[@}I[X|Y|Z|`| 1.1+1@19](~(~t^v[#1f(f(;|/|$1~(%1&1*1=1-1y}y},|!(f(f(;1G~5^t^M{(~u^@{>1,1'1)1U(n|I[.|!1~1{1]1^1v!/1(1<'2> >R#V#+%_12 B n$|+S#m$-$>;K;o$`#B*f#e#d#O@P@s$$%S@{.H+x+f {.=%$%$%d%$%O&U@X@M&`#`{/^S!>;|+~$ @C<9.R `#V#S!)) >(&Q&:1U!e{<1[1}1|111I[I[213141*}51E~;])(M{5^G~t^(~*/f(!(c(%1z|w}616171",
"819101E|a1x|f(u[#1G~G~+{+{+{9]b1+1_~@{B}c1d1e1I[|;f1g1h1i1j1t;X&(&i=#;w~3>S#=$@%'.2  ]P#~;+@~$/*x$f%!;g&X@U@%%S@d%=%S@%%h C.Z@Z@g S@S@d%].].].$%O&e#L%i&o~!;&.V#~$S!:,V[;.~+X#G%S#J>H;`;P#<'k1C;l1&)m1n1o1N,%'p1q1r1s1t1'}u1w[@19]+{G~#1u[#1v1B}v1w1x1y1z1A1A1y1B1x|C1f(v1u[#1;1v[D1@1b1w[u1E1v1F1G1H1G,;'I1J1K1B;L1V!A&Y%u*u*#;')0;=$k.- e&E#-@4>S#B-<.!;o$i&f%f#e#$%$%].$%$%d%S@h I+x+A.h %%S@d%d%S@S@O&X@g&!;&.a%==Z;=@y$0;E@{ ~+@%S,T#M1#;:,y$(&v&a]N1O1P1Q1R1;'U'S1T1U1D1@{_~;]H|D1+{+{+{v[;1u[w1V1d(W1z1F|X1Y1",
"Z1`1y1 2w|.2v1G~;1w1v_#1+{E19]@1G~C1+2@2#2$2%2;'&2*2=2-2;2>2,2'2k*@;H;x~7>>;K;o~/<d r-H:<'R#S!#$====!;L%f#U@d%d%d%d%S@%%%%{.)2P>S@=%=%=%d%d%$%P@O&X@B*&.-%<.==B-S#0;<^!2y.v 7.'&S#`;J*2>^=g;T!,2~2{29/]2^2/2>'(2_2:2<2w|D1b1+1'}9]!}C1!(+2;1t1v1u[[2}2|2122212)|3242v1v1;1#152_|B}2|E1'}+1F~+{526272T_D,>'8292021)a2C;#>Y&$*W%2>H;4>'&@$2.8.b2j+_)T#U#K;<.-%o~B*f#e#].$%d%d%=%S@=%S@>$c2C.%%%%S@d%d%d%d%U@f&L%!;==<.V#+@Q>I;){6#~ /<7.K;~$ >H;H;O#d2e2t;3!f2g2h2i2j2 |k2l2m2n2C1u[(~@1D1D1+{f(I}/~;1G~o2o2_|)|p2Y1q2",
"Y1p2]|'|r2}2t1G~*/+{5^v[D1D1D1D1;1C1s2E|t2u2G[o'v2w2x2y2z22!y&A2;!B2d]D)7>S#V#K;G:n C2H:O#0;a;~$=$-%L%B*f&f&O@O@$%c&=%g ;;h P>K!S@S@%%g $%].$%O&X@B*g&o~==v$V#U#>;0;u~6#J.-_=$m$T#3>d]*:{^#*D2$>1!E2F2G2H2I2G,3|J2K2L2d(#1t^E1E1+{!}t1t1)}t1M2.2a1x1N2O2P2Q2)|P2R2}2+2o2M2t1o2u[#1G~(~'}E1G~u[B1S2T2U2V2G,W2X2Y2Z2`2w!R* 3B&4~*:H;4>m$-$D<R &-.3{:T#U#m$K;^-+3!;B*f&O&P@].$%%%%%S@S@>$c2h h h S@c&$%s$O@e#f&B*g&-%v$U#a;0;<'H:r-n  ]`{V#S#7>;^d]$*@3A2#3$3%3&3*3=3-3N,;3>3,3/|s2f(G~9]D1D1+{;1;1t^;1G~v1'3&1)3z1!3~3",
"{3*1]3)3<2^3B}2|(~b1(~v[2|v[v[v[v[#1[2n2/3(3_3:3<3[3}3|31323A&33Q*.;4~*:H;J>T#B-##n 4353@;4>(,R#-$-%o~B*Q;f#e#O@$%c&%%g %%h P>P>g {.A.C.%%c.P@O&f&B*g&-%v$`{-$U#T#0;u~ -J.{{U#Q>J> >B20>.;<&6373Q|83F29303a3g'b3c3d3e3!}r}+{v[!}#1v1#1;1M2o2o2[2f3g3^|h3i3)3*1P2h3*1j3k3l3v1M2!}t1v1t1G~+{D1v[!}m3d3n3P^G,o3p3q3r3}_a]y&s3a>9{{^d]))R#T;t31 9@k+~:9>>;B-=$v$^-!;B*f#X@s$d%S@h C.{.,.<-c2h %%%%h d%$%s$e#f#f&B*A*-%'&(,(,J>@;53r-n _1T,T;6~H;7{{^B&e2u3y&2!v3w3x3y3]&V2z3m3A3B3v1;1v[t^v[t^v[+{9]@1v[!}42<2<2)|&1h3!3",
"C3y1'|!3F1D3E3k3f([2F3$|$|G3G3H3=|=|O2]|I3j3J3T'K3L3M3N3O3U!t;P3Q3y~.;0>D)M1/,>;##e S.F>')J>/,S!=$==o~L%-;B*R@O@$%c&%%Q _*_*R3S3{.| C.%%S@d%O@f#!;g&L%^-=$@$=$B-T#0;k(,#J._1T;$;3>d].;.;d2s3$_a]-!T3U3e/V3W3T'_3;|X3{3=|D|Y3<|Z3X1X1`3 4n2_|e3.4D3+4@4#4$4%4&4*4!3=4D3V1-4E3;4=|71H3H3H3H371|2>4,4'4v1`/o')4!4~4{4~2Q|73]4h;.;.;0> >5~(,R,1 K<B!D:S!~$#$K;K;K;f%g&!;B*d#$%S@%%C.x.Q O+^4_*C.Q h =%].s$X@B*-;g&A*==;@a;/,J>W%V>4-e >=~$/,M1D)w]9{y~/4P3(4_4:4<4[4}4-3V2|4A31424&1@224344434616154v[#1o26474]|{3/|Q284",
"9404a4b4c4d4L2Z1e4f4g4h4i4j4k4l4m4n4o4p4q4(|J3@}r4s4t4u4v4u!1!b>a{w453={{^#;/,T;x4H m(y4H;P#Q#=$'&/*o~i&x$K;x$e#O@d%d%d%h O.R35{| ,.$%d%d%$%X@g&V#g&&.v$G%@$G%|+S!R#!:2-#+_19>f;H;9{'^q(A~33}>>_z4A4B4C4D4a^l[E4F4G481n4f4f4H4I4J4K4K4e4J4e4Z1*1E|r1b4L4M4N4O4P4Q4H3:|:|R4S4T4e4K4J4T4I4H4f4c4U4V4W4V1X4G{Y4Z4`4 5.5>_k_&]D2c]c]]/*:`;/,V#1 +5@5D)a;S#=$'&G%K;o~`#v$x$f#O@d%d%$%].| 4+c2K%h d%d%d%s$U@`#<.L%i&o~v$V#G%Q#$;H;[^+-s x4T;/,3>0>={c]h;5<b>1!#5$5l:%5&5*5=5-5;5>5,5o4V4m4l4l4j4i4'5R4)5T4!5r2~5{5]5d4S494",
"q2^5/5(5_5:5<5[5}5|515I4h4j4k4k4k425l4'535w|45b,n{556575O32!b>P3Q385r)959{#;4>S#%.G v,U[#;f;4>S#I;#$o~i&X#7~`#M&P;$%g A.>&4 05D+r i x.d%s$(*L%!;T;`#&.<.@$))~$T#(,Q>{*a5y.+$9>f;2>.;b5c5a{d5=:D;$:e5f5l:g5M[1;h5d(i5)5j5l4j4f4i4I4h4h4J4k5}5l5m5i5n5o5o5:2p5q5r5s5t5u5m5m5v5w5|5h415I4i4f4j425x5{5y5B}z5G{A5B5C5D5E5z4E;&]F5Q{G5'^{^3>(,O>1 '+J<Q#(,S!~$R#Z;<.o~`#T;f%L%f&s$].C.i r z S+~.N>x.g ].(*M&`#/^7.i&o$K;))>;4>f;O#t=u.! %.S#4>#;H595I5]4/473w!#5J5K5L5M5N5V2,1O5P5'52525l4k4k4i4I4I415Q5[5R5m5S5(5X3T5U5H4",
"V5<5n5W5X5Y5u5:5Z5Q5|515I4i4j4j4j4j4i4T4X3|/`5@}G{ 6.6+6@6~2$>d5d5#6$6%6'*`;5~|+M%! n %#I;3>[{Q>y~=$R@@%i&o$f&f&(*O&O@d%g O.q$q$*%*%d%V@X@f&g&L%o$i&&.`#'$~)Q>a;Q#R#8#/)#+&69>f; >D)*6=6x^1^Q3&]d{-6;6>6,6'6N,)6_|!6l4n4n4n4l4i4h4h4|5Q5Q5Q5T4e4S4R4~6{6]6N4^6/6(6H4J4e4|5w5Q5J415h4h4i4l4m4n4n4f4:2t1n<T'_6:6<6[6}6>_a{Q3=:|61626')M10;'&N@J u-~$6~(,a;D)@@X#f%&.-%!;g&M&e#f#t$x.A.w)x+i C.=%$%b&(*f&f#o~i&f%I.<.|^S![{3>#;%#n ! M%|+5~`;364656=:63d5#3T(66+6768696m|06a6b6I4f4j4j4k4j4'5I415c6d6}5:5u5e6p5R5f6H4p4",
"g6'5h6i6j6k6u5l5Q5|5|5I4h4i4l6l6j4f4'5g4P5y}m6o;b,n6o6p6 5_473b{b{|6q61>@@4>6~V#2.! m V[{$Q>6~T;=$o~!;<.o~L%B*M&P;e#$%h C.x.n=n=*%_*h P@f&M&M&x$x$i&o$&.&.7.B->;T#;@,$9.#+##T#J>['/&w4Q{=:(/5<=:r6s6t6G2u6p<n!D[v6_5)5U4w6n4k4f4x615T4T4T4e4e4m5y6z6T5A6B6S4]6^5C6D6E6l5J4J4|5|5T4F6h4l6l4x5w6U4H4G6!(i/G,H6I6J6K6L6b>5<5<x^=:.>J*4> >Q>=$~+J Y |.~$T#~$@$+%X#o$i&!;L%B*M&f#d#%%_*A.>+w+x.C.N&d%e#e#f&M&g&o$7.x$7.-$S!6~Q>|+m(m ! 2.V#6~$;['M6!<|6x^@>b>N6O6P6Q6R696z,S6<|~6I4'5'5j4j4i4i4h415J4|5w5Z5u5T6U6T5e4T4i5",
"j4h4'5f425V6W6X6Y6Z5Z6w5|5i4j4j4l4[5`6Z3,5;| 7@}o;.7+7@7#70_#3)<$7.>@3g;@@+@T#-$&6H { ;=a;6~6~7.o$A*o~=$T;&.g&B*X@O@d%N&_*x.n=Z@_*_*N&S@U@f&B*-;L%^{v$^-V#<.'$B-T#'&z)  I ##T#Z;~*4>B2z~%7&7q)@>>_*7=7-7;7C,./>7,704M4`6m5m4j4i4I4w5Q5e4Q5'7)7!7~7j4m4x5c4I4f4n4m4j4{7]7^7/7Q5Q5Q5Q5h4i4j4V4u5(7_7:7f(<7 |[7}7|71727E;(/37}>c]-{@;R#+@S#'&~+  W[h.T#S#=$<.K;K;<.S,o~g&-;f&e#$%C._*_*>+w+x.A.C.=%b&P;M&-;f%f~V#o~o$i&<.4>6~a;n]2 H _1s,T#+@P#g;c].>475773_467778797K[f,07>4~3a7b7Z6c4j4j4h4|5w5Z6c7d7e7f7h4l4f4I4i4x5",
"g7h7i7r|j7k7l7b^m7n7o7o7p7q7'5i4c4r7s7&1r2(~t7b,U'U)u7v7w7x7}>y7z75<c]d2))+@{$-$_1n { Y =@Q#0;& +.o$v$K;K;L%g&M&e#O&$%_**%s n=n=*%C.;;%%$%s$M&g&f%K;^-K;S,$ t$~$T#H. .. I x4S!~$0;$;D)!{z~A7B7|6c>-)C7D7E7T'./F7D1G7r2H7I7o4j4h4J7K7L7M7N7O7P7Q7R7S7T7+^&/U7V7y|H}j7W7X7Y7Z7`7 8.8K7S5j4V4+8@8#8$8c('}3;@}U=%8&>&8*8}>x^=8-8r/.;#;Q#+@S#{$N@. ]<5.~$T;7.O@v$S,^-s,-%L%-;(*$%=%;;h A.w)w+f x.A.=%b&e#M&g&!;s,S,K;o~R@* 0;Q#T#Y { n &6-$Z;+@`;a>A~x^;857b{>8,8'8)8!8*'.|~8I}m3{8]8j4c4c4T4^8/8L7(8_8:8<8[8}8|8j7r|4418",
"8&(42838485868#<78m688980708:|,|a8B12|b8c8d8e8o';'5[f8g8h8i8j8}>F5H:x]+;`;Q#/,G%[.J.] y)W#+@Q#@$g./*====W@x$L%g&e#e#].A.i 5 05q$i O.d&h d%P@X@g&g&V@&.-%K;W#;@/,m$h.n   I * ;@|+(,[{>^+;z~t/=:B7k8l8J=m8N_T'/(n8o8p8q8r8x1s8C}t8-4.2M2u8v8w8>7414138x828n}#:y838z8A8B8C8D8E82|)}e332 2F8G8=| 2H8I8J888i<T'5|f8K8L8M8N8O8Q{H:.;D)w~6~T#'&7.!   { & '&/^m$n.@$^-<.a%g&B*B*O@$%%%_**%O.P8Q85 i A.,.U@e#B*x$x$X@<.==v$M%k.6~a; @y){ n X G%R#0;`;K*%785d5E;R8S8T8U8V8p<I[Z,W8X8Y8(3#|@2w}Z8*1(~`8 9`|.9+9q[b<@9#9z8$9I:%,",
"%9&9Y<*9=9-93;<;M_f:;9e:X)6,[[[[o[U(+|U=>9~[c,@}0,h,,9p<'9(=>8)9B7x/-/-{!{+;#;$.p {   { r(@ *#r.5.%.D.@%t$<.o$W@%$Q@' e&{ J _-!9~ ~ ~ 5 A.' t$X#i&Q@@.o~Y#n.;@R,v,! {   { ! * S!J>3>*:|^~9{9]9^9 */9(9_9./o'@}V(:9<9J}q<c:k<[9c:M_l}h:l}h:g: <$[ < <S-o<}9_9};3;=9`:{>3;`:M_U(h:h:h:7,m}n[n[%~|919`/29/(o'T'R-O_39495969+>&:~^!{ >f;Q> @v e&    Z y*A@#$;@Z#+%7.& f%f%X@,.{.i ~ ~ ~ u(^   2 e&~+d#u$W@&.<.% @%@.s.%.F.G%%.[.{   2 t E.#;U;0>]/&^P{79899909a9{[_91;0,l[d,>9o<5[i!6,b9c9&,V)f:M_7,d9N_Z<k[5;e9`:z5S-_9",
"m|E(R_M[m[f9g9h9i9j9Z7n7k9l9m9q8(3n9m342z3U=0[b,;'*'K[o9p9m-q9r9s9t9u97#-#S.1-$@]#. . . . =+v+v+E+E+=+)+`.v9w9v+P y c : a.x)x9y9*./ a.T ^.^.K+M+M@`.:@]@=+=+z9v+^.( . 9.9.9.` 2->=%#Z=J<A9B9k$C99-m#h}D9U'@}T'h<i!45c(c(E9F9G9 9H9`7I9E6J9y5`8K9-}L9][M9E(C,z,o|_9m[:};}`8N9O9y5P9Q9R7R9 [S9r}-4`8[}T9H]@} |V'c-d$U9V9W9p%X9Y9o,F'*#Z9r(    8 . k ( =+v9`9/@>-E#>.E#;-$@M+K+^.T a.a.x9y9_-D!c =+)+u(M@~@ 0#+6+'+v+%+t+M@0@k 8 8 8   ]<i+=#-@K&J&!=9;.0+0g,y,@0*'D9U'H]~['6#0(342$0%0,}&0V6*0=0-0;0+^>0F[<7,0%9U9m|z,",
"L,'0m6:|c(61)0!0k6!6~0W4{0]014^0/0(0_0:0<0[0}0y, |E,|0102030405060704;809000a0b0c0d0b+s9e0f0W,H'w, $P x9x9j&_-y $+b%b%O+>+D!j&x9P M+w)K.j#b%P.T a.x9x9_-J+g0h0i0j0k0X.l0m0n0o0p0q0r0s0r0t0N=Q_u0v0w0x0O^Z,i,./Q_y0 4z0A0B0C0D0a7E0F0J9G0H0/5[5I0F3a8J0K0$[z,i<L0$0d(M0x5N0/5@8O0k6P0Q0&|R0S0T0<5U0V0c9+'G{l[D,W0X0Y0Z0`0{> a.aj<+a@a#a$a%a&a*a=aA^-a;a>a,a);w.j&x9j&a.a.'aO+H+);%+E+j&x9a.c;,-K.j#-+y *.[ x9[ a.>-M!)a2'!a=_U[~a{a]a^a/a(a_aa[!>m<Q_b::a<a[a}a|a | |f,a_1aA3>52a3a4a5a6a7ak9k6s78a9a0a{8;|aaba a+<o|",
"cadaR0h6eafaT4)5F8gaZ1+8)5)5!0haiajakaY3laF3maK,&[naoapaqarasatauavawaxayazaAaBaCaDaEar/-^FaGa4~/^K; .=.*.z n]HaU@P@].S@g e%#+#+| {.{.h ,.W@)/Z{x j&j&>.W@<.5~-:IaJa-:KaLaMaNaOaPaQaRaSaTau6UaVaWaXaYaZa`a bb, 7.b+b@b61}|#b:2J4$b%b9181)0+bU4V5J4m5B6&bR<L,*bH3B6i5J4+8=bf4)5U4-b%b;bA0>b,b(7~3T4$|'bd:)bi<!b~b{b]b^b/b(b_b:b<b[b}b|b1b2b3b4b5bH>6b';6>~$% ^<_-j&: Z ,$Q@c.{.C.A.f >.K+R Q S@d%%$u$_,$+P.j&=.&@<.f~;/7b8b|{|{9b0bNaabbbcbdbebfbgbhb93ibjbkblbmbm' |5[G9F3nbobpbqbrbsbN0o4o4V4H4I0l415g4P5I7Y6tb<7U=",
"caub6aI4B6i5g4gavb'|p2@bT4T4x5G3j3e3a1w}h4B1J|b,^(wbxbybzbAbBbCbDbEbFbGbHb1~-/(-Ib}{H;>^7>M1J>Q>B-=$%-: P k#Z#o~i&X@P@=%S@%%f r g g g > u$!;x$V@u$Y.z*x a%o~#$S!/,5~M1 >y~V>S>){2~JbKb79FbLbMbNbObPbQbRbSbH]n|;}+2V4ga54d(}2G3c4c6Tbn4o4-bvbvbp2Z1U5K4a7Ubi<Vbe4e4S4+8y1/|t8Wbl4x5k4l415`3e352(|ga*|_|M[U'n<XbYbZb`b c.c+c@c#c$c%c&c*c=c~,-c*:w~`;$;8{U#/*X#(<-.x);cW@x$@%d#S@g g g ) ~.%%%%=%].U@f%A*Y#= '-: x V#-$/^J>M1w~ >H;y4T>M6T}e|>cKbHb,c'c)c!c~c{c]c^c/c@}0[S6=|@b54k3(cE|_cx5i4)5~3p2t8'|V5B6i5B6:cT~P_U=",
"$[4/w82|}2<|q2z1'|G|01{3U4)5=|;4m324<cm4'5o2D[n;/([c}c|c1c2c2c|)3c4cc{|6(/G^|{}{4~*:;^x~7>M1Q#>;-$=$+ T P {{=$==o$V@s$=%S@%%f r g {.,.,.t$7.o$+%I.P+z*>.R@o~s,T;6~;{7>x~U;0>-^|{q/G^-/x^y]5c6c7c8cU/9c0cac |k-l}u<n4I4+b)3(|54~5bcx5ccdcy1O2/|y1{3+8r2S9b!p<D[.27181~3y1*1P2A1<cU4i9F6{3B1}271+bk5g7ecV2Q='0fcgchcicjc7cD_kc|6(/t/3~'^r/}{7{;^ >M1lc/^B-^-`#;=a.a.mcg.f%<.W@,.,.g g | s %%=%=%$%f#o$-%v$M%:-T 6+'&V#S#6~R{7>');^7{4~;///(^(/b{y]4cncocpcqcrcsctcuc |h,X8v6j4@b34&1#|n2o4y5I0~501vc^|~5S4d4:|.4wcxc:[",
"}9yczcAcBc$8F3+bI0)0@b)0U4,5R4|5f4n4U4+bl4B}D8P-&[CcDcEc9/8cFcGc})HcO{_/%:k(*^>/E^w]7{U;;^7>w(B-s,@$o~)+v+IcS,v$7.f#O@t$+.g f ) ].% u$].% 7.S,S,M%w.: JcV@j~S,>;~{v]U;8~;/o]Kck]k(-/l_LcMcNcOcoc1)PcQcRcScd-U'B[+1<c)0cco4V481@b~3V5q2U4+8TcZ3z1j3Uc (Vc,}m|Wcc8XcYc24)|24ZcA101z1y1G|91)0)0x5Wbf4`c>1f<Q=`/ d.d+d@d#dL1$d%dy/%:&^k(<^.]>/;/8~U;>^w(8{B-p_!;}*P.a.&d=$=$v$X@%$c.g S@F ! Q S@S@$%f#7.^-K;I.:-K++$K;V#B-[{w~x~D)U;w]^/|^.]k(P{c{O{*d=dn)-d;d>d,d'd)dd-Y,!d/|o4U4n4x5n4m4gaF301y1y1w}G|~d=|{d_}]d^di!+<",
"'0/da7n2$8H8A0(d[5[5_d[5_d:d<dw5n4<c[d[dU4}d|do;I,1d2d3d4d5dZ26d7dR88d9dl_2~0d~^o]e~;/8~D)7>J>U##$/*^-,+P E@-$v$@%`#V@R@M%- | Q Q@@.R@Q@f#o~V#V#Z9w.K+!/W@f%=$>;l]R{w]E^l(p]k(adQ{r~/:bdcdddL1edfdgdhdidjdQ-U'|[kdldmd-b+bgaU4Z6h6}5ndodpd~0_5r7M2qdH871/dm|B}t8rdsd-4Y5X3H0tdpdodud[5k5+bWb+bZ801h7u<:[*'}9vdwdxdydzdAdBdf|CdO{Dd&^)^k(!,|{E^;/x~[{/^T,+3f#o$&dD! $-$V#K;B*U@U@&.I.' r ,.Z#Y#R@V@@%^-V#&6u(e.t3==V#U#[{>^U;8~w]!{o]~^G^2~l_EdCdR8})FdGdHdIdJdKdLdU'Z,*}52ga[dga<c)5l5}5(dJ7Md(df6J735NdOdk3$4PdP_:9",
"+<Qd}|H4{5@bT4J415Z6c7<dc7c7Rdc7SdTdF8Z8UdVdWd)b |XdYdZd`d-2 e.e+e>c@e#eT}-/^:k]q~|{!{0>R{0;S##$'&n$+%]#: o=o$<.&.@%X#I.$ ; u ,.t$t$U@R@R@&.=$@$##P+K+$e% g&K;>;T#6~!{|{n_~9y:%eH^e|&e*e;8;8=e-e;e>e,e'e)eP=k-!e~e{e]eD}/7m7v5c7c7^eRd/e/ew5w5Z5s8#4(eR4_eK,Vb{5C3N2|2[5c7Z5c7c7c7<d<dc7Z6Q5:ej7%b<e[e<9c-+<}e.)|e1e2eocD_f|cd3ej(l_&^4e)^5e=^|^')(,S#T,&.W@x$a5w. $=$V#/*V@X@U@d#t$c.) %$W@R@X#@%@%<.-% ]y ]#!/n$V#-$+@4>M1w]!{Y{d~(^-/k(q6*d)96e+e7e8e9e0eaebecek-1;deeefe%bWb'7Y6Rdc7<d<dgec7w5Z6Z6(6|2)5Z1he<7a)",
"C,Q_ieZ7v5Q5dc:|jei7keleme{e{eneoe]ej7pe1/J|qeo;k-V'U=re6=seteuevewexeyezeAeBeCeDe~,Ee0>`;0;R.'$n$& b%P : '+= X#@%@%I.; F u F ) n]n]> = R@+.+.& K.a.D!-./)W@+%G%|+|+/,))-:FeGe$6HeIe})JeKeLeveMeNe4$Oez,n|Pek-][QeL{ReSeH}TeUej7meVeA}jel/K{We$|Xe:c{6Yef9f'ZeM0K4f4)5`e fy|.f44 fF}<c+f@f@f}8ke#f5^$,Y,c-P='0v0$fI_%fQ^&f*f=f-f=88dAe;f>fKa,fR{(,~$|+S,@%,&6+y D!c;'f@.a%V@R@- %$%$, ' V > * R@Z#&.&.I.()P ^.}*=  @@$|+0;))J*W%U>,{)fBe!f~f{f]f^f/f(f_f:f7;<fa^./U'l[[f}f|fG}1f2ffe3f@f@f4f4ft|[dmd@2U4T4}55f6f29/(",
"/(z,;}A}j7]e7fw[B8#98f9fm/0f/~0f0fu^H|v<afbf{>M,D9h}Q=`,q9j[p;V9cf+0dfefffgf.0;_;_-:36k+Q#F%6{t.;=)+a.z*z*w.q v & % > y)I ] K K J { n p q |'|'J.]#a.a.z*-.>+p U E.W#!$z$l+e0hfifjfkflfmfI'nfD#7=j-ofH-C&Pe@0 |L,pfH_qfu^+1F~b1+1rfsf;<tfufx[>1h7vf3fs|d<wf0,0:>1xfO9yf!(;<;<zfu<ufx<(~*/g(*//~+(AfBf80h,V'CfPe0-p;1=T-*&Df3},,EfFf95GfHfIfk+^=z$/+k.5.> ()`.D!_-a.T y)3<N@p D H I J ] { { m=|'o=W@= * v,!+a.z*a.'+U * 5.{$f;[^Jf~:Kf{,LfMff}[,NfOfdfPfQfRfnfW<Q=h}k-Y,O_p[88*/L{SfD/TfD/+(E~UfVf#9Wfx|t|fe4fe(M[n!o'",
"o;)b@}XfX4K~K~>9d,.|.|c,0[M9R_M9Yf<9W<.|X,i,P-L[b-Zf`f g.gu,G o +g3<]<]<%@W[@gd[@g#@=-=-e]&@M@:@: / < j&j&j&j&_-_-a.P a.a.D!a.x)j&a.a.a.: T a.a.a.: j j : a.^.:@|#|#`9&@#g$@e]e]^#d[$g+go %g+g):):&g):*gl*C&`fb-=gn;H].|5|Z,f,S=Y,h,Z,f,4|c,o|K|-gX4-go'U'U' |%9F[;gZ:>gn8l}U(e:W:a_e:U(f:e!U(,gY<`,'g}=h} g)g*g!g~g{g]gg[]g~g>#43 -^g>@/g(gT.5#_g 0;%=+D!z*: T T : T T ^.^.=+-.P a.D!D!T T :g!+!!u(y P *.j&x)x)j&f.M@/@w-4# - -r-M;r-C2p@`+`+<g'[]g[g}g|g1g`fC=Zfl-2gf,R_-9a_X)V)c9[[:}&,X)e:g:M_6,Y|3g-}4g5gb,@}G{",
"6gX|5|./ |n|n| '@}i,i,l[M,D,1;H]H]7g7gm-'g;[b[L-|=J&8g9gJ&G'<+M;&#Z=t-3#3@}gD Z l ( {#0gagN'bgV8cgdgA^egfggg.#hg--P!<---J+=+T : T M+]#/@igjg}-.$kglgmgngogpgM$qgrgcasgtg( (   Y ..[g6{.-6#ugX=G'vgvgwg%*%*5@xg%*9gygzgm-G{1;h,Z,X,l[./H]./)bk-k-*'*'&[D,C,W)Z,d-k-Q=*'P=k-k-d-d-k-L[&*)bn|Q-d-n;m-;[AgP*u9P*BgB<X*V%}+6#,[T.@-i.D G W[9.( ( |#~#Cg};DgEgFgGgHgIgJgKgLgMg@#K!q$P ^.T a.: P u(!!/@Ng:-n=OgPgQg}@RgSgcaTgUgVgWgXg`9( l m=):):&gC 3@,#t-3.t-d+X=c[Ag3&Q,Ygx,K-n;n;j,)b |Q-)bj,)bQ-d-n| 'n|n| ' |@}o;'0Ac",
"ZgV7s^ [19@}Q-.|`gUf8<I| h)(y<:~v<.h+h*!`2u!@hA2e2*{1^=:(/|6#hB&J*'*/&$=~;]$G.v-$h( /#%h&h*h=hO<c>=:a{{^2>R#'&@.D.G%Z#- > L<_ j e.q v %.n$n$'&@$4>J*4~-hl_y/;h>hH([6,h'h0@M+r(F.R.{$~;1%$*2&2&#*A~#h85a{Q3B~Q3E;F;)h)ht:.hVfrfM{/~m/@{b1rf!hh,n|K[K,D5e(v_ f9]~hd<b,c-n|m-{h]hmac<^h/h0<Wfaf(h#:w!73@>d5G>#h#h#hG>,)W>$*u%U$1%n%P&q.l.C<;+9 t#_h_':h<h[h79(/){7@:,$;'&'$n.$.5.U q >.j _ l , V D.k.D.2.;@~$))*:S>1^}>}h|h1h2h3h4h( l D'o.-@2%~*%=U$l+X%;_B~85a{#hHfv&`&},Q|1!(4(hI:5h6ho}uf^hz87h8ho>i,0,D,P_9h@{0hc1",
"ah{e.fr|x|][bhchdhE~ehfhghhhihhhjhkhlhehmhnh:/ohphqh|~rhsho/)^(^//c]k(k(9{`;+@5.s#$@thuhvh,<wh|!#*l+4>~$!$#$<./*V#$.n$n$n.()c ^.]^x$@.$.g.==W#W##$=@a;u*A$IfxhyhF_zhAhBh1$>-1.~;['B22~H^w4//(^2~=:2^ChDhEhFh3e!_|~GhHhIhJhihjhKhLhMhNhOh+(Ph&,d,)becT7ReG}]eQhUeRhF7c-1;U(ShThUhUhVhWhXhYhZh`h i.i+i@i$^#i$i%i$i@ix(5<H:q(z~(^H^26u*u*/+$-&i!g*i=i-i;i>iLf),H5 >f;0;#$@$V#7.n$g.X#Z{^.j m=h.n$ @W##$G%;@~$u*4>'*d2@*@h|_,i'i)in@,+j@6.a;f;B2t/2~'^//G^l_(:!i~ie{{iph]i^i/i(i_i:i<i[iYhMh}iLh|i1i2i($3i/(-}aaH}F}4i5i",
"S7T7y|r|h7B[6ia27i-!v^8i8irhx(2^i(i($^'(F;_/y]Lco/r~Q{)_y~(^(^x]//y~0>d]{^~;r.]:v9!#l-9i0i'2t&1%8@'&W#$.n$Z#Y#I.Q@u$* % ; ! l e.s ,.> % = W@D.g.Z#$.)$ @/+y$u%t%s34}aibip#;%[.G.z$+;d]0>0>z~//x]={G;%7ci2~2~2~t/l_y]_/%^!_'($^2^dioh8<h{.5*!eifia:w1SeRh<eSeSeWei72|U=J_gihi${+_4^8idiz]O{F;D;1~P{H^t/5353#hp/(^h;$*c]c]|^e~{^B2,*J*R#|._giijikiliZ-k1X%(&:+4@k.#.$.Z#a%$ +.= ; ,.r /)^.e > % % u$% R@Y#$.n$n.W#R.]$U$B>e20imil-!#ni[. @f;y~d]0>!{z~x](^%7a>2~k(-/l_x^x^1~%^!_oi'(z]=!piqirisit!u:R(T350!dr|leT7T7Se",
"tiWeS7mepeuivi#5pij_@i'(!_%^_/y/'(3e3ewixiyiziziAiP{-{H:H:3~'^!{9{0>*:2>(&4@1.D M@V+BiCid5y^B2@@{$G% @n.Z#R@$ V@% |'o=% % %$;=, G ' V v ) Q@a%X#+%n.)$ @ @]$z$8*e2|!DiEi2#s+}g}++@4> >*:}{{^d]]/c]S>/4,*z~1{Ddo/_/s_Fi(:'((:!_c>E;y]D;n/e{}~0]GiHi44meA}Ii;|h7WeC},|JiKi0]e{h(h(k_c>k_O{'(LiLi(:j(s_c{P{^:)^),F>53'2'^e~{^y~9{*:`;4>.@Mi*-NiC=OiPiD2k*U$~;4@ @'$n.n.$.D.$ > v %$,.G ) ^<, ; d#,$()t$I.$ V@g.$.'$@$#$i=,*={F5)eBi!#QiD'6.F%['D)*:}{!{-{0{q(%7p/q~x/FiziziLiRiSiTi3e$^'(/:s_!_=/e{d{:/,<UiVimeWike7f&/",
"y(}~rioeXiYiZi73R*A~S>1>c]d2}{9{w4^:2{Fizi/:o/Dd^:&^G^`i0dY{r/e~e~}{D) >u*4@1.):z9 jg[U-.j85_&y$:+;@n$Y#I.+.X 2.n]9.3<V , , 6+m=G F , w Z u$= M%Z#W#W# @q..@:+5*#6+j@jd-~#t+u,,[F.R.Q##;*:B2B29{d2={q(y^//)_Q{P{2{@_#jo/(/V>$*$*$*'2#h=:c>F;z4$j%j&jh7583!#5C~8fWi*j=j-jd{;jx(c{[>B~#*r*;!x^@_v:v:@__/P{H^>j]/c]%7'^]/{^*:4~+; >(,#$r.!gz^]@l*,j'j)j!j~;P&H.F./*/*W#n.D.R@e%()V , r v(y)%$%$u$/</)> M%$ $ @.Z#'$G%Z;$=A$85~jK'~g~@z9):1.4@['2>*:^/!{e~Y{d~~9k]){Dd2{@_s_zi{jbd]j%^c]w4'^){=:(/=:[>73+hK_^j{e/j(j_j:j",
"<jh(n/[j%/}jC9|&|j+=^%(&(&O#J*d]d]+;B2H>{:z~{^e~|{d~q/~^|^}{0>;/0>8~ >$;]$ @6{n u+1j2ja&a>26K&}+s.2.@%+.> r m=]#c j ^.#+Z /)-.^./)m=m=K+^.K+`.w * a%$.;@6.s.|.-@G>#hU[`f`93j4j]:#. @!$))H;d]*:4~*:4~{^]/|^-{-{d2{:V>z~J*@;@;O#O#I;1%<'<'X%B> 3$,5j>]tfVfu_t!:j;<Afld5j6j7jY&1&+=<'^%1%O#<'W%2>y~2~k(H://|{Y{Y{y~4~4~*:4~*:d]#;6~4@q.|.*g;+v+8j9j9;T}o%m.#.E.k.n$M%W@V y)>.k l Z 8.J.e.E+m=8.v(k ( ( e.Z q ,.* @.M%#._+E%y^z~0j@&M@=+o @ ;@]$4> >w]}{;/;/!{Y{~^.].]|{e~z~){2~S>{^4~+;J*2><'(&:,+=t%<&Y&@aajS7bj<j<jn/",
"6<}~Q|[, &N_Ygcj%*5@n%dj/&1%'*W%@;I;))`;:,f;`;d]+;*:*:+;H;`;3>))u*@@0;]$q.t.^<( : : ]@ejfjgjV%3.[.v ..K<y)9.k : 0 j : 9 9 9 j : 9 ( _ j j 0 T 9.W[C hj]:u.t.6{ijvg'!Ig{@f.c 9.%gU [.k.+@R#0;Q#~;Q#))z$['O#W%O#P#u*P#:,l+I;1%1%1%(&:,_&w%!=0&1=L-}9U(}[jjkjt!`2ljmj2[i/T-m&njn%_&1%1%1%I;<'I;O#<'['z$P#['H;D)H;O##;:,))))R{[{4>a;(+oj[gL<]#: /@pjqjA-m+rj& D'3.j.@-+ |'j : j 0 N.sj9 0 : ( _ _ : j 0 : k /)^<..m(t.& j.U.%=Y9tj&iP : . ;=6{R.y$f;))M1 > >')4~}{}{w]0>d]`;))`;`;[' >W%J*2>(&A:!=djn%$=P%o-5_t;73V!uj.h",
"vjwjxjQ-L[o9c*C=PePeN5N5@0f@n@yjzjo@p@^g|$|$p@4-4-Aj8-8-p@|$4#3#4.e+BjA<q#{#t#u+/ _.&+_.y+s##@#@=-e]]#l S ^.c j j ( l l 0@^.^.c ^.l K+l M+c T j j l x ;+W[C 9@Cji@y+y+*.*.E+%+ ji@t#!##@@g}#^#Cj4.4#>#>#^g5-o#o#o@n#^g|$o#Dj*5yjDjo#L[=gc-c-K[9696]&0,p9EjFj_9h,2;E,o9P=n;YgYg;[3&Y=GjGjGjHjIjX=P**@x%s&Jj'!3&Z=&#M; -4#4#4#3#..` ]#0@c : < [ [ f.iihj1-r( .W[]<` ( ( 9 j l J l . 0@F#( ( k l l k 9 j ( ( l   9.W[9@_g_gKj3j[ z.z.< ).l /)K<3@<g6#_!M;Z=*@b$2$t9LjG'Lj3&x%X=3&3&i[MjHjNjq-x,P,K-j,}=l-0=P,Ojh,i/80Pj",
"QjRjSjTjUjVjz5X,PeY*[=Wjk@. 0@yjXj9jwgYjD#Zj`j. 9..  kI$I$. 0@0@|#.k+k@k#k$k%k&k*k=k-k;k>k,k'k%+E+j&x)z*j&< y+U+)k5#s@!k~k{kc%]k!k^kJ$!k~k{k%;w.a.z*z*a.a.y $@>@;a/k(k_k_kA!:k<k[k}k|k1k2k&i3k0@( ( F#( ( ( ( BjMj4k5k6k7k8k_k kI$9kr#0km*96^[a_&0akbkSjckdkekfkgkhkikM9*'m*jkkklkmknkokZjm|U9V=Zjp-pk:@0@l l 0@F#0@( qk$hi@rksktkukvkwkxkykzkzkAkBkWgq#M+P : a.a.z*a.w.CkDkKgjgEkFkDkGkGkP!x-P!}-P!L@_-j&j&z*z*j&a.v+pjw#HkIkJkIk:#KkLkMkNkOkPkQk0@0@0@9.I$h+nk k9.]#thRkSkTkUko-MjVk. I$r#WkKjh@C=O=p<XkYkZk`k l.l",
"@!+l@l#l$lr:%l&l%<*l=l48[_}#9 -lZ<;l},>lw^,lGja@8 8 .  kh+'l)l!l~lu>{l]l^l/l(l_l#5)hE;:l|!Z%-@m.i+%;D!z*j&<lJj/&$;(&_&S#m$R#J>6~Q>=@~$R##;2>z$o,[la.a.a.5{M;_+-@9&k1&]@hc>)hN<}l|l1l2l3l4l3g5lm[6lI$( _ 9 9 ( 7l8l${${l>9lQ%Y=8 %@n[mjq|380lS7F}al/7;0blcldlelflgl'7hli7il:}e:i/_ajlh+` kl~>ll33l1}_%*1j9 9 9 ( _ l m@mlnlm;ol_'j%('plql2!b>73$>rlY%5@(+6#sl*.z*z*P tlul`;:,0;/+{$S#(,Q#a;m$m$i=/&a;,(n(T+< z*z*E+~kS.F%|ji;d=|!a]6_vlwlxlE$ylzlF{H/V&AlnkI$. . 8   l UkBll1v!w=%*G-$h( 4.W:Cl3[[[#<t^DlElFlGlHlIlJl",
"KlLlMl7<qiv^l1NlOlPl&/VeVfo@( QlljRluj>_s31&SlV%Y . /)TlUl!1Vl{(WlXlYlZl`l m23-!>_E)k*v&_&l${$4@.-}gZ@a..m+mB&J*4>:+R. @W#k.'$7.'$k.W#G%V#S#J*@m7@sl: P D h.k.4@:+)=/&l+u&&]#3,2_4#mv^m/:~t^$m%m&m*mo#0@F# kl*RfY&@>>lE~E~ mV9 k9-}6Tev_=mRh,7rf(~*/F~Af-m;m>m;]e($/e(v[H},m'm7fS7)m<g9k!m%!x<-]t!u:~mK-}#( _ '+{m]m^m/m65H|:~:~7<w^a]#3b>e2+&u%A:2%:+H. @Mi%;T v+(m(-]/f;B-'& @ @ @W# @/*/* @R.P&4>,*$*_mi#_-P+[g6./+{$k&u%7j,)u:oi@h0_A]:m;2<m[m}m|m1m2m3mCg. 8 Y U.4mv&#3$:z(5m$jl@0@6m0fVe7mE/8m9m8<0m1iambmcmdm",
"em0]>lb>F;z]k_F;@hF;d{(j&{fm( gm&{!_B~a>,*B&-{L&1g#@}#bhhmimjmkmT<gk4!#5>_u:73d5Z&g;#;['y$!$V#'$lm%gy a.mmnm),y$P&'&H.;@<.&.X#g.7./*G%W#G%-$+@}{ompm: c qmD n.k.4@!$~*@@X%;!33=:P31!*!0]Vf#{rmsmtmumvmwm|#T.a-k*]4u&k*|!2!h(xma@|=w^m/}~)hx(&{N{z4C;2!ymPhX!-<6hU!z4)h#5e{d{d{8fC/t!Jj_gzml1U!w!u&h;Q3w%9=Cj( H$AmBmCmDm/d8<_j@9u!t;P3&]@*;!(&%=+@{$;@)$6{o ,+T &i*;q/4>S#'&/*;@=='$Z#X#Z#'$ @;@4@!$y$!:,_Ema.E+4j.g @#$]$~;:, >#*d5&]#3$>U!,<FmQ<uiGmHmImJmKma@@gh[Q&a>8*K*y^73|~&!Lm]#ffMmbj&{;jz4C;k_C;c>~2|_><em",
"a]a]NmE)$_a]85d5Q{5<'2c]@3p@l Om@>g;1>]/]/0{.;G.)[Pm'lQmRmSmTm%<}_ljUm#3&]A2;!K*$*2>#;5~R#!$=$k.lmI$c D!VmWmy~~*4@H.G%@$`#`#a%a%f#% W#@$K;V#!$*:8b #j j f[D )$ @'&|+S!Q#`;')$*g;A~E)#31!>2z8XmYmZm`m n'lt#V%o.g;A~{^K*@37j#3(%` s&.n.n}>|6}>b{#3-!>_E;#3~2&{_4w!1!>_-!#3b>E;D;D;@>x&HjCjy&+hY&g;$*g;y^A$X*5-0@j<+n@n#n$n%n.5kj+h:l|!&na>,*O#4>R#S#/+F.r.6{*nl j @#=nr/R##$G%@$@$Y#a%Y#`#`#X#/*G%G%R.)=-n;n>nD!T ` .g @=$!$R#))w~J*K*r*33d5#3-!ljP|S|,n'n)n!n~nk@g@[+^$y~z~y~g;a>{n`2]n`9^na{){1^=:[>d5b{c>E)[>-!z4)h",
"c>u:h;;_&nS>/n/nV>'2'*K*^=4#l Qlk*8*Z&B&y~k]JfF.s-m@@g(n_n:n<n[n6_w!y&R*33#*$*J*H;')3>$;Q>~$V#;@u- k( N.}n|ny4%=-@)$<.7.R@R@R.V#R@O@&.===$'&9>*:,/1nT _   v,)$ @=$|+T#6~))M1@;^=d2s3d5@>w!232n3n4n5n6nPme](+U.,*1{{^$*@3 &;!/$/)l,7nX&y^/n1>d5E)a{,l,lF51!)hUmb{|!&]b{}>P3a{B~*{Y&)&^gK<8n:&$>A~+;//1{i=U.4-0@@a9n0nanbn381!w!u:u3'2,*2>#;`;5~(,~$-$;@q.6{/)( j %;cn-^(,m$'&v$o~X@U@7.=$I.V@7.@$W#R.~*_)nmdnT ( . v-G%V#!$Q>f;#;H;2>J*,*#*x!Y-:lQ|6_enfngnhnin^#e+d+]$(-q~y~26b{G;R*Pm`9N%K*,*k*B~/46363jnQ3s3B~a]@h",
">_.nr*2&+;$*J*W%['[':,A$i=4.. O^w=%=u*[':,'*:,m.|g}#Pmknlnmnnn0_23|!F5ons3a>$* >w~3>[{0;8@Z;#$G%rj k( j pnqn-{@;{$'$Z#R@W@I.n.n.R@t$U@+%'&@$$;8~|^rnj _   D n$/*=$#$~$=@0;$;))@;K*h;A2#>$_(4sn2ntnunvnwne]s-U._&B&<'I;%=%=8*X99.m,xn!=G;$*K*B&K*8*1&:&k*ynoi|!X&B>2&2&u&u&K*,*^=n%xn|$d[gf+=i=/&W%,*'^^$}+f+l znAnBnCnKivi:l&]63*{d2+;w~))4>(,T#Z;'&@$<.6{{ ( j ;%Dn;/R{m$#$W#R@O&W@<.R.I.$ $ Z#n$/+f;y~EnFnj _ 0@{gR.#$~$a;6~))#;#;@;B2#*D2u3d5A&U!>2GnHnInJnk@Cj3--@,*,*@;:,/&@@Knm@I$G.w%U$(&I;l+^=G;G;^=2&<&-!-!",
"2&u&B&k*a>y~9{+;'*P#(&U$vgd[8 LnD%.@Z;!$~*Q#~*s.]g` BjMnNnOnvlA&A233s3#*y~{^W%R{f;@@=@#$'&'&=$;@ojI$( 9 MgPn6@Qn;@'$h.% W@R@W %$> t$d#Y#W#g.]+j+,fRnj (   v,+%==W#k. @R.!$Q>0;:,J*g;]4F5E)|!Y-SnTnUnVnWn{#s-<+)=~*%=%=^$P&2%B<9.8jl,P%(&l+,*u&K*K*u&|&u&:&|&Y&v&Y&g;1&1&u&,*'*U$J&7-c$L<p,)=)=~;P#~;~;m+[+5-]#XnYnZn`n(4A&A&E)63@3K*W%f;Q#a;Z;G%;@ @@$W## { ( j &i)-7@=;B-W#+%t$c.> - = V@W@u$I.W#m$=;D:d;!@9 ( . {g4@'&#$#$m$a;P#))3>2>9{#*;!D2u3u3,2 o.o+o@om@^#,[F.%=4>a;]$P&:+Ofk@  d+!=+&1%(&W%B2.;d2a>r*#*k*t&",
"2&w%5@u%,*$*G;,*.;O%^$m+g[*nk #om+z$a;=@P&P&m+}+~g` #g$o%o&o*o=o33D2'2y~{^d]`;R#a;{$#$4@H. @)$)$Mi k( _ ^.$@L<a@t Q@@.@%@%`#; | = X#`#I.$ F $@,+/@j T ( { v g.7.'$'$'$;@H.{$R#$;O#2>//A~#hD23=-o]l;o>oPmz-ijo.m+l$]$:+.@<',oT.9.3%)gx%0&$=^=B&r*k*t&0&dj0&+&^%I&U$B&k*d2B&l+i=5@)[8j'o/)4-!=k&-@:+)=8@K&U.,#9.)o!o~o{oUm#>A233A~26W%:,0;=@/+G% @k.'$o~&.= m=k j T &i%;e]N@I.a%`#X#$ ) u.Y#x$X#g.I.D'e[W[#@M+j ( . !gk.W#/*G%'&m$!$~*Q#:,d]B&a>@3A233]o*o^o/o(o#g]<ojq.!$]$=@8@8@$=G'`   _oV%l$^$k&y~G;2&K*1&^%n%X%2&",
"s*=&vg!=w%7nw%Q&O%a&b$*@.g@&9.Cj:ot/['['P#A:A:X=Ajh@. 'ljl<o[oK#}ogfg;W>|o4*~;2%P&0+L&1o1or,2o2j1$,+( ( ( ( ;.()l /):.Y#Y#'fp=##3og.Y#y*e.l 4o^.j j j N.e.E-K<>=y@A@y@v@=#E'8@@@5o6o{:&n`-7o8o9o0oaoc-boY*Hjb$1%A:A:5*A:W>coY I$8jdol,gjeon%A:_&+=t%n%cj=&7nxgJ&I&k*|j8*'*!=O%O%7-l*fo` +-goA$~*8@)=)=^$L&U.%@o@<9dfu:hoioa{852~z<2>I;f;a;R.@$ @ @/*'$2.[.^<l j T j j |'&;Z u a%+%+%`#I.Y#@%@%I.v(/)^</)( ( ( (  k{g]:)$4@/+{$Z;!$R#Q#`;')R>F>c]Q3jokolomo4k'h k1$no-&P&Z;]$~*A:oopoa@` @&1gvgm+$=w%l+X%X%u%l&|=A>qo",
",[k,6-6-l,}=6-1g6-V%g[.g*ge]k ( roN!0jso8gto~a6luok@lklkvoK[k-P=b-C=C=C=Bi4.@&fo#&U%m=g+ .@ga@I$I$( ^.( ^.( ( ( 8 7   a5z^K+K+K+l X;4o]#j j ^.T j j j j j >.l h+9ke[fo/)a@#&r&l*lmu-4-m,@0PeK[N5wojkxoD&W&c*[=yozodj0%p,qj|$0@( ^#dodo|gxnR=)[ug>[K-7-l,k,Bil,x,a-Q,X*s&x,|=gj|gdo`fd[( a@K$tot=v%/%8*Yjc*Ao4&4&jkBo*'Cop9DjDoq@AjT.jiAoEoFoa@9k^#lkGo]#,+=+j j j j j P c T ^.o=}*,+,+M+M+a5z)]#k 8 l ( k ^.( ^.( I$I$Goh@Cj%@%@k@r&4&Y*g@o#Hob-P=Io2;JoKovomkmklkEoLo.31&X%(1f0p,n+( ]#*g)gdoj.x%6-l,K-K-7-s-7-l,`+",
"{##@Mo#@#@=-z-^#%@e] jv9M@^.^.( _ 0@. . I$wnNoo9d-O=7gDoOop9{md$Poo-o-Poq-Bk#oI$ k k8 K+QoRoSoTo jt+t+Z@]@t+]@%+%+t+]@]@]@q$a.E+M+v9t+]@5{3jy 3j%+%+%+%+3jniUoUoVoWo1j( 0@I$h+XoPoY=YoUkm-n-O=P-k-ZoDoRkRkL[&*n|`or#ok( 9 9 9 9 ( `9&@#g{#!# 0#@!#{#!#e]i@{#m@A<Vo2#Xg#op#p#2#=-!##g( 9 9 0@|#a@k@ pNoN5[=N5b-o9.p+pm*o9o9N5l-^g4-u-6lmkokok( $h~@~#~@&@|#P T T T T T T P E+E+P y -.a._-a.w.w.P y -.P P P P P P P :@v9wmEk}-e.l I$h+h+@g'#<gthyjN5o9[=Wj@pWk/#N5K[[='l4hKj%@9klk,+( ^.^.M+t#t#m@)#c$CjCjw-w-p#p#2#;+",
"_ge+{mo@`of@f@^g#pl#BjPmMo{#t#}#9k. . e+_a$p#>R*.n%pM<@>x!1>c]*{b])_G^&pk]q~4<G'4.d[k |#F* >#;~;/+G.-@E%k&{*{*8@r.q.;@F.$.Q@x |'I.W#;@ @F.q.G.:+]$E%p.o.o.2$#;H;*p3':@e.[#,[noEe)^=p)_`i-pcici){#h,)x!;p>p85b{-!y&kl^#_ 0@&@{##@tgm@q#q#Bj#o,pBj,p,p'p)p!pVotg~p{p|#]#3k&@i@j@]#$h]#3k]#0@( ( ( %@Sk]pX>,)gfB7730o4<|&B~a{851^85H:2~^pZ=_g_g]#9 ro4*t(2+A95-S.S.ug7#`= -f+6#C@w,y@##$+=+(<p=C@u@6#S.7#B</p1o&#M;2ov@W,5ot(3'M+k 9k@g4-A-D:G>53){H:B~/n;_9;(p`&P3F5_pPfH&:pq@a@k k l ]#l ]#1j3ki@Bj pk@h+mk}#4hk@/)I-",
"<p7_$3[p}p|p1p(4},j*6ji;[,Pf2pSlN=<gg+B93p4p5pC;'(6p%:1^{ng;^=z$3>#;#;')9{!:.;u*l.M;r(;+&6z$@@Z;m${$!$=@Q#u*')@@'&'&#$=$Z#Q@X;()R@+%==@$'&V#+@P#$;~*/+/+/+P&@@J*7p`=#gG:m..@~*{^9{D)')x~2>#;z$9{){W>HfFi;p@_x^5p8pa{9p,+FoU=H&0p,,#,^;Y>apap6jSnbpcpdpepfpgphprgipjpkp4,]pdfQ%lpg:f:g:k<{>Ei$he]A-kcmppi!_npop!_]4Q3k]J*))H;H;2>H;9{z<J*-@F%2-K<ppk0u)@;y$P&P&Z;Q#)) >@@=@~$B-#$W#`#Z{'+% g.#$~$|+{$A:D)W%:,Q#~*8@P&]$$;z$w,$@C  -*@['//d~-{H;#;O##;<',*@3P3%^qprpt_|~spI=7*9jI$<g4;:ptpN={;4$A',,up`g;}`gvpH_wp1p1_",
"am8<K5xpypT]zpS|P|l>z41!w!>_#3d5Ap|=@&gfc>F;1~K*,*B2{^q(.;]///4~D)M1R{R{R{$;6~Q#a;S#G%r@3<z$0;G%;@/*W#7.o$n$$;4>&.X#`#g&B*X@Bpb%f#B*`#g&x$@%R#`;'&+%n$'$;@4@H.Q#,fc$w-@$T#R#0;R{`;M13>#; >#;d]z~//B2={B&@;I;9{h;Y&33!j}#|$CpDp73a]1!#3$>$>v!s<@6EpFpGpHpIp2iJpKpLpMpNpI(V!~2>_F;C;Um-!73[,7k&@Op'2P3]oq(g;{:q~z~B&9{'^.;O# > >#;3>w~3>$;a;+@G%p=#go,H;P&4@;@ @7.n$'$`;))@$X#x$g&`#f#}*>.U@V@x$!;&.+%Q#7>G%o$7.W#/*;@4@a;z$^<J$E.{$=@0;[{))`;`;`;:,W%d]]/9{,*),z~k(q(@3&ecdk_Pp@gD=|![>u:Um_4&{V!P|S|QpW]RpSpTpUpilVp",
"$:u!U!Wp5_9l4$apx=RfXpYpm&Y&Z%Xpnjp,@go%'2t&^=z$y$@@D)!{d]D)2> >3>R{5~$;J>6~0;(,S!S#S#r-y)Q#R{4>|+@$==+3A*+%+%o$!;e#f&g&-;f&'.X;R@B*B*f#f#`#@%Z#+%7.'$<.G%P&I;#;y$%@5#B-T;S!R#$;[{))R{R{M1`;3>') >O#9{ >0;~*z$@;X%@3/n^#K$l&of.& &B>YpXpYpv%4mDpx&Y-#:#:Q|V!.hk;Zpk>-j#>`pll qm&w= 3u3Y&3$_&f@>#H^Q*G;W%))~;z$D){^#;H;H;M13>w~M1R{))$;6~a;T#U#w@ ko.3>$;8@4@=='$7.n$+%+%X#`#V@M&B*V@}*'+f&B*g&V@X@!;+%o$&.o$7.W#/*=$+@5~4>]<r-S#T;a;(,0;6~[{5~))`; >')+;D){^-{2>@@P#W%g;e2y^.qf@%*v%R&F5<& q9& q+q#:@q#q68$q%q58V!2!",
"4mCp)&3$Q&k&xg%*k&n%/&_&I&D%J&N%vg4-#gB!y~5*~;Z;$;'){^e~W%#;`;f;$;$;J>/,/,0;Q>S!S!S#T;&q` y$`;>^Q#R#'&=$W#W#<.o$@%@%!;g&L%B**qb%V@`#`#g&`#`#x$@%A*o$'$'&{$1+H;Q#=q$@,!m$>;S#T;R#Q#[{f;$;[{J>[{))))3>e~0>`;Q#Q#z$A:,*-q&@Cj9-;qq9djQ&njU$_&xgJ&a&l&3$Xp3$E=>qW*R&3}R&Cpdj%*dj_&_&njl&)&QfL-gjh@s@h;t&A:['Q#R#3>4~0>`;3>`;f;f;f;f;5~[{/,(,T#S#p~=#]#2oJ>')t({$G%<.7.7.Z#!;g&B*f#B*M&V@(<x f#g&g&Y#x$f%&.7.<.<.v$@$~$S#x~M10;m=2oS#S#S!S!R#/,/,6~[{f;))`;#; >d]^/J*`;R#~*$;X%d2so!#L&xgE%0&njw%0&!=Q&djl&3$m&>qx=,,[,W*",
"0&i=%=5@5@a&P%%=$=i=!=J&!=D%O%3&^g]<|#{*#hV>y4Qn$;a;R#6~0;)=['0;!$+@S!Q>R#S!9>>;~$>;U#,qe.1oR.)=@@,f'q=@E.n.@$'$@.W@+%-%&.B*;=v(a%o~@$@%O@X@o$<.g.2.x*)q!qV;:+'&^*'+~qV#B-U#T;T#+@a;S!T#T#~$Q#`;0;Z;+@a;R.R.A:y4W>u%ugu+9 Vo`+P*5@Q&i=0&A:5*Q&^$l$^$Q&!=0&w%l&Q&5@a&J&l$5@n%A:A:Q&Q&Q&;qa-4h_ !#a&K*1%:,]${$0;))4>a;Q#Q#S!S!a;Q>R#R#S!T#>;U#B-{qy 2oS!)=t(D^]q{<Z#Z#+%f%g&O@`#7.<.@%}*x B*f%f%f%a%X#7./*W# @#$^qQnf;['+@q,,+(mT;S#S#T;S!Q>(,Q>Q>a;S!~;@@~;z$#;f;@@~*~*O#r*'^0j0@!gb[vga&l&!=n%5*n%n%l$J&a&a&k&5@n%A:",
"(&5*Q&Q&Q&a&J&!=5*l$O%l$a&vgno)g9k k0@/q.q4<(qV;$;a;6~R#S!+@#;d]['0;Q>T#S#~$>;U#B-V#==3#. +-E%!$y$~;[{I>|.2.'$n$g.I.@.X#Q@Q x l R & 2.+.D.@.g.$.$.h.~;,f~;!$.@;@x40@Fko~v$s,|+S#T#a;0;0;S!$;*:H;0;)=+@+@]$]$5*>(6o_qt#j ( ( ]#T.D=l$^$k&5*(&(&5*i=%=n%0&w%_&w%0&n%k&%=i=/&w%/&i=%=J&:qBi k( 9 ^.6l<q ; ;1%P&!$=@=@)=`;*:f;T#S!R#R#S!T;S#|+V#==[q^.2-;@;@'&a;,f}q&#$ '$'$X#$ V@n.X#/<&%,+u$R@<.<.I.M%+% @D.6{4>I>R#8@G.4@C@l 4#v$-$|+~$S#S#T#S!Q>0;0;')@;+@Q>(,0;y$2>H5V>V>B93@(  kU%6--&5@%=l$J&k&$=Q&O%k&Q&Q&i=/&1%",
"J*G;B2g;#*B&u%:,i=gj-@E%vge+h@e[^#g+( 0@7#H.4@lm3.n.=@!$Z;#$#$S!m$W#Z#h.h.'$'$+%@%@%Q@z-_ y Og|q1q2q2qQg3q'- j<lii j/@)+M+^.-.T T P v+v9e@Mg{@{@ii<lJgQg4q2qb#5qy 0 $@X@!;&.+%o~i&Z#M%@.g.'$>;!$!$S#!$Z;:+Mi]:H.!$%#0@0 h+h+]#e.r#ug2%~*~;$=5*1%^=B&B&$*<'l+_&'*+&^=<':,A:/&i=k&8@Yo6lg+ kh+ kj &@4@:+r.(+<+R#8@T#+@~*f;$;V#=$'&G%@$=$K;-%<.X#G:c )+.$fg6q7q8q9q0q,!P!x-aqbqy-J+!!cqP T e.#+K.+5|-;#dq.$|-bqeqfqgqhqiqjq;-( c$M%<./*v$@$@$ @;@=$|+$;R{T#Z;S#S!a;'&m.m.-@:+kq0@l }#^&8jd*P*O%m+K&2%(&A:U$$*2&u%l+'*^=",
"J*B2B29{$*A$O#(&%=}+3#,#2-|#h+]<W[e[9 c lqS.q.1.& U W k./*<.-%W#Z#@.X@W@I.@.M%x$`#W@,.#+j j =+[-mqnq6#M;2-W MiX oj6.W & i.U v-1$v-v-}g[.rjoj]:]:j.>#u-,#oqmgpqM@T j e.%$a%X#`#W@R@I.t$$ I.a%+%@$'&#$'&X t.# 1. @#$)k( P *-#@=-a@h+}#qq,#W;@@/&:,<'^=B2{^G;'*$*9{9{9{2>O#n%~;-@o.[+A< kl v9`9|#: `9p.~$$.W [.@ #.m$/+R.=$Z#a%I.Q@U@x$g&x$x$!;R@]^9 : : 8+rqWo 0#@#@@gW[W[K<..C e[;+;+x ;+e[3<w 9@hjhjK<K<K<#@sq&-Uo%]Z@: : j x %$V@`#@%+%n$D.+.R@Z#+%v$/*/*'&H.@ v D'|.F.m.`jj ( $@$@,+|#g@_+m.}+l.5*I;8*K*d2d2K*{^I;",
"o.2%)=$=m+2$~;k&E%w-F#.  kC j.ojrjp=( : j l C@+%Z#$ $ h.g.g.Z#X#Y#R@R@W@W@; %$R@`#W@) 9+k Y _!)$G%H.-@{$H.#$#.$.n.q.E.$ D.%.5.rj|.h.M%h.k.#.h.)$K&4@4@R.{$Z;k.>=#-( k r f&x$W@c.%$u$t$Q@R@R@I.a%Y#&.n.= +.X#n.$#1-c j =+W X 3.j.D']#F#F#4#-@m+)=b$-@/&:,tq>[~;@;:,l$E%@@%=P&(gu+u+]#2j{g]:MiE-: j }-i+k.g.D.= M%W#<.n$X#a%I.$ % - u$> t$`#x$u$J.j ;%#-# /+:+G.G.l.F%r.|.|.;@E.2.}.|.6.6.%.D.@ h.F.)$$._+;@k.:+/+-@4@w,uq;+^.e.) Q@V@R@%$u$$ W@X@R@@%&.+%+%Z#h.$ I.g.+%u-]#P j `96{Mi]:}g` l $h$@_+u*5*~;2%['z$5*$=7#",
"m ):lmij)$ @)$@-$@M+,+t & ;@r.s.1.E@K+a.T ( Y u.t | | | | t , u$t$d#Q@Q@+.R@,.Q ) ! I ^.T ^.t & %.@@vq_)k+R#!$Z;q.)$n.g.Z#D.6{6{6.|.#.7.#.;@R./+{$wqxqEeyq{$# v,m=k S 2 f ) u v Q@U@e#d#t$- u$> ! r ) F Q ' > V v(j : y t.W E.m.l.Mi):` ` Z @&3-}+E.,[]:]<8 +-l.b$o.o.p.]g}g` l m=Mir.#.|.X r(a.0 K+u,2.+.- > > & , > t$$ W@W@W@X@Q@; ' u$c.| 9.^.m=t.# G%j+6@s)zq{*F%;@W##.n.Z#$.}.@ @ D.g.h.$.)$'$;@/+a;*pk+J*4>n$5.3.'+^.S e , u$%$%$Q@W@R@I.R@R@$ % & ; t., ; = W C ( a.a.;+D.%.E. @%.y*/)c %;4#*#-@q.l.p.rj$g/)",
"J+;+x ;+&-!kJ$pq;%>+,-pqy-AqsqJgE#u(: : : T J+-+y)H H H H e n n H H o q u > ! m { k j z*T j y)i.}.E. @G%q.;@/+]$F.F.r.E.%.+.V v +.I.D.'$k.F.{$/+F._+n.<+|.1.Mi=-j j ^.S J { R p v,u Q f f r f r e s s r r r p -+I$j : a./@pqBqaqsqFkpq>-%;;%;%V+=-%;/@/@=+^.9.^#d[9@1$9@e[3<W[K<1$3#t-f+m(..x / 0 ^.8.o=t | | x.f s f x.| *%x.Q c.%$, F 1 2 ] S -.^.$@@-5.o.-&W;F'G.:+!${$F./*n.M%1.Mi& # %.$.)$q.F.+@Z;4@/+!$Z;H.|.t.^<j T T ( e.I d q d#t.F q r ! s s ! r f ! o v(()$@j a.a.c j#r(+-C<G:..9@v(3<3<@-f+S. .c$W[|'M@",
": a.< } 0 f.a.E+P+Q+F@c#CqDqDq}nEq5{0 0 : / / < : : a.*.*.*.a.a.D!D!D!a.f.T P : : : a.< a.: 9 ,+Y p V V t.W @ W X [.Mi]:U ):{ . ^<, u,u D D'Mi3.3.[.E * U C ]<T T j j P v+v+P P P ^.^.^.^.-.^.^.^.c P -.P P E+j&/ } : < a.h#z!FqGqHqh#Q+IqQ+a.y+y+_.< < < < a.*.[ _.*.Q8Q8Q8Q8*.N F@F@05Jq*.j&< / } : P )+>.5+5+`.e.;.>.>.>.;.>.>.e.`.K+-.: a.T j j j ;+U [g@ # 6{rj|.|.6{6{X & t.V y)m=F [.@ }.|.|.$.}+s.# W W V [.d[k T a.< / a.T -.K+`.`.K+K+K+K+K+S -.-.^.K+=+^.: *.< : : : _-KqH%LqKqJqQ8Q8_-_-a.E+c T / a.a.a.",
"Hon+=-{#2#n,do4.|g7-X*[+to<'_&njl$-#0@(gTkMqNq/k7lOqJgPqPqJgpjQqRqQoaq`jng-aA^Sq3'*@@-~@a.a.a.: c K+,+]#,+M+=+c v+v+=+=+=+P / &+P =+c c u+=+M@/@/@`9|#,+|#c j T T ^.d[m.G.F%m+q,Tq_q)k5#,!^k~kt@x-}-FkJgsqsqsg>kUqVq`jc [#p.tqi=!=Q&-&)[7-noC2|gd*[#z^9@Xg#oM@M@:@wmA<@g4h1$[#/qAjJjLj'!7#'#=+f.q#WqXqYqZqD+w9D+D+%+s+V+&is+&i&iPm/g(g/g4#3#F-d[( T : c l g+3<|'3<d[W[e[g+/)>.>.` ,+j j J ` y)y)#+'+x ]<]<]<y)Z ` ]#9 : a.a.v+e]3@roHk`q r.r{@S3S{3qGq+r@rH%IqD+T+e@#r$r=kpp|#=+%rJjqj&r&rB<f@[#c$d[&@h@{#:@z9:@&i*r",
"=r-r;r3&[+F.I&jfLf *|!^%K*2&+&A$P#0+#@>r,rP3b{[>&]@*^pIfW>G;2>B2J*W%I; >*:4~2>#;3>f;R#A@u(z*:@'+w->@>#'#3@J$&-&-w-p#pq{@]@_.(.^ *.N y+ j)##@#@ 0w-;#;$4#`+s@w-$@j ,+1.(,J>3>H;`;3>')O#')W%@;O#@;l+$*,*{:S>&n ;Q*33N<I*#grj~;<'G;K*r*X%,)'r7* */$L&:qG.I')r!r~rwg}+*@u9{rf-(p~m]=w=9{,*^=(&]$K<Bjo%]re2<qs9-q(1toi=%=R#0;R#y$y$y$P#H;7>H;H;$;6~G%3<j ^.%;^rJg-lUo/rr$U+NiNiU+{@/ *.*.^ (.L.y+D+h#slsl}^}^1#^rToSo(r^rM+P a.P.f+/+$;D)4~9{4~J*~*)=y$u*1%u*$=toB92p~m_rZ&a{:r3=<re]a;A:8*,*K*G;I&_r[r}r.qgjx%1gX*|r1r2r",
"3rA-`-Gfnjq.m+XpnjdjJ&L&G.p._+(+5.m(!#l04rO%8@)=<'+;O#R#!${$Z;{$/*W# @;@G%@$;@;@;@;@n$* y c r(|.4<5r6r7r~;y$8@=@)=]$Z;R#P&C a.Ng$ D.5.k..@)=Q#@@Q#~;7@y4z<]/u*i+0@,+t.$.m$G%G%F.;@ @ @W#W#;@'&#$m$~$a;@;H;z$:+.@.@!=s9ni .}.ijU.F%H.p.^$a&0j5@P%l.2$5r,)!=to8r@*9;E%-&~m9;9r/=w=n%nj$=l$E%H.e[n+ ;0rI&+=B!!:D:9{I;))u*Q#~;/,0;0;a;=@Z;S#R#S!S!#. .9  0o.(&4<4<j+y$~*)=a;W,F%v@m(!k~kar[ M@2otq0+.@]${$:+l$)=f0,fo_w%j.C T u(h.!$8@~$Z;=@0;y$0;~*0;Q#z$P#(&A$J*H5Hfgf/=8*,,br*a$@o.R.E%l$5@i=_&ifF=`-e=m+-@L$0icr %dr",
"G.F.F%-&u9_+s.|.5.2.# W @ $ ; t v ()#gW.to]$F%r.Z;a;G%)$k. @ @ @+%+%'$;@;@W#'$W#@.% u H ^.l * #.t(>(+@+@D.2.2.D.a%M%M%E.n$3.h#er@.I.2.2.2.2.2.1.D.%.k&)=['`;2%Mi/)8 n u Q@I.n$n.n$#.k.'$n$7.W#/*;@ @'$ @y$m$)$q.G.P%to'-/)t v,V 1.2.@ # 1.}.(+s.s._+<+_+X*m.b$2'H'o._+m.m._+E.h.%.s.h.* U u.0@(r$*p.H.F. @f;))#$/*'&G%;@W#7.n$7.'$'$W#k.'$M%$ G /)(  .K&D)+;I;I;-@h.h.h.%.5.D.2.2.@.mc_.w k. @h.|.h.%.%.%.s.$;]+fr36k.V[^.-.! t.a%n./*W#W#;@ @'$+%n$G%G%;@ @;@a;`;=@l.R.2$X[gr]#U - v D.h.h.|.s.}+#.m._+q.m+,o.@G.r.",
"#.m.m._+(+%.6.W ; , t p t t q o ! L<j@@5!-0;)$1.D.$ +.$ Z#)$n$Z#n.Z#$.g.h.D.D.D.Q@; - V /@X;D.n.n$h.D.# +.# $ 2.D.%.$.M%@.I.hrKgg.$ 2.%.D.5.# +.$ 2.1.h.Z#G%1.t.W[`9u.& - * = +.+.$ @.g.n.'$n$Z#Z#g.D.W@% % - 1..@u*{*t+]#n H ):u.v,v,u.U t.E 3.rjrj,[@ ojrjrjrjrj6.6.6{X & U u.u., u.q G H c So['^$H.1.$ $ I.Y#g.n.n$n$7.7.n$n.$.D.I.$ +.; V u |',+v,6{H. @E.s.1.2.$ W 2.1.M%D.+.g.irjr+.$.M%h.M%D.2.$ # # D.M%#.k.n.2.;+M+t , > +.g.h.g.#.n$n.+%n.n.)$)$n.D.D.M%M%h.R.5*Qnj0( H q o t , u ) , ; = @ 5.s.U.<+r.m.(+",
"5.1.W W oj5.1.+.= g.h.$.|.M%M%D.* |'|#kry$0;;@D.a%M%Y#Y#a%@.h.@.Y#I.2.D.g.X#X#X#@.M%I.W@ig--m(G:$.D.$ $ +.+.+.+.$ I.I.$ M%a%lrKgY#+.* = * # W Q@+.+.$ 5.D.n$;= .W[,-- M%Y#M%M%M%M%Y#M%2.@.n.+%Z#n.g.$ # $ W@+.q.~*P&4'M@+5X +.2.2.D.%.E.s.6{[.3.6{3.[.[.[.MiMi3.X 6{ojMiE # |.%.1.# X * & E ]#XgP#~;@@# % Q@Q@+.a%+%+%+%7.n.%.D.g.Y#M%a%D.D.a%+.m];%V & #.n.M%I.# # +.W 1.= = * ; X#mrnrI.I.Q@$ $ $ $ +.+.+.W@$ a%+%@.M%b%ar+.I.a%a%Y#Y#M%X#M%D.@.Z#Z#n.$.X#a%a%a%a%2.!$))V;-ac ):- # $ 2.5.1.M%5.- @ 5.3-rj1.5.|.rj",
"1.@ W X [.* * & & & V * * = = & p m=0@w@m.[.# D.I.W@W@$ $ $ $ +.Q@% Q@+.2.1.I.I.$ I.+.; @#} c l (<u$% W@% t$% % - Q@= = p=E@ors+v ; ; & V t.& * = = Q@Q@% V . ( c :-v # 2.D.2.# +.+.+.+.I.2.$ $ +.+.= * * - * = $ n.t,:@$@v [.# = * V t.V t.& E E & & & & [.& & & [.[.[.* & & X - = +.# & u.0@=-S#5.D.# = Q@+.+.# $ I.I.a%M%2.+.+.+.+.$ D.D.I.= 4oP l ( o=# $ +.Q@= = * * * W W +.% [-#%+.n.h.M%a%Q@d#= t$% $ +.= {{>.u+: Mg- Q@R@2.D.M%M%a%$ +.= Q@W@$ $ $ $ R@I.D.M%# 6{G%%#F#o , = +.+.W # = - * = W W X = # @ +.",
"3.3.X E-+ w D u.o=;=Z y)m=L<Z m=  l f.pr> t ; ; ; ; ; %;&i{#u.' u u ' , ^<^<z)% $ +.}*;-_-/ : } =+Z v(' > > , ' u {.C.| ! ;.N E+Z s r Q F , v V > %$V F [*y } 0 : / %; ]& & & i.()()u V V > v V q x $@v u u v V F * _1E+l *n):()y)L<e.m=]<K<w w w ..:.r(:.z); & E i.u.u., u.):3<|'C v,U u |'c s+W#- V %$v , v + w ;=> ; ; - - ; v D't.= X X = E-/@} 9 0 M@j#> ; - & ; V > F F ) r G M@x+m=| Q ' g > %$%$; u$%$, q x j : } q$w - $ W@Q@* + o=V > > %$; & hj&-m]% - * * & v D.9#j { m=t y*()()q ) v V U U v & X 6{# r(",
"H qr,+P f.: K+=+^.j T j 0 )+M+j j : < #+n { ^<w o=b%`.c : ]#u ,.' u v %$& - u$- +.E!P / z.< / / } j a.J+J+5+e.k 9.J.B.J.l < (.[ 0 ^.I e R m=)+w)J+>+w)^.: : < d.< [ [ y i.= V U % % - %$> > %$- /)9 c j#> V 4o-+J J >.j&: S ^.M+,+: : j : j c j j c c ( k   '+$@$@`9|#M@M@M+=+c j c =+e.e.{ : E+n]m=J., v , u X;9 J ) > v , v v V t.V v & [.W[:-[ z.} d.z.a.e.R '.v(N@1 y)t q e I l / /.a.J e f f Z I y)v(1 R `.^.< < / / [ v+J+E@+.u$- }*Z{V ' Q ) Q t 0@: K+v(v V V y*n r >+: 9 ( k =+^.( k ]#'+` m=#+,+$@-+u,u,]<",
"v+P j&(.(.b.(.(.=.L.(.z.z.M@%+rry+u+E+8+v+v+f.sr/@]@/ } } c $@>$--4+;%z ar;---b24o%;f.rrf.f.src F#( / &+} / } F#src c c / L.L.z.} : c ^.( c } / < < : c l l ^.: : f.8+v+z^B +5V+pqy-y->$--;%>$a5c 9 0 u+;-NgE+/ srf.E+N rrf.E+%+t+_.j&/ j&[ j&*.[ j&j&/ : P c : / < < / a.< a.a.a.E+-+u(/ / [ [ a.0 0 / !!tra5f.j 9 >$urvr4om]E!#-#-tr;=+ z)--&+/ / / / ( sjj / a.j&j&_.: l l k : } wrL.L.} k ^.( j j } / / _.[ _ 9 j } } } } / E#z)(<vrE!m]4ob%b%F!E!v(j : } / xrJ+c c =+l } / : < / -+M@< [ [ [ [ [ (.(.(.[ c e.=+",
"^r&i%+E+_.yr/.(./ : 0 0 ]#v-u-y@r,=#*#w@zrZ9E-()v(|'C 4.K<` 9.l =+c : : P ;+E@z@l=3o##f+&6>=&6C<m(V[E-..C W[3<^<w ;=o=o=w |';+x v(;=;=w o=E@E@;=3<3<K<z)G:V[m(Ic-=_1w,l=Z9Z9l='fa5v+: j N.K+l l e.e[4#k#y*w ()E@&6x4x4C@>=C@f+m(@-&i: a.: a.[ =.=._-P u+:@v9} / / [ =.=.=.j&< j&j&8+%; 0J$..^k!k!k~k!kz-#g-+X;b2`9l ( ( c c j j : P ;-F-C<m(c%C<@-tr$- .;=;=w `9,+|#;+4o*q+5;+;+]<$@=+u+:@`9-+K.-+e]L<`9`9&@$@e]]<Y Y B  .%-$-#-JcC<t-4o=+/ } : : f.c k 0@|#&@;+'+$@;+$-c%C!{k)k~k~k*-#gM@0 } } z.=.b./.b.=.[ a.y+;-",
"@$I.u$G K+b.(.z.9 _ 0@a5V[n./+S#S!~$#$/*+%- > ,.' F , A@+.q H ! u l l m=E-uln$D.M%Z#2.$.Z#)$n$$.@.h.h.D.; > u.' ' ,.].u$%$> ' ' v %$u$c.> ; , , , > - +.+.X # # 2.@ 5.5.x4M%$ @%7.C!#+_ 7 ! J.Z 8.V $#v F F ' ; * @.@.E. @/* @W#W#+.y*  ] 8 j z*< >.qrX >=x@@-C m=M+j&< j l J J y)t-;@ @H.;@G%W#n$n.+.- > , v $.w@;=8.Z Z I ( _ M@9#7.@%g.$.n$n$$.@.@.%.D.D.M%# & %$v ; * * ; * * ; u.n]; - = % %$> , v V X %.n$'$)$k.G%'& @k.$.+%Z#Z#@.i+Y e.8 l N@R |'u x4ulu.u ,.> * @.=$U#a;R#Q#+@#$##W[:@9 ( : (./.C+;.^<}*&6ul",
"5.= Q@'.=+(.(.z.} c >.%$* ; * X W & ' ' F t ) | d I I /){ Arm I v(c j N@$ /*$.l=y@D.F t u F Q F F ) ) ) ! q q r G f r ! ! ! o H o H ! f ! ! ! ! ! ! H s H o G ! ! G ! H t.x@x@h.7.@.1 9 9 m=sj. 9.{ /){ I d e p q p ) u * * * - ; & ; R l ^.0 : : e.n = @ C@s.2.qre.: : j k l R - +.+.# 2.I.= u u ) ) p H qrd Z y)/)  . /)Z 9 ( c.==#.2.C@>=G G q q q q G ! G ! ! ! ! ! ! ! ! r G ! ! ! G G r r r r G q q r ) t t F ' ' u u F t 2.&6p='$|+D.8.^.^.n]*n*nm Z 8.Z 8.! ) F u , V ; D.%.D.$ +.W y*k j : [ (.*.d ; R@n.%.",
"G o p L<: (.L.=+6+F , t ' F t t t F ) q r 1 H { { /)Z R 8./)    _ 0 &+>., * N@Z Z /){ 9.! F F F ) G r /)Z J./)( ( l { m { 9.k ( 9.{ {   _ ( ( 9.m=/){ e n n H H H d . ( 0@`9a@y), ,.8.0 0 F#( 8 ] Z R 8.J.d *nZ R |'! G ) ) F u u t F ,.,.6+e.( } ^./)) ! ! p , *nK+} j j `.e%c.> , , > ,.,.' ) ) q q o *nd J.8.R I . ( 9 F#0 ( {.W@t.V[m(..e./)m=H H o s H H d d H e /)/)e./)*nm m=9.9./)*nd d I /)>.y)! ! s | ) t F F F q Z 8.o=E@V[& D.u$#+/ j .     9.8.R J./)f[H q F Q F ' , , ,., > > , y*x c z.(.[   Z{u q G ",
"n *nd { : b / v(, F ! ! ! o %gqro H H *n{     . . 9.9.9./)):I 9.. ^.z.c 8.v(/)    8 8   d ) g ' r m { _ 9 _ _ 9 9 ( { m 6 6 { { 9.9.. ( _ _ ( ( ( _ . ] { m e G e 9.( _ ( ( 8 { q ) J.0 (   k 8 B.      9.{   { ] { B.1 ! s ! ! G ! ! | ' > Q { } j ( H n o qrr ( 0 } { ) > ' r s H H H n n e n I 9.{ 9.9.{ 9.9.  { { 8 k 8 j ( s u I   ( 9 _ ( . J.! H m f[m   ( 9 ( ( ( _ ( sj9.{     { { m { k 9 9 _ ( ( ( I m ! {.' F H   8 8 .   /)N@R c z.F#. 9.I o 9. k9.  8   { { { *nn e n n qrH ! ! r > t ,+Z.L.( Z m n H ",
"m f[m   c b / ++' m=( c c c (   {   0@( 9 9 _ ( .     9.{ /){     ( z./ l /). 8   k 9 9 9 9.F ' Q ~ ( ( 9 9 9 0 0 0 F#  { m ~ ~   l ( 9 j ( ( ( _ ( . 8 . f | f ( 0 0 0 9 ( k 8 I m=c d.c   k (               ] ] { { I I e m=l l ( k J Z ' Q ;.z.: 0 . m *n*n9.F#: } I ,.,.R m=/)I m=m=H o H H I ] {             { { (     0 0 I r     ( ( 9 9 j k B.| ! {   8 ( _ ( ( ( 9 9 (     ~ ~ ~ m { . 9 0 j 9 9 9 9 sj2 | g ,.J.. ( ( 8   8 ] Z { } < l 9.9.I Z /)9.9.  8 ( ( ( 8 9./)m=d /),+,+,+e./)r , m=C+0.8 I m *n*n",
"9.9.] c } M.&+J.s l 0 0 0 0 j . m { 9 9 9 9 9 9             .     9 z.z.0 9 _ ( ( j Br0 0 0 e.I m={   { k _ 9 0 0 CrDr} F#  ] ] ( 0 } wrwrj k 8 ( k { sj( e&5 { } } } 0 : j ( ( 9 0 < z.} ( ( ( ( 8 .     {     . . 8 8 k   . _ _ _ 9 _ l e H ]#[ z.} (   9.9.( Br< [ >.q ! l _ ( _ ( ( {               8     . 8 8 ( ( ( ( } < 0 k ( ( ( j 0 0 } } ( H s   ( {   8 k 8 ( } } 0 0 9 ] ] ] ( F#Cr} 0 0 9 9 9 {   { e s J.j 0 0 0 ( 8 8 ( 9 0 z.z.(       9.      { 8 9 9 9 9 9 ( { { 8 j Br0 0 0 m=| ;.L.C+j   {   9.",
"9.. F#} L.!.b rrc 0 wr} } } } 0 =+^.9 9 0 0 9 9 .   9.  ( ( ( ( k 0 z.} ( . ( 0 : } wr} } } j 9 ( k . 9 ( 8./)0 0 L.z.wr0   { { k 0 z.7+L.} ( I 8.9 _ 9 _ ( ( ^.< z.< } } } } 9 ( 0 z.(.L.0 0 9 9 ( k 9.m=m=  0@( ( ( 9 9 ( F#9 j 0 0 0 j . 9.: Drz.z.0 . 9.Er0 z.z.z.0@f[  ( j 0 j 9 9 ( ( _ _ ( k k . . d   . k ( ( 9 0 0 L.L.} j 9 0 } } } d.z.z.j .   ( 9 k 9 e.I 8 9 z.L.Dr} _ { {   F#z.z.DrBr0 l I ( ( . 8 8 ( 9 : } } wr} 0 0 _ k 9 &+z.0 8 k ( k 8       8 9 9 9 9 9 9 e.,+0 } Br} } } 0@]#rrb b z.c . 9.{ ",
"{ . 9 F#f.a a 7+7+7+Z.G+Drz.z.z.wrz.: e.h+,+9.( j 0 0 0 } } Brwrz.z.z.0 k 2 { ( 0 0 0 0 0 0 0 9 9 _ _ 9 9 F#( 9 wrL.z.: j ( ( 9 ( ( 0 7+Z.Drj j j 9 9 9 9 9 9 0 0 } d.wrd.d.0 8 8 k } /.Z.L.L.z.} z.0 0 F#( 9.Z |'y)'+0 } } Br0 0 Brz.Z.L.z.Dr7+Dr: ^.(       ( c } L.Dr: : z.z.} 0 0 0 0 0 0 0 Z y)8.L<9.I$l ( j : } < DrL.Z.Z.0 8 ( 9 z.< < < < } 0 9 9 9 9 9 9 l >.( 0 Z.Z.wr0 ( k . . F#Brd.L.} 9 J >.( 9 ( ( 9 9 0 Br} } } } 0 ( { { 7 0 z.} : } 0 0 j ( ( ( F#  9.I$/)l 0 } } z.wrwrz.L.7+DrDr<@FrF+c 9 F#9.  ",
"{   ( ( c : / z.Grwr&+L.7+L.z.wrz.wrd.} : 0 0 : } } } } z.z.z.z.z.z.z.z.j k ( 9 0 0 9 9 9 9 9 0 j 0 0 9 9 9 j } z.L.L.d.0 0 } } Brj : L.Z.7+< } : 0 0 0 0 9 9 0 0 0 } } wr} _ 8   k } Z.(.[ z.z.z.z.wr} } 0 0 0 0 0 } } } } CrBr0 [ z.} : 0 } src j 0 ( k 8 ( 9 0 } / Drz.CrL.Z.(.} 0 } } } } } f.src c j 0 } wrz.z.z.z.L.L.Z.Z.( ] ( k 0 wr} } } 0 0 9 9 0 0 0 0 0 : } DrZ.7+j k F#0 } 9 9 0 z.7+DrBr).9 9 9 9 9 9 0 0 9 9 9 0 9 0 0 ( ] c / z.z.z.z.wrz.z.} } } } j 0 } f.} d.z.z.DrDrL.7+G+7+DrDr7+7+&+0 0 ( { 9.",
"  l   9.9.  ( CrDr0 F#d.Z.G+G+G+b b L.z.z.z.z.z.z.wrwrwrwrwrz.Drz.z.[ L.z.0 9 ( ( j 9 9 _ ( 9 0 } } 0 0 } 0 0 wrz.L.L.[ z.z.z.z.z.z.L.L.Z.L.z.: 0 0 : } 0 0 9 9 9 9 0 0 : 0     l P Z.Z.[ z.z.< < z.z.} } } } 0 Br} CrwrL.7+Z.L.z.(.c { l 0 0   l F#0 j ( ( 8 ( 0 ( .   0 _ k k / L.: z.L.&+CrCrBrBr0 0 Br} } wrz.z.z.z.[ [ L./.a.k   l ( } 0 0 0 0 j 9 9 0 0 0 0 0 : } L.L.L.z.< z.d.z.z.z.z.L.L.z.wrj 9 0 ).0 Br0 0 9 _ 9 9 0 0 9 _ 9 9 } [ [ z.L.z.z.z.z.d.d.d.} d.} } / z.[ L.L.L.DrZ.7+0 9 Cr7+0 (   . .     ( ",
"wrz.Drz.DrCr} L.Z.Hr7+7+7+Z.G+G+!.!.IrL.L.L.[ [ z.Drz.z.z.z.z.L.DrDr(.(.Z.Z.Dr[ L./ } : j sr: } z.z.&+z.L.< &+DrL.7+Z.(.[ [ L.L.7+(.Z././.=.< < &+/ _.&+&+/ / } : } / z.L.DrL.DrL.Z./.(.L.} } } d.< d.d.d.d.d.z.z.z.[ Z.(.(.L.L.L.Z.L.[ L.7+z.j &+L.DrDrDrDr} } } } c 8 d.} f.^./ L.L.L.Z.(.L.[ z.} } } } } } wrd.< } } } z.(./.(.} T c : } } Brj j 9 9 0 0 : } } } : } z.(.(.(.L.L.L.z.z.[ L.L.L.Drz.0 0 z.} Br} } 0 9 ( ( 9 0 0 : : } z.L.L.L.z.z.z.z.z.z.z.z.z.z.[ Drz.[ [ b !.!.a Z.G+L.Cr} Dr7+0 _ c c c 0 c } ",
"Dr[ L.G+b b a JrJrKrLrKrMr*+*+*+_@NrNr*+OrPra b b b b b b b b b b Z.Z.Z.Z.G+G+b b b b G+Z.b /.b G+Z.b b b Z./.b b a Jr!.b QrQrQr*+Mra !.!.b /.Z./.Z././././././.Z.b /.b b !.!.a b b b b b /.Z.L.L.(.Z.Z.Z.Z.Z.PrPr(@Ira b b b b b a M.!.!.Jra a G+7+7+L.L.L.L.L.L.L.Z.Z.b a a b /./.Z.7+Z.Z./.b (.Z.C+L.[ [ z.z.z.z.z.z.z.L.Z./.b b b b b b Z.Z.Z.Z.(.Z.Z.Z.Z./.Z.Z.(.L.(.b M.b b /.b /./.B+(@b b Z.G+Z.L.Z.Z.G+7+Z.Z.Z.7+L.L.(.(.Z.Z.Z.Z.Z.Z.Z.(.Z.(.(.L.L.L.Z.(.(.Z.Z.Z.C+b JrKr*+a b b G+a RrMra b L.Z.7+L.DrL.y+",
"^<L<l / L.b a JrJrKrKrKrNrNrKrNrSrTrTrTrNrKrJr!.!.a UrVrN+h#c#N+N+Q+WrQ+Q+N+XrIqIqN+y+D+NiU+ii~@e]&i1j%+%+v+8+f.rr0.G+(@a NrTrTrKrYrb b Z._.f.f.P =+:@u(M@;%$@/@]@8+z+Zr`ry+N+IqIqIqIqIqc#c#D+]@3qZqh#z+Z.b b *+KrNrTr*+!.!.!.!.NrJra b b b !.b 7+} u+'+;+Y z9: z.L.b !.KrJrJr!.!.JrJr!.!.!.!.!.YrKrJr!.!.!.b b B+C+C+(.Z.B+/./././.b /.b b b G+Z.L._./ / _._._._._._.L./.a !.!.KrKrNrNrJr*+*+Jra Z.L.L.L.0.C+0./ y+y+_.C+0.(.Z.b /./.Z./.Z.(.Z.Z.b b /.B+a JrJr!.JrJrKrJr_@TrTrTrTr sNrJrJr.s.sNrKrJr!.b G+&+} =+B ",
"}*) e 9.0@srz.L.L.0.G+a a (@a NrTrTrTrTr_@a G+&+} v+l *nG V ) qrqrqrqrqrH qr%gqrL</)l m=()w w *-b2z-;+x '+>.e.9.9.( 0 } L.!.!.Kr!.Z.Dr} 0 (   l 9.;.y.#+#+L X;j#x >.l src *nqmn H G G G r ) ) F V u.v,qm  l K+_.b *+Kr!.!.!.Z.Z.Z.7+z.&+} } &+&+^.{ e u v +s}*;=/)^.&+G+Z.L.L.L.Z.a b b b a !.*+NrKrb (.&+} c e[+ r(:.^<3<W[e[g+^#e[%@g+h+]#c 0@h+]<w o=o=^<|'y)m=m=9.9.l 0 } L.b JrKrNr!.G+&+Crc 9.I$` L<y)e[3<C ..1-:.....y)9.` g+%@g+a@a@L<a@a@a@a@Y n]g+$hCrZ.b b !.!.NrNrNrTrTrJrKr*+a a a (@a G+7+L.Cr>.R /!Z{",
"l l F#c c } } Br} wr7+G+Z.[ Z.*+NrNrYrJrM.7+wr9 _ ( ( 0@9.y)qr9.u+c ]#*n9.9.0@: f./ L.} j 9 9 0 0 0 0 0 Br0 9 9 ( F#0 0 z./.a a G+d.BrCr0 0 Br} 0 0 j j 0 9 9 j 0 0 } L.&+: T l /)m *n9.0@/)m=Z qm9.l l . ( ( 0 z.G+!.M.!./.z.} j j 0 0 k ( ( k k ( l 9.9.m=8.8.J.9.  9 9 9 j } : } / z.Z.!.!.!.*+b z.( 9.9./)` Z qr):r v(|'m=o n n /)9.e.u+L.Cr0 0 c c c j j j j j 0 0 0 0 } } d.b !.Krb L.} 0 j ( 9 9 0 0 0 0 src c F#( l ^.} u+l ]#` m=m=n ` ,+I$@sq t Z /)9.  k 0 L.b Kr#sL+NrKr!.Z.Z.G+G+Drd.} } 0 l { 9.{ m=/)",
"BrCr} wrDrDrz.CrBrd.d.} 0 9 } Z.!.Kr$sYrb } : 0 0 0 } } 0 c j } 0 0 j ( } } z.L.z.z.Drz.d.} } } } } } } } wrCr} 0 0 wrDrL.Z.a a 7+7+L.z./ } &+z.&+Br0 j 0 0 0 0 0 0 } [ [ [ z.} 0 0 ( c } 0 0 0 ( j } } 0 Br} ).0 L.a !.!.Z.z.j   k k ^.^.^.( ^.} } 0 9 (   ( 9 0 Brj 8 8 . 8 ( k ( . Brz.b !.!.b L.} 0 0 9 j 0 9 . . ( F#0 0 J l l F#d.< z.[ z.Br0 0 j j 0 j j 0 Br} } 0 0 d.z.z.7+b JrZ.L.Cr} 9 _ 0 0 Br} Br0 Br0 0 0 0 Brz.L.z.z.z.} c ( J c 0 0 F#9.l c Br0 9 9 0 } z.b #s#s_@!.Z.d.} &+z.d.0 0 Brwrz.Cr} 0 0 ( ",
"CrDrz.DrDrL.7+7+7+7+7+Dr0 9 &+G+!. sL+ s!.} l 0 z.z.0 wrDrDrDr} } Cr: j } z.L.L.L.DrDrz.z.z.z.z.} } } } L.Z.Z.L.L.DrL.L.L.(.b a (.L.L.L.L.[ (.(.Z.z.: 0 0 0 } Br0 : z.[ L.L.[ z.} Br0 } } } 9 } z.z.} 0 DrDrBr9 l Z.!.!.M.Z.Dr0 ( j DrDrz.z.z.z.z.wr0 0 9 ( 9 9 0 } wr} } } } &+} 9 ( } L.b M.!.b } ( 0 Br&+CrBrwr} Cr0 9 } } 0 0 } } z.L.L.[ z.: 0 0 0 0 0 0 0 } [ 7+L.L.[ L.L.L.L.b Jr(.L.L.DrDrDrDrL.7+Dr} } } } } z.wrz.z.Drz.L.L.DrwrCr0 Br0 } } CrCrz.wr} wr} c F#&+b Nr#sJr!.7+0 0 } DrL.DrDrL.DrDrz.wrwrwr0 ",
"} wr7+7+7+7+7+7+7+7+7+7+Drz.z.L.*+NrNr*+*+&+0 z.7+L.9 } DrL.L.z.z.L.z.&+z.L.L.L.Z.Z.Z.L.L.L.Z.(.z.wrwrz.L.Z.Z.L.L.L.L.L.L.Z.a !.Z.L.L.L.[ (.(.Z.Z.L.} 0 0 } L.z.z.L.L.L.L.L.z.z.< } d.z.DrDrz.DrDrwrz.BrDrL.L./ } !.!.!.b Z.z.0 &+z.z.L.z.wrz.L.L.Dr[ Dr0 9 0 } wrz.L.Drz.z.z.L.Dr: 0 } L./.!.!.!.F+^.: z.Drwr} z.DrDrd.d.z.Drwr0 } z.z.L.L.L.L.z.d.d.z.} 0 0 : z.L.(.(.(.[ [ L.L.L.(@_@(.L.L.L.L.L.L.Z.Z.L.z.wrz.d.L.L.L.L.L.L.L.L.L.L.z.} j &+L.wrd.L.DrDr} 0 L.Drj F#0.JrYrL+Kra 7+d.} wr7+7+7+7+7+7+7+7+7+DrwrBr",
"z.DrL.7+Hr7+7+7+7+wrDrG+G+7+L.7+a *+Qr!.KrF+Dr7+L.L.wrz.L.L.L.L.L.L.L.L.7+7+7+7+Z.Z.Z.Z.Z.Z.Z.Z.L.Drz.DrL.(.(.7+L.L.L.L.L.Z.*+JrG+L.L.(.(.(.(.Z.Z.L.z.wrd.z.L.7+Z.7+7+7+7+L.L.z.z.< z.z.z.DrL.L.DrDrDrz.L.L.7+7+Z.Jr!.!.M.G+L.DrDrL.L.L.z.z.L.7+Z.L.L.L.wr} d.L.L.L.L.L.L.%sd.Drz.L.DrwrL./.M.*+Jra L.L.7+L.z.} z.z.DrDrDrz.z.z.d.< z.z.L.L.L.7+7+L.L.L.z.} } } DrL.Z.Z.Z.(.L.L.L.Z.Mr_@Z.L.L.L.L.L.L.(.(.L.Drz.z.DrZ.Z.Z.Z.Z.Z.Z.Z.(.L.7+L.L.L.[ z.z.z.L.Drd.} L.7+7+} F+Nr*+*+!.!.L.Dr7+G+G+z.Dr7+7+7+7+7+7+Dr} Cr",
"7+7+Z.Z.7+G+Z.G+G+G+HrG+HrG+7+7+Z.b Jr sTrC+} d.d.DrZ.Z.7+7+L.L.L.L.L.L.7+7+7+7+Z./.G+G+G+G+Z.Z.7+7+7+7+Z.Z.Z.Z.Z.L.L.L.L.Z.a !.G+L.L.(.L.Z.(.b Z.L.Drz.L.L.Z.G+Z.7+7+7+Z.L.L.DrDrDrz.DrDrDrL.DrDr7+7+Z.z.DrL.L.Z.JrKr s*+G+7+L.L.L.(.Z.Z.Z.Z.G+Z.7+7+7+7+DrDr7+7+7+Z.Z.Z.Z.7+7+L.L.L.L.7+b !.KrJra 7+L.L.L.L.Z.7+DrDrL.L.Drz.z.z.z.z.DrL.(.7+7+Z.Z.Z.7+L.z.z.z.DrL.Z.Z.Z.(.L.(.(.Z.a !.Z.L.L.L.L.7+Z.Z.Z.7+L.L.7+7+Z.Z.Z.G+G+Z.G+Z.7+7+7+7+L.L.L.L.L.L.L.7+L.7+L.z.z.CrPrNrYr!.b G+7+7+G+Z.G+7+7+G+Z.Z.Z.Z.Z.7+GrL.",
"7+7+Z.7+Z.Z.G+G+b b b G+HrG+HrG+G+b JrNrSr[@} Cr7+G+b G+G+7+7+G+Z.Z.Z.Z.Z.G+7+Z.Z.G+G+b G+Z.Z./.b b b b !.!.M.M.a G+Z.Z.7+b KrQrb Z.L.L.L.Z./.M.M././././.Z.Z.G+Z.Z.b G+G+Z.7+L.7+7+7+7+7+7+Z.Z.Z.b b b G+L.7+L.Z.Jr!.YrIr7+7+7+7+Z.Z.Z.Z./.G+G+G+G+7+7+Z.G+7+7+7+Z.G+G+G+Z.Z.Z.(.7+L.L.7+Z.*+KrJra 7+L.L.L.Z.Z.G+Z.7+7+7+7+L.L.L.L.L.L.7+Z.Z.Z.Z.Z.G+G+(.Z.(.(.Z./.b /.Z.(.L.7+L.b !.Krb L.L.Z.Z.b b b b b G+Z.Z.Z.Z.Z.Z.G+G+G+b Z.Z.7+Z.Z.Z.Z.Z.Z.7+7+7+HrG+G+L.z.} } &sSr sJrb Z.G+Z.G+HrG+G+b G+G+Z.Z.Z.Z.7+7+Z.",
"Z.Z.7+7+Z.Z.G+b b b G+G+G+G+a Fra a JrTr*sG+wrd.Dr7+G+G+G+G+G+Z./.b b b b G+Z.Z.G+Z.b !./.L./.b !.!.M.!.!.!.!.!.*+/.Z.Z./.!.Nr#s!./.L.(.(./.M.M.M./././././.b [ (.Z.b a b b G+Z.7+7+7+Z.Z.Z.Z.Z.Z.b a b b Z.Z.7+Z.a !.$s*+G+Z.7+Z.(.Z.Z.G+b b G+G+G+G+G+G+b G+G+G+G+G+G+Z.b G+Z.Z.(.7+7+7+Z.!.!.!.a L.L.7+Z.b b b /.G+Z.Z.Z.Z.Z.7+7+7+7+Z.b b b G+7+L.Z././././.b b M.M./.(.L.z.(.b QrNr!.Z.Z.Z.Z.!.!.!.!.!.!.M.!.!.b (.L.Z.b G+G+Z.Z.Z.G+/.b b /./.Z.Z.G+G+G+b 7+Dr} wrOr=sKr!.G+G+a <@G+G+G+b b b G+G+Z.7+7+7+Z.b ",
"G+b b G+b b b b a b a !.JrJrJrTrTrNrTrSrSr*+b Z.Z.b b Z.G+Z.Z.Z.Z.b b b Z./.b b b !.!.!.*+*+*+Ir!.!.b b !.!.!.Qr*+!.!.M.M.!.#sSrTr*+YrYr-s;s>sM./././.Z./././././.b b !.b b b b G+Z.Z.Z.Z.Z.G+G+G+a !.!.a a b M.!.!.*+ s_@!.!.b Z.G+G+G+b b b b b b b b a !.b b G+b G+b b b b G+Z.Z.Z.G+b !.JrKr*+!.b G+G+b b a !.b G+G+Z.Z.Z.Z.Z.Z.Z.b b b a b b /.Z.Z././././././.M.M.M.Irb (@Ir!.NrSr!.M.b M.Ir*+!.Yr!.!.M.b !.!.!.M.b b !.b b b G+Z.b Z.b b b /.G+Z.G+G+b b Z.L.z.Z.,sSrSr_@*+KrKr!.a a b b b b b b G+G+G+G+G+'s",
"b b b Z.Z.b Z.b !.!.JrJrJrKrKrNrTrNrTrTrSrNrKrJr!.M.!.b Z.L.L.7+Z.G+/.Z.Z././.b !.!.!.M.*+Yr$s*+!.!.!.!.!.$sL+TrYrYr*+M.!.M.*+=sNrYr#s;s;sM.)sM././.b.b./././././.b b b b M.a M.b G+Z.Z.Z.Z.Z.Z.(.b !.!.!.JrJrJr!.Kr$sNrNr*+!.M.b b G+G+b b /./././././.b b b b b a b /.b b b G+G+G+Z.b *+NrKrKr*+!.!.!.!.!.!.!.!.G+Z.Z.Z.Z.Z.Z.Z.G+b b b M.b b b /././././.Z.(././.M.IrM.-sYrYrL+YrNrKrM.M.M.!.!.*+!.Qr!.!.M.M.!.!.!.!.!.!.!.!.!.M.b /./.Z.Z.Z.Z.Z.Z.L.7+L.b b b a !.Jr_@SrSrNrNr_@KrJrJrJr!.a a b b G+b G+G+b b !s"};
