/* XPM */
static char *_71a8efac785476d98f33fe08014dfc6BIEHtOIrTBZFpICa[] = {
/* columns rows colors chars-per-pixel */
"491 470 4 1 ",
"  c #0D2B45",
". c #203C56",
"X c #544E68",
"o c #8D697A",
/* pixels */
"ooooooooooo. .X  X.. .ooooooooo..   .oooooooooooo. .o.     .ooooooooooooooo. .X  X.. .ooooooooo..   .oooooooooooo. .o.     .ooooooooooooooo. .X  X.. .ooooooooo..   .oooooooooooo. .o.     .ooooooooooooooo. .X  X.. .ooooooooo..   .oooooooooooo. .o.     .ooooooooooooooo. .X  X.. .ooooooooo..   .oooooooooooo. .o.     .ooooooooooooooo. .X  X.. .ooooooooo..   .oooooooooooo. .o.     .ooooooooooooooo. .X  X.. .ooooooooo..   .oooooooooooo. .o.     .ooooooooooooooo. .X  X.. .ooooooooo..   .oooooo",
"oo.ooooooooo  .  .oooooooXoooooooooooooooooooooooooooooooooooooooo.ooooooooo  .  .oooooooXoooooooooooooooooooooooooooooooooooooooo.ooooooooo  .  .oooooooXoooooooooooooooooooooooooooooooooooooooo.ooooooooo  .  .oooooooXoooooooooooooooooooooooooooooooooooooooo.ooooooooo  .  .oooooooXoooooooooooooooooooooooooooooooooooooooo.ooooooooo  .  .oooooooXoooooooooooooooooooooooooooooooooooooooo.ooooooooo  .  .oooooooXoooooooooooooooooooooooooooooooooooooooo.ooooooooo  .  .oooooooXooooooooooooooooo",
"ooXXoooooooo  X  oooooooXXooXoooXXXXoooXXXXXXXooooXoooooooooooooooXXoooooooo  X  oooooooXXooXoooXXXXoooXXXXXXXooooXoooooooooooooooXXoooooooo  X  oooooooXXooXoooXXXXoooXXXXXXXooooXoooooooooooooooXXoooooooo  X  oooooooXXooXoooXXXXoooXXXXXXXooooXoooooooooooooooXXoooooooo  X  oooooooXXooXoooXXXXoooXXXXXXXooooXoooooooooooooooXXoooooooo  X  oooooooXXooXoooXXXXoooXXXXXXXooooXoooooooooooooooXXoooooooo  X  oooooooXXooXoooXXXXoooXXXXXXXooooXoooooooooooooooXXoooooooo  X  oooooooXXooXoooXXXXoooXXXX",
".XXXXXXXXXXo. .  oXXXXXXXXXXXXXXXXXXXXXXXXXXXXXXXXXXXXXXXXXXXXX..XXXXXXXXXXo. .  oXXXXXXXXXXXXXXXXXXXXXXXXXXXXXXXXXXXXXXXXXXXXX..XXXXXXXXXXo. .  oXXXXXXXXXXXXXXXXXXXXXXXXXXXXXXXXXXXXXXXXXXXXX..XXXXXXXXXXo. .  oXXXXXXXXXXXXXXXXXXXXXXXXXXXXXXXXXXXXXXXXXXXXX..XXXXXXXXXXo. .  oXXXXXXXXXXXXXXXXXXXXXXXXXXXXXXXXXXXXXXXXXXXXX..XXXXXXXXXXo. .  oXXXXXXXXXXXXXXXXXXXXXXXXXXXXXXXXXXXXXXXXXXXXX..XXXXXXXXXXo. .  oXXXXXXXXXXXXXXXXXXXXXXXXXXXXXXXXXXXXXXXXXXXXX..XXXXXXXXXXo. .  oXXXXXXXXXXXXXXXXXXXXXXXXX",
"XXXXXXXXXXXoo    oXXXX XXXXXXXXXXXXXXXXXXXXXXXXXXXXXXXXXXXXXXXXXXXXXXXXXXXXoo    oXXXX XXXXXXXXXXXXXXXXXXXXXXXXXXXXXXXXXXXXXXXXXXXXXXXXXXXXoo    oXXXX XXXXXXXXXXXXXXXXXXXXXXXXXXXXXXXXXXXXXXXXXXXXXXXXXXXXoo    oXXXX XXXXXXXXXXXXXXXXXXXXXXXXXXXXXXXXXXXXXXXXXXXXXXXXXXXXoo    oXXXX XXXXXXXXXXXXXXXXXXXXXXXXXXXXXXXXXXXXXXXXXXXXXXXXXXXXoo    oXXXX XXXXXXXXXXXXXXXXXXXXXXXXXXXXXXXXXXXXXXXXXXXXXXXXXXXXoo    oXXXX XXXXXXXXXXXXXXXXXXXXXXXXXXXXXXXXXXXXXXXXXXXXXXXXXXXXoo    oXXXX XXXXXXXXXXXXXXXXXXXX",
"XXXXXXXXXXXXo .  oXXXX.XXXXXXXXX.X.XXXXXXXXXXXXXXXXXXXXXXXXXXXXXXXXXXXXXXXXXo .  oXXXX.XXXXXXXXX.X.XXXXXXXXXXXXXXXXXXXXXXXXXXXXXXXXXXXXXXXXXo .  oXXXX.XXXXXXXXX.X.XXXXXXXXXXXXXXXXXXXXXXXXXXXXXXXXXXXXXXXXXo .  oXXXX.XXXXXXXXX.X.XXXXXXXXXXXXXXXXXXXXXXXXXXXXXXXXXXXXXXXXXo .  oXXXX.XXXXXXXXX.X.XXXXXXXXXXXXXXXXXXXXXXXXXXXXXXXXXXXXXXXXXo .  oXXXX.XXXXXXXXX.X.XXXXXXXXXXXXXXXXXXXXXXXXXXXXXXXXXXXXXXXXXo .  oXXXX.XXXXXXXXX.X.XXXXXXXXXXXXXXXXXXXXXXXXXXXXXXXXXXXXXXXXXo .  oXXXX.XXXXXXXXX.X.XXXXXXXX",
"XXXXXX XXXXXo .  oXXXXXXXXXXXXX..oXXXXXXXXXXXXXX.XXXXXXXXX.XXXXXXXXXXX XXXXXo .  oXXXXXXXXXXXXX..oXXXXXXXXXXXXXX.XXXXXXXXX.XXXXXXXXXXX XXXXXo .  oXXXXXXXXXXXXX..oXXXXXXXXXXXXXX.XXXXXXXXX.XXXXXXXXXXX XXXXXo .  oXXXXXXXXXXXXX..oXXXXXXXXXXXXXX.XXXXXXXXX.XXXXXXXXXXX XXXXXo .  oXXXXXXXXXXXXX..oXXXXXXXXXXXXXX.XXXXXXXXX.XXXXXXXXXXX XXXXXo .  oXXXXXXXXXXXXX..oXXXXXXXXXXXXXX.XXXXXXXXX.XXXXXXXXXXX XXXXXo .  oXXXXXXXXXXXXX..oXXXXXXXXXXXXXX.XXXXXXXXX.XXXXXXXXXXX XXXXXo .  oXXXXXXXXXXXXX..oXXXXXXXXX",
"XXXXXX.XXXXoo    ooXXXXXXXXXX.. .XXXXXXXXXXXXXXX.XXXXXXXX.XXXXXXXXXXXX.XXXXoo    ooXXXXXXXXXX.. .XXXXXXXXXXXXXXX.XXXXXXXX.XXXXXXXXXXXX.XXXXoo    ooXXXXXXXXXX.. .XXXXXXXXXXXXXXX.XXXXXXXX.XXXXXXXXXXXX.XXXXoo    ooXXXXXXXXXX.. .XXXXXXXXXXXXXXX.XXXXXXXX.XXXXXXXXXXXX.XXXXoo    ooXXXXXXXXXX.. .XXXXXXXXXXXXXXX.XXXXXXXX.XXXXXXXXXXXX.XXXXoo    ooXXXXXXXXXX.. .XXXXXXXXXXXXXXX.XXXXXXXX.XXXXXXXXXXXX.XXXXoo    ooXXXXXXXXXX.. .XXXXXXXXXXXXXXX.XXXXXXXX.XXXXXXXXXXXX.XXXXoo    ooXXXXXXXXXX.. .XXXXXXXXXX",
"XXXXXXXXXXXoo    ooXXXXXXXX.   .oXXXX XXXXXXXXXXoXXXXXXXX.oXXXXXXXXXXXXXXXXoo    ooXXXXXXXX.   .oXXXX XXXXXXXXXXoXXXXXXXX.oXXXXXXXXXXXXXXXXoo    ooXXXXXXXX.   .oXXXX XXXXXXXXXXoXXXXXXXX.oXXXXXXXXXXXXXXXXoo    ooXXXXXXXX.   .oXXXX XXXXXXXXXXoXXXXXXXX.oXXXXXXXXXXXXXXXXoo    ooXXXXXXXX.   .oXXXX XXXXXXXXXXoXXXXXXXX.oXXXXXXXXXXXXXXXXoo    ooXXXXXXXX.   .oXXXX XXXXXXXXXXoXXXXXXXX.oXXXXXXXXXXXXXXXXoo    ooXXXXXXXX.   .oXXXX XXXXXXXXXXoXXXXXXXX.oXXXXXXXXXXXXXXXXoo    ooXXXXXXXX.   .oXXXX XXXXX",
"XXXXXXXXXXXXo    XoXXXXXXX.oooo.XXXXX.XXXXXXXXXXXXXXXXXXXXoXXXXXXXXXXXXXXXXXo    XoXXXXXXX.oooo.XXXXX.XXXXXXXXXXXXXXXXXXXXoXXXXXXXXXXXXXXXXXo    XoXXXXXXX.oooo.XXXXX.XXXXXXXXXXXXXXXXXXXXoXXXXXXXXXXXXXXXXXo    XoXXXXXXX.oooo.XXXXX.XXXXXXXXXXXXXXXXXXXXoXXXXXXXXXXXXXXXXXo    XoXXXXXXX.oooo.XXXXX.XXXXXXXXXXXXXXXXXXXXoXXXXXXXXXXXXXXXXXo    XoXXXXXXX.oooo.XXXXX.XXXXXXXXXXXXXXXXXXXXoXXXXXXXXXXXXXXXXXo    XoXXXXXXX.oooo.XXXXX.XXXXXXXXXXXXXXXXXXXXoXXXXXXXXXXXXXXXXXo    XoXXXXXXX.oooo.XXXXX.XXXXX",
"XXXXXXXXXXXXo    XoXXXXXXXXXXXXXXXXXXXXXXXXXXXXXXXXXXXXXXoXXXXXXXXXXXXXXXXXXo    XoXXXXXXXXXXXXXXXXXXXXXXXXXXXXXXXXXXXXXXoXXXXXXXXXXXXXXXXXXo    XoXXXXXXXXXXXXXXXXXXXXXXXXXXXXXXXXXXXXXXoXXXXXXXXXXXXXXXXXXo    XoXXXXXXXXXXXXXXXXXXXXXXXXXXXXXXXXXXXXXXoXXXXXXXXXXXXXXXXXXo    XoXXXXXXXXXXXXXXXXXXXXXXXXXXXXXXXXXXXXXXoXXXXXXXXXXXXXXXXXXo    XoXXXXXXXXXXXXXXXXXXXXXXXXXXXXXXXXXXXXXXoXXXXXXXXXXXXXXXXXXo    XoXXXXXXXXXXXXXXXXXXXXXXXXXXXXXXXXXXXXXXoXXXXXXXXXXXXXXXXXXo    XoXXXXXXXXXXXXXXXXXXXXXXXX",
"XXXXXXXXXXXoo  . ooXXXXXXXXXXXXXXXXXXXXXXXXXXXXXXXXXXXXXXXXXXXXXXXXXXXXXXXXoo  . ooXXXXXXXXXXXXXXXXXXXXXXXXXXXXXXXXXXXXXXXXXXXXXXXXXXXXXXXXoo  . ooXXXXXXXXXXXXXXXXXXXXXXXXXXXXXXXXXXXXXXXXXXXXXXXXXXXXXXXXoo  . ooXXXXXXXXXXXXXXXXXXXXXXXXXXXXXXXXXXXXXXXXXXXXXXXXXXXXXXXXoo  . ooXXXXXXXXXXXXXXXXXXXXXXXXXXXXXXXXXXXXXXXXXXXXXXXXXXXXXXXXoo  . ooXXXXXXXXXXXXXXXXXXXXXXXXXXXXXXXXXXXXXXXXXXXXXXXXXXXXXXXXoo  . ooXXXXXXXXXXXXXXXXXXXXXXXXXXXXXXXXXXXXXXXXXXXXXXXXXXXXXXXXoo  . ooXXXXXXXXXXXXXXXXXXXXXXXX",
"XXXXXXXXXXXoo    ooXX.XXXXXXXXXXXXXXXXXXXX..XXXXXXXXXXXXXXXXXXXXXXXXXXXXXXXoo    ooXX.XXXXXXXXXXXXXXXXXXXX..XXXXXXXXXXXXXXXXXXXXXXXXXXXXXXXoo    ooXX.XXXXXXXXXXXXXXXXXXXX..XXXXXXXXXXXXXXXXXXXXXXXXXXXXXXXoo    ooXX.XXXXXXXXXXXXXXXXXXXX..XXXXXXXXXXXXXXXXXXXXXXXXXXXXXXXoo    ooXX.XXXXXXXXXXXXXXXXXXXX..XXXXXXXXXXXXXXXXXXXXXXXXXXXXXXXoo    ooXX.XXXXXXXXXXXXXXXXXXXX..XXXXXXXXXXXXXXXXXXXXXXXXXXXXXXXoo    ooXX.XXXXXXXXXXXXXXXXXXXX..XXXXXXXXXXXXXXXXXXXXXXXXXXXXXXXoo    ooXX.XXXXXXXXXXXXXXXXXXXX.",
"XXXX..XXXXXoo    ooXXX.XXXXXXXXXXXXXXXXXXXXXXXXXXXXXXXXXXXXXXXXXXXXX..XXXXXoo    ooXXX.XXXXXXXXXXXXXXXXXXXXXXXXXXXXXXXXXXXXXXXXXXXXX..XXXXXoo    ooXXX.XXXXXXXXXXXXXXXXXXXXXXXXXXXXXXXXXXXXXXXXXXXXX..XXXXXoo    ooXXX.XXXXXXXXXXXXXXXXXXXXXXXXXXXXXXXXXXXXXXXXXXXXX..XXXXXoo    ooXXX.XXXXXXXXXXXXXXXXXXXXXXXXXXXXXXXXXXXXXXXXXXXXX..XXXXXoo    ooXXX.XXXXXXXXXXXXXXXXXXXXXXXXXXXXXXXXXXXXXXXXXXXXX..XXXXXoo    ooXXX.XXXXXXXXXXXXXXXXXXXXXXXXXXXXXXXXXXXXXXXXXXXXX..XXXXXoo    ooXXX.XXXXXXXXXXXXXXXXXXXX",
"XXXXXX....oo. .  o.......XXXXX.......XXXXXXXXXXXX....XXX..XXX.XXXXXXXX....oo. .  o.......XXXXX.......XXXXXXXXXXXX....XXX..XXX.XXXXXXXX....oo. .  o.......XXXXX.......XXXXXXXXXXXX....XXX..XXX.XXXXXXXX....oo. .  o.......XXXXX.......XXXXXXXXXXXX....XXX..XXX.XXXXXXXX....oo. .  o.......XXXXX.......XXXXXXXXXXXX....XXX..XXX.XXXXXXXX....oo. .  o.......XXXXX.......XXXXXXXXXXXX....XXX..XXX.XXXXXXXX....oo. .  o.......XXXXX.......XXXXXXXXXXXX....XXX..XXX.XXXXXXXX....oo. .  o.......XXXXX.......XXXXXX",
".X.........o  .   ......X................XX......................X.........o  .   ......X................XX......................X.........o  .   ......X................XX......................X.........o  .   ......X................XX......................X.........o  .   ......X................XX......................X.........o  .   ......X................XX......................X.........o  .   ......X................XX......................X.........o  .   ......X................XX",
".........         ..  .... ....  . .............   . ....................         ..  .... ....  . .............   . ....................         ..  .... ....  . .............   . ....................         ..  .... ....  . .............   . ....................         ..  .... ....  . .............   . ....................         ..  .... ....  . .............   . ....................         ..  .... ....  . .............   . ....................         ..  .... ....  . ........",
"            .                                                               .                                                               .                                                               .                                                               .                                                               .                                                               .                                                               .                              ",
"           ...                                                             ...                                                             ...                                                             ...                                                             ...                                                             ...                                                             ...                                                             ...                             ",
"   ...    ...... .......X .X   ..  ...  .....           ..         ...    ...... .......X .X   ..  ...  .....           ..         ...    ...... .......X .X   ..  ...  .....           ..         ...    ...... .......X .X   ..  ...  .....           ..         ...    ...... .......X .X   ..  ...  .....           ..         ...    ...... .......X .X   ..  ...  .....           ..         ...    ...... .......X .X   ..  ...  .....           ..         ...    ...... .......X .X   ..  ...  ...",
"     ....    ..    .       ..       ...                              ....    ..    .       ..       ...                              ....    ..    .       ..       ...                              ....    ..    .       ..       ...                              ....    ..    .       ..       ...                              ....    ..    .       ..       ...                              ....    ..    .       ..       ...                              ....    ..    .       ..       ...    ",
"oooooooooooooooooooooooo.  X.  .Xooooooooooo. .oooo..        .oooooooooooooooooooooooooo.  X.  .Xooooooooooo. .oooo..        .oooooooooooooooooooooooooo.  X.  .Xooooooooooo. .oooo..        .oooooooooooooooooooooooooo.  X.  .Xooooooooooo. .oooo..        .oooooooooooooooooooooooooo.  X.  .Xooooooooooo. .oooo..        .oooooooooooooooooooooooooo.  X.  .Xooooooooooo. .oooo..        .oooooooooooooooooooooooooo.  X.  .Xooooooooooo. .oooo..        .oooooooooooooooooooooooooo.  X.  .Xoooooooooo",
"ooooooo.  ooXoXooXooooooo.  . .XoooooXoooXooo.ooooooo. .ooooooooooooooo.  ooXoXooXooooooo.  . .XoooooXoooXooo.ooooooo. .ooooooooooooooo.  ooXoXooXooooooo.  . .XoooooXoooXooo.ooooooo. .ooooooooooooooo.  ooXoXooXooooooo.  . .XoooooXoooXooo.ooooooo. .ooooooooooooooo.  ooXoXooXooooooo.  . .XoooooXoooXooo.ooooooo. .ooooooooooooooo.  ooXoXooXooooooo.  . .XoooooXoooXooo.ooooooo. .ooooooooooooooo.  ooXoXooXooooooo.  . .XoooooXoooXooo.ooooooo. .ooooooooooooooo.  ooXoXooXooooooo.  . .XoooooXoooXo",
"oooXXXXo   XXXXXXXXXoXoooo X  XoXooXXXXXXXXXXXXooXXXoooooXXoXooooooXXXXo   XXXXXXXXXoXoooo X  XoXooXXXXXXXXXXXXooXXXoooooXXoXooooooXXXXo   XXXXXXXXXoXoooo X  XoXooXXXXXXXXXXXXooXXXoooooXXoXooooooXXXXo   XXXXXXXXXoXoooo X  XoXooXXXXXXXXXXXXooXXXoooooXXoXooooooXXXXo   XXXXXXXXXoXoooo X  XoXooXXXXXXXXXXXXooXXXoooooXXoXooooooXXXXo   XXXXXXXXXoXoooo X  XoXooXXXXXXXXXXXXooXXXoooooXXoXooooooXXXXo   XXXXXXXXXoXoooo X  XoXooXXXXXXXXXXXXooXXXoooooXXoXooooooXXXXo   XXXXXXXXXoXoooo X  XoXooXXXXXXXX",
"XXXoXXXXo.  XXXXXXXXXXXXoX X  XoXXXXXXXXXXXXXXXXXXXXXXXXXXXXXXXXXXXoXXXXo.  XXXXXXXXXXXXoX X  XoXXXXXXXXXXXXXXXXXXXXXXXXXXXXXXXXXXXoXXXXo.  XXXXXXXXXXXXoX X  XoXXXXXXXXXXXXXXXXXXXXXXXXXXXXXXXXXXXoXXXXo.  XXXXXXXXXXXXoX X  XoXXXXXXXXXXXXXXXXXXXXXXXXXXXXXXXXXXXoXXXXo.  XXXXXXXXXXXXoX X  XoXXXXXXXXXXXXXXXXXXXXXXXXXXXXXXXXXXXoXXXXo.  XXXXXXXXXXXXoX X  XoXXXXXXXXXXXXXXXXXXXXXXXXXXXXXXXXXXXoXXXXo.  XXXXXXXXXXXXoX X  XoXXXXXXXXXXXXXXXXXXXXXXXXXXXXXXXXXXXoXXXXo.  XXXXXXXXXXXXoX X  XoXXXXXXXXXXX",
"XXXXXXXXXo. .XXXXXXXXXXXXo    oXXXXXXXXXXXXXXXXXXXXXXXXXXXXXXXXXXXXXXXXXXo. .XXXXXXXXXXXXo    oXXXXXXXXXXXXXXXXXXXXXXXXXXXXXXXXXXXXXXXXXXo. .XXXXXXXXXXXXo    oXXXXXXXXXXXXXXXXXXXXXXXXXXXXXXXXXXXXXXXXXXo. .XXXXXXXXXXXXo    oXXXXXXXXXXXXXXXXXXXXXXXXXXXXXXXXXXXXXXXXXXo. .XXXXXXXXXXXXo    oXXXXXXXXXXXXXXXXXXXXXXXXXXXXXXXXXXXXXXXXXXo. .XXXXXXXXXXXXo    oXXXXXXXXXXXXXXXXXXXXXXXXXXXXXXXXXXXXXXXXXXo. .XXXXXXXXXXXXo    oXXXXXXXXXXXXXXXXXXXXXXXXXXXXXXXXXXXXXXXXXXo. .XXXXXXXXXXXXo    oXXXXXXXXXXXX",
"XXXXXXXXXXo.. XXXXXXXXXXXo .  oXXXXXXXXXXXXXXXX  XXXXXXXXXXXXXXXXXXXXXXXXXo.. XXXXXXXXXXXo .  oXXXXXXXXXXXXXXXX  XXXXXXXXXXXXXXXXXXXXXXXXXo.. XXXXXXXXXXXo .  oXXXXXXXXXXXXXXXX  XXXXXXXXXXXXXXXXXXXXXXXXXo.. XXXXXXXXXXXo .  oXXXXXXXXXXXXXXXX  XXXXXXXXXXXXXXXXXXXXXXXXXo.. XXXXXXXXXXXo .  oXXXXXXXXXXXXXXXX  XXXXXXXXXXXXXXXXXXXXXXXXXo.. XXXXXXXXXXXo .  oXXXXXXXXXXXXXXXX  XXXXXXXXXXXXXXXXXXXXXXXXXo.. XXXXXXXXXXXo .  oXXXXXXXXXXXXXXXX  XXXXXXXXXXXXXXXXXXXXXXXXXo.. XXXXXXXXXXXo .  oXXXXXXXXXXXX",
"XXXXXXXXXXXo..XXXXXXXXXXoo .  oXXXXXXXXXXXXXXXX..   XXXXXXXXXXXXXXXXXXXXXXXo..XXXXXXXXXXoo .  oXXXXXXXXXXXXXXXX..   XXXXXXXXXXXXXXXXXXXXXXXo..XXXXXXXXXXoo .  oXXXXXXXXXXXXXXXX..   XXXXXXXXXXXXXXXXXXXXXXXo..XXXXXXXXXXoo .  oXXXXXXXXXXXXXXXX..   XXXXXXXXXXXXXXXXXXXXXXXo..XXXXXXXXXXoo .  oXXXXXXXXXXXXXXXX..   XXXXXXXXXXXXXXXXXXXXXXXo..XXXXXXXXXXoo .  oXXXXXXXXXXXXXXXX..   XXXXXXXXXXXXXXXXXXXXXXXo..XXXXXXXXXXoo .  oXXXXXXXXXXXXXXXX..   XXXXXXXXXXXXXXXXXXXXXXXo..XXXXXXXXXXoo .  oXXXXXXXXXXXX",
"..XXXXXXXXXXX..XXXXXXXXXoo .  ooXXXXXXXXXXXXXXXXo....XXXXXXXXXXX..XXXXXXXXXXX..XXXXXXXXXoo .  ooXXXXXXXXXXXXXXXXo....XXXXXXXXXXX..XXXXXXXXXXX..XXXXXXXXXoo .  ooXXXXXXXXXXXXXXXXo....XXXXXXXXXXX..XXXXXXXXXXX..XXXXXXXXXoo .  ooXXXXXXXXXXXXXXXXo....XXXXXXXXXXX..XXXXXXXXXXX..XXXXXXXXXoo .  ooXXXXXXXXXXXXXXXXo....XXXXXXXXXXX..XXXXXXXXXXX..XXXXXXXXXoo .  ooXXXXXXXXXXXXXXXXo....XXXXXXXXXXX..XXXXXXXXXXX..XXXXXXXXXoo .  ooXXXXXXXXXXXXXXXXo....XXXXXXXXXXX..XXXXXXXXXXX..XXXXXXXXXoo .  ooXXXXXXXXXXX",
"XXXXXXXXXXXXXo..XXXXXXXXXo    ooXXXXXXX...XXXXXXXXXXXXXXXXXXXXXXXXXXXXXXXXXXXo..XXXXXXXXXo    ooXXXXXXX...XXXXXXXXXXXXXXXXXXXXXXXXXXXXXXXXXXXo..XXXXXXXXXo    ooXXXXXXX...XXXXXXXXXXXXXXXXXXXXXXXXXXXXXXXXXXXo..XXXXXXXXXo    ooXXXXXXX...XXXXXXXXXXXXXXXXXXXXXXXXXXXXXXXXXXXo..XXXXXXXXXo    ooXXXXXXX...XXXXXXXXXXXXXXXXXXXXXXXXXXXXXXXXXXXo..XXXXXXXXXo    ooXXXXXXX...XXXXXXXXXXXXXXXXXXXXXXXXXXXXXXXXXXXo..XXXXXXXXXo    ooXXXXXXX...XXXXXXXXXXXXXXXXXXXXXXXXXXXXXXXXXXXo..XXXXXXXXXo    ooXXXXXXX...X",
"XXXXXXXXXXXXXXX.XXXXXXXXoo X  XoXXXXXXXo...XXXXXXXXXXXXXXXXXXXXXXXXXXXXXXXXXXXX.XXXXXXXXoo X  XoXXXXXXXo...XXXXXXXXXXXXXXXXXXXXXXXXXXXXXXXXXXXX.XXXXXXXXoo X  XoXXXXXXXo...XXXXXXXXXXXXXXXXXXXXXXXXXXXXXXXXXXXX.XXXXXXXXoo X  XoXXXXXXXo...XXXXXXXXXXXXXXXXXXXXXXXXXXXXXXXXXXXX.XXXXXXXXoo X  XoXXXXXXXo...XXXXXXXXXXXXXXXXXXXXXXXXXXXXXXXXXXXX.XXXXXXXXoo X  XoXXXXXXXo...XXXXXXXXXXXXXXXXXXXXXXXXXXXXXXXXXXXX.XXXXXXXXoo X  XoXXXXXXXo...XXXXXXXXXXXXXXXXXXXXXXXXXXXXXXXXXXXX.XXXXXXXXoo X  XoXXXXXXXo...",
"XXXXXXXXXXXXXo..XXXXXXXXXo .  ooXXXXXXXXooo.XXXXXXXXXXXX.XXXXXXXXXXXXXXXXXXXXo..XXXXXXXXXo .  ooXXXXXXXXooo.XXXXXXXXXXXX.XXXXXXXXXXXXXXXXXXXXo..XXXXXXXXXo .  ooXXXXXXXXooo.XXXXXXXXXXXX.XXXXXXXXXXXXXXXXXXXXo..XXXXXXXXXo .  ooXXXXXXXXooo.XXXXXXXXXXXX.XXXXXXXXXXXXXXXXXXXXo..XXXXXXXXXo .  ooXXXXXXXXooo.XXXXXXXXXXXX.XXXXXXXXXXXXXXXXXXXXo..XXXXXXXXXo .  ooXXXXXXXXooo.XXXXXXXXXXXX.XXXXXXXXXXXXXXXXXXXXo..XXXXXXXXXo .  ooXXXXXXXXooo.XXXXXXXXXXXX.XXXXXXXXXXXXXXXXXXXXo..XXXXXXXXXo .  ooXXXXXXXXooo",
"XXXXXXXXXXXXXXXoXXXXXXXXXo .  oXXXXXXXXXXXXXXXXXX. XXXXXX.XXXXXXXXXXXXXXXXXXXXXoXXXXXXXXXo .  oXXXXXXXXXXXXXXXXXX. XXXXXX.XXXXXXXXXXXXXXXXXXXXXoXXXXXXXXXo .  oXXXXXXXXXXXXXXXXXX. XXXXXX.XXXXXXXXXXXXXXXXXXXXXoXXXXXXXXXo .  oXXXXXXXXXXXXXXXXXX. XXXXXX.XXXXXXXXXXXXXXXXXXXXXoXXXXXXXXXo .  oXXXXXXXXXXXXXXXXXX. XXXXXX.XXXXXXXXXXXXXXXXXXXXXoXXXXXXXXXo .  oXXXXXXXXXXXXXXXXXX. XXXXXX.XXXXXXXXXXXXXXXXXXXXXoXXXXXXXXXo .  oXXXXXXXXXXXXXXXXXX. XXXXXX.XXXXXXXXXXXXXXXXXXXXXoXXXXXXXXXo .  oXXXXXXXXXXXX",
"XXXXXXXXXXXXXXXXXXXXXXXXoo .  ooXXXXXXXXXXXXXXXXXXXXXXXXXXXXXXXXXXXXXXXXXXXXXXXXXXXXXXXXoo .  ooXXXXXXXXXXXXXXXXXXXXXXXXXXXXXXXXXXXXXXXXXXXXXXXXXXXXXXXXoo .  ooXXXXXXXXXXXXXXXXXXXXXXXXXXXXXXXXXXXXXXXXXXXXXXXXXXXXXXXXoo .  ooXXXXXXXXXXXXXXXXXXXXXXXXXXXXXXXXXXXXXXXXXXXXXXXXXXXXXXXXoo .  ooXXXXXXXXXXXXXXXXXXXXXXXXXXXXXXXXXXXXXXXXXXXXXXXXXXXXXXXXoo .  ooXXXXXXXXXXXXXXXXXXXXXXXXXXXXXXXXXXXXXXXXXXXXXXXXXXXXXXXXoo .  ooXXXXXXXXXXXXXXXXXXXXXXXXXXXXXXXXXXXXXXXXXXXXXXXXXXXXXXXXoo .  ooXXXXXXXXXXX",
"XXXXXXXXXXXXXXXXXXXX..XXoo    ooXX.XXXXXXXXXXXXXXXXXXXXXXXXXXXXXXXXXXXXXXXXXXXXXXXXX..XXoo    ooXX.XXXXXXXXXXXXXXXXXXXXXXXXXXXXXXXXXXXXXXXXXXXXXXXXX..XXoo    ooXX.XXXXXXXXXXXXXXXXXXXXXXXXXXXXXXXXXXXXXXXXXXXXXXXXX..XXoo    ooXX.XXXXXXXXXXXXXXXXXXXXXXXXXXXXXXXXXXXXXXXXXXXXXXXXX..XXoo    ooXX.XXXXXXXXXXXXXXXXXXXXXXXXXXXXXXXXXXXXXXXXXXXXXXXXX..XXoo    ooXX.XXXXXXXXXXXXXXXXXXXXXXXXXXXXXXXXXXXXXXXXXXXXXXXXX..XXoo    ooXX.XXXXXXXXXXXXXXXXXXXXXXXXXXXXXXXXXXXXXXXXXXXXXXXXX..XXoo    ooXX.XXXXXXXX",
"XX..X...XXXXXXXXXX.......o    o....XXXXXXXXXXX....XXXXXX....XXXXXX..X...XXXXXXXXXX.......o    o....XXXXXXXXXXX....XXXXXX....XXXXXX..X...XXXXXXXXXX.......o    o....XXXXXXXXXXX....XXXXXX....XXXXXX..X...XXXXXXXXXX.......o    o....XXXXXXXXXXX....XXXXXX....XXXXXX..X...XXXXXXXXXX.......o    o....XXXXXXXXXXX....XXXXXX....XXXXXX..X...XXXXXXXXXX.......o    o....XXXXXXXXXXX....XXXXXX....XXXXXX..X...XXXXXXXXXX.......o    o....XXXXXXXXXXX....XXXXXX....XXXXXX..X...XXXXXXXXXX.......o    o....XXXXXXXX",
".........X......X........  .  ...............XXX....X....................X......X........  .  ...............XXX....X....................X......X........  .  ...............XXX....X....................X......X........  .  ...............XXX....X....................X......X........  .  ...............XXX....X....................X......X........  .  ...............XXX....X....................X......X........  .  ...............XXX....X....................X......X........  .  .............",
".... ...................  ..      .....  ...............        .... ...................  ..      .....  ...............        .... ...................  ..      .....  ...............        .... ...................  ..      .....  ...............        .... ...................  ..      .....  ...............        .... ...................  ..      .....  ...............        .... ...................  ..      .....  ...............        .... ...................  ..      .....  ..",
"                          .                                                               .                                                               .                                                               .                                                               .                                                               .                                                               .                                                               .                ",
"                        ....                                .                           ....                                .                           ....                                .                           ....                                .                           ....                                .                           ....                                .                           ....                                .                           ....               ",
"... ..        ....  ...  . ..           ...X  ....     ..  .    ... ..        ....  ...  . ..           ...X  ....     ..  .    ... ..        ....  ...  . ..           ...X  ....     ..  .    ... ..        ....  ...  . ..           ...X  ....     ..  .    ... ..        ....  ...  . ..           ...X  ....     ..  .    ... ..        ....  ...  . ..           ...X  ....     ..  .    ... ..        ....  ...  . ..           ...X  ....     ..  .    ... ..        ....  ...  . ..           ...",
"      . .                                  .X                         . .                                  .X                         . .                                  .X                         . .                                  .X                         . .                                  .X                         . .                                  .X                         . .                                  .X                         . .                                  ",
" .Xoooooooooo.oX..Xoo..ooooo. .ooooooXXX..  .   .XX.. .   .Xooo. .Xoooooooooo.oX..Xoo..ooooo. .ooooooXXX..  .   .XX.. .   .Xooo. .Xoooooooooo.oX..Xoo..ooooo. .ooooooXXX..  .   .XX.. .   .Xooo. .Xoooooooooo.oX..Xoo..ooooo. .ooooooXXX..  .   .XX.. .   .Xooo. .Xoooooooooo.oX..Xoo..ooooo. .ooooooXXX..  .   .XX.. .   .Xooo. .Xoooooooooo.oX..Xoo..ooooo. .ooooooXXX..  .   .XX.. .   .Xooo. .Xoooooooooo.oX..Xoo..ooooo. .ooooooXXX..  .   .XX.. .   .Xooo. .Xoooooooooo.oX..Xoo..ooooo. .ooooooXXX.. ",
"ooooooooXooooXooooooooooooooooooXooooooooo. .   ooooooooooooooooooooooooXooooXooooooooooooooooooXooooooooo. .   ooooooooooooooooooooooooXooooXooooooooooooooooooXooooooooo. .   ooooooooooooooooooooooooXooooXooooooooooooooooooXooooooooo. .   ooooooooooooooooooooooooXooooXooooooooooooooooooXooooooooo. .   ooooooooooooooooooooooooXooooXooooooooooooooooooXooooooooo. .   ooooooooooooooooooooooooXooooXooooooooooooooooooXooooooooo. .   ooooooooooooooooooooooooXooooXooooooooooooooooooXooooooooo.",
"oooXXXoXXXXXXXXXXXoooXXoooooXoooXXXXoooooo. .   ooooooXXoXoooXoooooXXXoXXXXXXXXXXXoooXXoooooXoooXXXXoooooo. .   ooooooXXoXoooXoooooXXXoXXXXXXXXXXXoooXXoooooXoooXXXXoooooo. .   ooooooXXoXoooXoooooXXXoXXXXXXXXXXXoooXXoooooXoooXXXXoooooo. .   ooooooXXoXoooXoooooXXXoXXXXXXXXXXXoooXXoooooXoooXXXXoooooo. .   ooooooXXoXoooXoooooXXXoXXXXXXXXXXXoooXXoooooXoooXXXXoooooo. .   ooooooXXoXoooXoooooXXXoXXXXXXXXXXXoooXXoooooXoooXXXXoooooo. .   ooooooXXoXoooXoooooXXXoXXXXXXXXXXXoooXXoooooXoooXXXXoooooo.",
"XXXXXX.XXXXXXXXXXXXXXXXXXXXXXXXXXXXXXXXXXoX .  .oXXXXXXXXXXXXXXXXXXXXX.XXXXXXXXXXXXXXXXXXXXXXXXXXXXXXXXXXoX .  .oXXXXXXXXXXXXXXXXXXXXX.XXXXXXXXXXXXXXXXXXXXXXXXXXXXXXXXXXoX .  .oXXXXXXXXXXXXXXXXXXXXX.XXXXXXXXXXXXXXXXXXXXXXXXXXXXXXXXXXoX .  .oXXXXXXXXXXXXXXXXXXXXX.XXXXXXXXXXXXXXXXXXXXXXXXXXXXXXXXXXoX .  .oXXXXXXXXXXXXXXXXXXXXX.XXXXXXXXXXXXXXXXXXXXXXXXXXXXXXXXXXoX .  .oXXXXXXXXXXXXXXXXXXXXX.XXXXXXXXXXXXXXXXXXXXXXXXXXXXXXXXXXoX .  .oXXXXXXXXXXXXXXXXXXXXX.XXXXXXXXXXXXXXXXXXXXXXXXXXXXXXXXXXoX",
"XXXXXXXXXXXXXXXXXXXXXXXXXXXXXXXXXXXXXXXXXoX .  .XXXXXXXXXXXXXXXXXXXXXXXXXXXXXXXXXXXXXXXXXXXXXXXXXXXXXXXXXoX .  .XXXXXXXXXXXXXXXXXXXXXXXXXXXXXXXXXXXXXXXXXXXXXXXXXXXXXXXXXoX .  .XXXXXXXXXXXXXXXXXXXXXXXXXXXXXXXXXXXXXXXXXXXXXXXXXXXXXXXXXoX .  .XXXXXXXXXXXXXXXXXXXXXXXXXXXXXXXXXXXXXXXXXXXXXXXXXXXXXXXXXoX .  .XXXXXXXXXXXXXXXXXXXXXXXXXXXXXXXXXXXXXXXXXXXXXXXXXXXXXXXXXoX .  .XXXXXXXXXXXXXXXXXXXXXXXXXXXXXXXXXXXXXXXXXXXXXXXXXXXXXXXXXoX .  .XXXXXXXXXXXXXXXXXXXXXXXXXXXXXXXXXXXXXXXXXXXXXXXXXXXXXXXXXoX",
"XXXXXXXXXXXXXXXXXXXXXXXXXXXXXXXXXXXXX.XXXoo .  XoXXXXXXXXXXXXXXXXXXXXXXXXXXXXXXXXXXXXXXXXXXXXXXXXXXXX.XXXoo .  XoXXXXXXXXXXXXXXXXXXXXXXXXXXXXXXXXXXXXXXXXXXXXXXXXXXXX.XXXoo .  XoXXXXXXXXXXXXXXXXXXXXXXXXXXXXXXXXXXXXXXXXXXXXXXXXXXXX.XXXoo .  XoXXXXXXXXXXXXXXXXXXXXXXXXXXXXXXXXXXXXXXXXXXXXXXXXXXXX.XXXoo .  XoXXXXXXXXXXXXXXXXXXXXXXXXXXXXXXXXXXXXXXXXXXXXXXXXXXXX.XXXoo .  XoXXXXXXXXXXXXXXXXXXXXXXXXXXXXXXXXXXXXXXXXXXXXXXXXXXXX.XXXoo .  XoXXXXXXXXXXXXXXXXXXXXXXXXXXXXXXXXXXXXXXXXXXXXXXXXXXXX.XXXoo",
"XXXXXXXXXXXXXXXXX.XXXXXXXXXXXXXXXXXXX..XXXo  . XoXXXXXXXXXXXXXXXXXXXXXXXXXXXXXXXX.XXXXXXXXXXXXXXXXXXX..XXXo  . XoXXXXXXXXXXXXXXXXXXXXXXXXXXXXXXXX.XXXXXXXXXXXXXXXXXXX..XXXo  . XoXXXXXXXXXXXXXXXXXXXXXXXXXXXXXXXX.XXXXXXXXXXXXXXXXXXX..XXXo  . XoXXXXXXXXXXXXXXXXXXXXXXXXXXXXXXXX.XXXXXXXXXXXXXXXXXXX..XXXo  . XoXXXXXXXXXXXXXXXXXXXXXXXXXXXXXXXX.XXXXXXXXXXXXXXXXXXX..XXXo  . XoXXXXXXXXXXXXXXXXXXXXXXXXXXXXXXXX.XXXXXXXXXXXXXXXXXXX..XXXo  . XoXXXXXXXXXXXXXXXXXXXXXXXXXXXXXXXX.XXXXXXXXXXXXXXXXXXX..XXXo",
"XXXXXXXXXXXXXXXXXoXXXXXXXXXXXXXXXXXXXX.XXoo    ooXXXXX.XXXXXXXXXXXXXXXXXXXXXXXXXXoXXXXXXXXXXXXXXXXXXXX.XXoo    ooXXXXX.XXXXXXXXXXXXXXXXXXXXXXXXXXoXXXXXXXXXXXXXXXXXXXX.XXoo    ooXXXXX.XXXXXXXXXXXXXXXXXXXXXXXXXXoXXXXXXXXXXXXXXXXXXXX.XXoo    ooXXXXX.XXXXXXXXXXXXXXXXXXXXXXXXXXoXXXXXXXXXXXXXXXXXXXX.XXoo    ooXXXXX.XXXXXXXXXXXXXXXXXXXXXXXXXXoXXXXXXXXXXXXXXXXXXXX.XXoo    ooXXXXX.XXXXXXXXXXXXXXXXXXXXXXXXXXoXXXXXXXXXXXXXXXXXXXX.XXoo    ooXXXXX.XXXXXXXXXXXXXXXXXXXXXXXXXXoXXXXXXXXXXXXXXXXXXXX.XXoo",
"XXXXX....XXXXXXXXXXXXXXXXXXXXXX  XXXXXXXXXo    oXXXXXX.XXXXXXXXXXXXXX....XXXXXXXXXXXXXXXXXXXXXX  XXXXXXXXXo    oXXXXXX.XXXXXXXXXXXXXX....XXXXXXXXXXXXXXXXXXXXXX  XXXXXXXXXo    oXXXXXX.XXXXXXXXXXXXXX....XXXXXXXXXXXXXXXXXXXXXX  XXXXXXXXXo    oXXXXXX.XXXXXXXXXXXXXX....XXXXXXXXXXXXXXXXXXXXXX  XXXXXXXXXo    oXXXXXX.XXXXXXXXXXXXXX....XXXXXXXXXXXXXXXXXXXXXX  XXXXXXXXXo    oXXXXXX.XXXXXXXXXXXXXX....XXXXXXXXXXXXXXXXXXXXXX  XXXXXXXXXo    oXXXXXX.XXXXXXXXXXXXXX....XXXXXXXXXXXXXXXXXXXXXX  XXXXXXXXXo",
"XXXXXX.  .XXXXXXXXXXXXXXXXXXXX. .XXXXXXXXXX .  oXXXXXXXXXXXXXXXXXXXXXX.  .XXXXXXXXXXXXXXXXXXXX. .XXXXXXXXXX .  oXXXXXXXXXXXXXXXXXXXXXX.  .XXXXXXXXXXXXXXXXXXXX. .XXXXXXXXXX .  oXXXXXXXXXXXXXXXXXXXXXX.  .XXXXXXXXXXXXXXXXXXXX. .XXXXXXXXXX .  oXXXXXXXXXXXXXXXXXXXXXX.  .XXXXXXXXXXXXXXXXXXXX. .XXXXXXXXXX .  oXXXXXXXXXXXXXXXXXXXXXX.  .XXXXXXXXXXXXXXXXXXXX. .XXXXXXXXXX .  oXXXXXXXXXXXXXXXXXXXXXX.  .XXXXXXXXXXXXXXXXXXXX. .XXXXXXXXXX .  oXXXXXXXXXXXXXXXXXXXXXX.  .XXXXXXXXXXXXXXXXXXXX. .XXXXXXXXXX",
"XXXX.X.oo..XXXXXXXXXXXXXXXXXX. XXXXXXXXXXXo .  ooXXXXXXXXXXXXXXXXXXX.X.oo..XXXXXXXXXXXXXXXXXX. XXXXXXXXXXXo .  ooXXXXXXXXXXXXXXXXXXX.X.oo..XXXXXXXXXXXXXXXXXX. XXXXXXXXXXXo .  ooXXXXXXXXXXXXXXXXXXX.X.oo..XXXXXXXXXXXXXXXXXX. XXXXXXXXXXXo .  ooXXXXXXXXXXXXXXXXXXX.X.oo..XXXXXXXXXXXXXXXXXX. XXXXXXXXXXXo .  ooXXXXXXXXXXXXXXXXXXX.X.oo..XXXXXXXXXXXXXXXXXX. XXXXXXXXXXXo .  ooXXXXXXXXXXXXXXXXXXX.X.oo..XXXXXXXXXXXXXXXXXX. XXXXXXXXXXXo .  ooXXXXXXXXXXXXXXXXXXX.X.oo..XXXXXXXXXXXXXXXXXX. XXXXXXXXXXXo",
"XXXXoXX.XX.XXXXXXXXXXX  XXXXXooXXXXXXXXXXoo .  XoXXXXXXXXXXXXXXXXXXXoXX.XX.XXXXXXXXXXX  XXXXXooXXXXXXXXXXoo .  XoXXXXXXXXXXXXXXXXXXXoXX.XX.XXXXXXXXXXX  XXXXXooXXXXXXXXXXoo .  XoXXXXXXXXXXXXXXXXXXXoXX.XX.XXXXXXXXXXX  XXXXXooXXXXXXXXXXoo .  XoXXXXXXXXXXXXXXXXXXXoXX.XX.XXXXXXXXXXX  XXXXXooXXXXXXXXXXoo .  XoXXXXXXXXXXXXXXXXXXXoXX.XX.XXXXXXXXXXX  XXXXXooXXXXXXXXXXoo .  XoXXXXXXXXXXXXXXXXXXXoXX.XX.XXXXXXXXXXX  XXXXXooXXXXXXXXXXoo .  XoXXXXXXXXXXXXXXXXXXXoXX.XX.XXXXXXXXXXX  XXXXXooXXXXXXXXXXoo",
"XXXXXXXXXXXXXXXXXXXXX..XXXXXXXXXXX.XXXXXXoo .  ooXXXXXXXXXXXXXXXXXXXXXXXXXXXXXXXXXXXX..XXXXXXXXXXX.XXXXXXoo .  ooXXXXXXXXXXXXXXXXXXXXXXXXXXXXXXXXXXXX..XXXXXXXXXXX.XXXXXXoo .  ooXXXXXXXXXXXXXXXXXXXXXXXXXXXXXXXXXXXX..XXXXXXXXXXX.XXXXXXoo .  ooXXXXXXXXXXXXXXXXXXXXXXXXXXXXXXXXXXXX..XXXXXXXXXXX.XXXXXXoo .  ooXXXXXXXXXXXXXXXXXXXXXXXXXXXXXXXXXXXX..XXXXXXXXXXX.XXXXXXoo .  ooXXXXXXXXXXXXXXXXXXXXXXXXXXXXXXXXXXXX..XXXXXXXXXXX.XXXXXXoo .  ooXXXXXXXXXXXXXXXXXXXXXXXXXXXXXXXXXXXX..XXXXXXXXXXX.XXXXXXoo",
"XXXXXXXXXXXXXXXXXXXXXXXXXXXXXXXXXXX.XXXXXoo .  ooXXXXXXXXXXXXXXXXXXXXXXXXXXXXXXXXXXXXXXXXXXXXXXXXXX.XXXXXoo .  ooXXXXXXXXXXXXXXXXXXXXXXXXXXXXXXXXXXXXXXXXXXXXXXXXXX.XXXXXoo .  ooXXXXXXXXXXXXXXXXXXXXXXXXXXXXXXXXXXXXXXXXXXXXXXXXXX.XXXXXoo .  ooXXXXXXXXXXXXXXXXXXXXXXXXXXXXXXXXXXXXXXXXXXXXXXXXXX.XXXXXoo .  ooXXXXXXXXXXXXXXXXXXXXXXXXXXXXXXXXXXXXXXXXXXXXXXXXXX.XXXXXoo .  ooXXXXXXXXXXXXXXXXXXXXXXXXXXXXXXXXXXXXXXXXXXXXXXXXXX.XXXXXoo .  ooXXXXXXXXXXXXXXXXXXXXXXXXXXXXXXXXXXXXXXXXXXXXXXXXXX.XXXXXoo",
"XXXXXXXXXXXXX.XXXXXXXXXXXXXXXXXXXXXXXX.XXoo    ooXXXXXXXXXXXXXXXXXXXXXXXXXXXX.XXXXXXXXXXXXXXXXXXXXXXXX.XXoo    ooXXXXXXXXXXXXXXXXXXXXXXXXXXXX.XXXXXXXXXXXXXXXXXXXXXXXX.XXoo    ooXXXXXXXXXXXXXXXXXXXXXXXXXXXX.XXXXXXXXXXXXXXXXXXXXXXXX.XXoo    ooXXXXXXXXXXXXXXXXXXXXXXXXXXXX.XXXXXXXXXXXXXXXXXXXXXXXX.XXoo    ooXXXXXXXXXXXXXXXXXXXXXXXXXXXX.XXXXXXXXXXXXXXXXXXXXXXXX.XXoo    ooXXXXXXXXXXXXXXXXXXXXXXXXXXXX.XXXXXXXXXXXXXXXXXXXXXXXX.XXoo    ooXXXXXXXXXXXXXXXXXXXXXXXXXXXX.XXXXXXXXXXXXXXXXXXXXXXXX.XXoo",
"XXX...XXXXX.....XXX.XXX...X......X.......oo .  o..X..XX...X...XXXXX...XXXXX.....XXX.XXX...X......X.......oo .  o..X..XX...X...XXXXX...XXXXX.....XXX.XXX...X......X.......oo .  o..X..XX...X...XXXXX...XXXXX.....XXX.XXX...X......X.......oo .  o..X..XX...X...XXXXX...XXXXX.....XXX.XXX...X......X.......oo .  o..X..XX...X...XXXXX...XXXXX.....XXX.XXX...X......X.......oo .  o..X..XX...X...XXXXX...XXXXX.....XXX.XXX...X......X.......oo .  o..X..XX...X...XXXXX...XXXXX.....XXX.XXX...X......X.......oo",
"..................XX.......X..............o    ...................................XX.......X..............o    ...................................XX.......X..............o    ...................................XX.......X..............o    ...................................XX.......X..............o    ...................................XX.......X..............o    ...................................XX.......X..............o    ...................................XX.......X..............o",
"..   ..........   ..     ..... ..........        ........ ........   ..........   ..     ..... ..........        ........ ........   ..........   ..     ..... ..........        ........ ........   ..........   ..     ..... ..........        ........ ........   ..........   ..     ..... ..........        ........ ........   ..........   ..     ..... ..........        ........ ........   ..........   ..     ..... ..........        ........ ........   ..........   ..     ..... ..........  ",
"                                            .                                                               .                                                               .                                                               .                                                               .                                                               .                                                               .                                                              ",
"                                    .     ...       .                                               .     ...       .                                               .     ...       .                                               .     ...       .                                               .     ...       .                                               .     ...       .                                               .     ...       .                                               .     .",
" ..  ...... .   .     X.. .    ... .     ...X      .     ....    ..  ...... .   .     X.. .    ... .     ...X      .     ....    ..  ...... .   .     X.. .    ... .     ...X      .     ....    ..  ...... .   .     X.. .    ... .     ...X      .     ....    ..  ...... .   .     X.. .    ... .     ...X      .     ....    ..  ...... .   .     X.. .    ... .     ...X      .     ....    ..  ...... .   .     X.. .    ... .     ...X      .     ....    ..  ...... .   .     X.. .    ... .     ..",
"             XX           .          .....                                   XX           .          .....                                   XX           .          .....                                   XX           .          .....                                   XX           .          .....                                   XX           .          .....                                   XX           .          .....                                   XX           .          ..... ",
"ooooooooooo. .X  X.. .ooooooooo..   .oooooooooooo. .o.     .ooooooooooooooo. .X  X.. .ooooooooo..   .oooooooooooo. .o.     .ooooooooooooooo. .X  X.. .ooooooooo..   .oooooooooooo. .o.     .ooooooooooooooo. .X  X.. .ooooooooo..   .oooooooooooo. .o.     .ooooooooooooooo. .X  X.. .ooooooooo..   .oooooooooooo. .o.     .ooooooooooooooo. .X  X.. .ooooooooo..   .oooooooooooo. .o.     .ooooooooooooooo. .X  X.. .ooooooooo..   .oooooooooooo. .o.     .ooooooooooooooo. .X  X.. .ooooooooo..   .oooooo",
"oo.ooooooooo  .  .oooooooXoooooooooooooooooooooooooooooooooooooooo.ooooooooo  .  .oooooooXoooooooooooooooooooooooooooooooooooooooo.ooooooooo  .  .oooooooXoooooooooooooooooooooooooooooooooooooooo.ooooooooo  .  .oooooooXoooooooooooooooooooooooooooooooooooooooo.ooooooooo  .  .oooooooXoooooooooooooooooooooooooooooooooooooooo.ooooooooo  .  .oooooooXoooooooooooooooooooooooooooooooooooooooo.ooooooooo  .  .oooooooXoooooooooooooooooooooooooooooooooooooooo.ooooooooo  .  .oooooooXooooooooooooooooo",
"ooXXoooooooo  X  oooooooXXooXoooXXXXoooXXXXXXXooooXoooooooooooooooXXoooooooo  X  oooooooXXooXoooXXXXoooXXXXXXXooooXoooooooooooooooXXoooooooo  X  oooooooXXooXoooXXXXoooXXXXXXXooooXoooooooooooooooXXoooooooo  X  oooooooXXooXoooXXXXoooXXXXXXXooooXoooooooooooooooXXoooooooo  X  oooooooXXooXoooXXXXoooXXXXXXXooooXoooooooooooooooXXoooooooo  X  oooooooXXooXoooXXXXoooXXXXXXXooooXoooooooooooooooXXoooooooo  X  oooooooXXooXoooXXXXoooXXXXXXXooooXoooooooooooooooXXoooooooo  X  oooooooXXooXoooXXXXoooXXXX",
".XXXXXXXXXXo. .  oXXXXXXXXXXXXXXXXXXXXXXXXXXXXXXXXXXXXXXXXXXXXX..XXXXXXXXXXo. .  oXXXXXXXXXXXXXXXXXXXXXXXXXXXXXXXXXXXXXXXXXXXXX..XXXXXXXXXXo. .  oXXXXXXXXXXXXXXXXXXXXXXXXXXXXXXXXXXXXXXXXXXXXX..XXXXXXXXXXo. .  oXXXXXXXXXXXXXXXXXXXXXXXXXXXXXXXXXXXXXXXXXXXXX..XXXXXXXXXXo. .  oXXXXXXXXXXXXXXXXXXXXXXXXXXXXXXXXXXXXXXXXXXXXX..XXXXXXXXXXo. .  oXXXXXXXXXXXXXXXXXXXXXXXXXXXXXXXXXXXXXXXXXXXXX..XXXXXXXXXXo. .  oXXXXXXXXXXXXXXXXXXXXXXXXXXXXXXXXXXXXXXXXXXXXX..XXXXXXXXXXo. .  oXXXXXXXXXXXXXXXXXXXXXXXXX",
"XXXXXXXXXXXoo    oXXXX XXXXXXXXXXXXXXXXXXXXXXXXXXXXXXXXXXXXXXXXXXXXXXXXXXXXoo    oXXXX XXXXXXXXXXXXXXXXXXXXXXXXXXXXXXXXXXXXXXXXXXXXXXXXXXXXoo    oXXXX XXXXXXXXXXXXXXXXXXXXXXXXXXXXXXXXXXXXXXXXXXXXXXXXXXXXoo    oXXXX XXXXXXXXXXXXXXXXXXXXXXXXXXXXXXXXXXXXXXXXXXXXXXXXXXXXoo    oXXXX XXXXXXXXXXXXXXXXXXXXXXXXXXXXXXXXXXXXXXXXXXXXXXXXXXXXoo    oXXXX XXXXXXXXXXXXXXXXXXXXXXXXXXXXXXXXXXXXXXXXXXXXXXXXXXXXoo    oXXXX XXXXXXXXXXXXXXXXXXXXXXXXXXXXXXXXXXXXXXXXXXXXXXXXXXXXoo    oXXXX XXXXXXXXXXXXXXXXXXXX",
"XXXXXXXXXXXXo .  oXXXX.XXXXXXXXX.X.XXXXXXXXXXXXXXXXXXXXXXXXXXXXXXXXXXXXXXXXXo .  oXXXX.XXXXXXXXX.X.XXXXXXXXXXXXXXXXXXXXXXXXXXXXXXXXXXXXXXXXXo .  oXXXX.XXXXXXXXX.X.XXXXXXXXXXXXXXXXXXXXXXXXXXXXXXXXXXXXXXXXXo .  oXXXX.XXXXXXXXX.X.XXXXXXXXXXXXXXXXXXXXXXXXXXXXXXXXXXXXXXXXXo .  oXXXX.XXXXXXXXX.X.XXXXXXXXXXXXXXXXXXXXXXXXXXXXXXXXXXXXXXXXXo .  oXXXX.XXXXXXXXX.X.XXXXXXXXXXXXXXXXXXXXXXXXXXXXXXXXXXXXXXXXXo .  oXXXX.XXXXXXXXX.X.XXXXXXXXXXXXXXXXXXXXXXXXXXXXXXXXXXXXXXXXXo .  oXXXX.XXXXXXXXX.X.XXXXXXXX",
"XXXXXX XXXXXo .  oXXXXXXXXXXXXX..oXXXXXXXXXXXXXX.XXXXXXXXX.XXXXXXXXXXX XXXXXo .  oXXXXXXXXXXXXX..oXXXXXXXXXXXXXX.XXXXXXXXX.XXXXXXXXXXX XXXXXo .  oXXXXXXXXXXXXX..oXXXXXXXXXXXXXX.XXXXXXXXX.XXXXXXXXXXX XXXXXo .  oXXXXXXXXXXXXX..oXXXXXXXXXXXXXX.XXXXXXXXX.XXXXXXXXXXX XXXXXo .  oXXXXXXXXXXXXX..oXXXXXXXXXXXXXX.XXXXXXXXX.XXXXXXXXXXX XXXXXo .  oXXXXXXXXXXXXX..oXXXXXXXXXXXXXX.XXXXXXXXX.XXXXXXXXXXX XXXXXo .  oXXXXXXXXXXXXX..oXXXXXXXXXXXXXX.XXXXXXXXX.XXXXXXXXXXX XXXXXo .  oXXXXXXXXXXXXX..oXXXXXXXXX",
"XXXXXX.XXXXoo    ooXXXXXXXXXX.. .XXXXXXXXXXXXXXX.XXXXXXXX.XXXXXXXXXXXX.XXXXoo    ooXXXXXXXXXX.. .XXXXXXXXXXXXXXX.XXXXXXXX.XXXXXXXXXXXX.XXXXoo    ooXXXXXXXXXX.. .XXXXXXXXXXXXXXX.XXXXXXXX.XXXXXXXXXXXX.XXXXoo    ooXXXXXXXXXX.. .XXXXXXXXXXXXXXX.XXXXXXXX.XXXXXXXXXXXX.XXXXoo    ooXXXXXXXXXX.. .XXXXXXXXXXXXXXX.XXXXXXXX.XXXXXXXXXXXX.XXXXoo    ooXXXXXXXXXX.. .XXXXXXXXXXXXXXX.XXXXXXXX.XXXXXXXXXXXX.XXXXoo    ooXXXXXXXXXX.. .XXXXXXXXXXXXXXX.XXXXXXXX.XXXXXXXXXXXX.XXXXoo    ooXXXXXXXXXX.. .XXXXXXXXXX",
"XXXXXXXXXXXoo    ooXXXXXXXX.   .oXXXX XXXXXXXXXXoXXXXXXXX.oXXXXXXXXXXXXXXXXoo    ooXXXXXXXX.   .oXXXX XXXXXXXXXXoXXXXXXXX.oXXXXXXXXXXXXXXXXoo    ooXXXXXXXX.   .oXXXX XXXXXXXXXXoXXXXXXXX.oXXXXXXXXXXXXXXXXoo    ooXXXXXXXX.   .oXXXX XXXXXXXXXXoXXXXXXXX.oXXXXXXXXXXXXXXXXoo    ooXXXXXXXX.   .oXXXX XXXXXXXXXXoXXXXXXXX.oXXXXXXXXXXXXXXXXoo    ooXXXXXXXX.   .oXXXX XXXXXXXXXXoXXXXXXXX.oXXXXXXXXXXXXXXXXoo    ooXXXXXXXX.   .oXXXX XXXXXXXXXXoXXXXXXXX.oXXXXXXXXXXXXXXXXoo    ooXXXXXXXX.   .oXXXX XXXXX",
"XXXXXXXXXXXXo    XoXXXXXXX.oooo.XXXXX.XXXXXXXXXXXXXXXXXXXXoXXXXXXXXXXXXXXXXXo    XoXXXXXXX.oooo.XXXXX.XXXXXXXXXXXXXXXXXXXXoXXXXXXXXXXXXXXXXXo    XoXXXXXXX.oooo.XXXXX.XXXXXXXXXXXXXXXXXXXXoXXXXXXXXXXXXXXXXXo    XoXXXXXXX.oooo.XXXXX.XXXXXXXXXXXXXXXXXXXXoXXXXXXXXXXXXXXXXXo    XoXXXXXXX.oooo.XXXXX.XXXXXXXXXXXXXXXXXXXXoXXXXXXXXXXXXXXXXXo    XoXXXXXXX.oooo.XXXXX.XXXXXXXXXXXXXXXXXXXXoXXXXXXXXXXXXXXXXXo    XoXXXXXXX.oooo.XXXXX.XXXXXXXXXXXXXXXXXXXXoXXXXXXXXXXXXXXXXXo    XoXXXXXXX.oooo.XXXXX.XXXXX",
"XXXXXXXXXXXXo    XoXXXXXXXXXXXXXXXXXXXXXXXXXXXXXXXXXXXXXXoXXXXXXXXXXXXXXXXXXo    XoXXXXXXXXXXXXXXXXXXXXXXXXXXXXXXXXXXXXXXoXXXXXXXXXXXXXXXXXXo    XoXXXXXXXXXXXXXXXXXXXXXXXXXXXXXXXXXXXXXXoXXXXXXXXXXXXXXXXXXo    XoXXXXXXXXXXXXXXXXXXXXXXXXXXXXXXXXXXXXXXoXXXXXXXXXXXXXXXXXXo    XoXXXXXXXXXXXXXXXXXXXXXXXXXXXXXXXXXXXXXXoXXXXXXXXXXXXXXXXXXo    XoXXXXXXXXXXXXXXXXXXXXXXXXXXXXXXXXXXXXXXoXXXXXXXXXXXXXXXXXXo    XoXXXXXXXXXXXXXXXXXXXXXXXXXXXXXXXXXXXXXXoXXXXXXXXXXXXXXXXXXo    XoXXXXXXXXXXXXXXXXXXXXXXXX",
"XXXXXXXXXXXoo  . ooXXXXXXXXXXXXXXXXXXXXXXXXXXXXXXXXXXXXXXXXXXXXXXXXXXXXXXXXoo  . ooXXXXXXXXXXXXXXXXXXXXXXXXXXXXXXXXXXXXXXXXXXXXXXXXXXXXXXXXoo  . ooXXXXXXXXXXXXXXXXXXXXXXXXXXXXXXXXXXXXXXXXXXXXXXXXXXXXXXXXoo  . ooXXXXXXXXXXXXXXXXXXXXXXXXXXXXXXXXXXXXXXXXXXXXXXXXXXXXXXXXoo  . ooXXXXXXXXXXXXXXXXXXXXXXXXXXXXXXXXXXXXXXXXXXXXXXXXXXXXXXXXoo  . ooXXXXXXXXXXXXXXXXXXXXXXXXXXXXXXXXXXXXXXXXXXXXXXXXXXXXXXXXoo  . ooXXXXXXXXXXXXXXXXXXXXXXXXXXXXXXXXXXXXXXXXXXXXXXXXXXXXXXXXoo  . ooXXXXXXXXXXXXXXXXXXXXXXXX",
"XXXXXXXXXXXoo    ooXX.XXXXXXXXXXXXXXXXXXXX..XXXXXXXXXXXXXXXXXXXXXXXXXXXXXXXoo    ooXX.XXXXXXXXXXXXXXXXXXXX..XXXXXXXXXXXXXXXXXXXXXXXXXXXXXXXoo    ooXX.XXXXXXXXXXXXXXXXXXXX..XXXXXXXXXXXXXXXXXXXXXXXXXXXXXXXoo    ooXX.XXXXXXXXXXXXXXXXXXXX..XXXXXXXXXXXXXXXXXXXXXXXXXXXXXXXoo    ooXX.XXXXXXXXXXXXXXXXXXXX..XXXXXXXXXXXXXXXXXXXXXXXXXXXXXXXoo    ooXX.XXXXXXXXXXXXXXXXXXXX..XXXXXXXXXXXXXXXXXXXXXXXXXXXXXXXoo    ooXX.XXXXXXXXXXXXXXXXXXXX..XXXXXXXXXXXXXXXXXXXXXXXXXXXXXXXoo    ooXX.XXXXXXXXXXXXXXXXXXXX.",
"XXXX..XXXXXoo    ooXXX.XXXXXXXXXXXXXXXXXXXXXXXXXXXXXXXXXXXXXXXXXXXXX..XXXXXoo    ooXXX.XXXXXXXXXXXXXXXXXXXXXXXXXXXXXXXXXXXXXXXXXXXXX..XXXXXoo    ooXXX.XXXXXXXXXXXXXXXXXXXXXXXXXXXXXXXXXXXXXXXXXXXXX..XXXXXoo    ooXXX.XXXXXXXXXXXXXXXXXXXXXXXXXXXXXXXXXXXXXXXXXXXXX..XXXXXoo    ooXXX.XXXXXXXXXXXXXXXXXXXXXXXXXXXXXXXXXXXXXXXXXXXXX..XXXXXoo    ooXXX.XXXXXXXXXXXXXXXXXXXXXXXXXXXXXXXXXXXXXXXXXXXXX..XXXXXoo    ooXXX.XXXXXXXXXXXXXXXXXXXXXXXXXXXXXXXXXXXXXXXXXXXXX..XXXXXoo    ooXXX.XXXXXXXXXXXXXXXXXXXX",
"XXXXXX....oo. .  o.......XXXXX.......XXXXXXXXXXXX....XXX..XXX.XXXXXXXX....oo. .  o.......XXXXX.......XXXXXXXXXXXX....XXX..XXX.XXXXXXXX....oo. .  o.......XXXXX.......XXXXXXXXXXXX....XXX..XXX.XXXXXXXX....oo. .  o.......XXXXX.......XXXXXXXXXXXX....XXX..XXX.XXXXXXXX....oo. .  o.......XXXXX.......XXXXXXXXXXXX....XXX..XXX.XXXXXXXX....oo. .  o.......XXXXX.......XXXXXXXXXXXX....XXX..XXX.XXXXXXXX....oo. .  o.......XXXXX.......XXXXXXXXXXXX....XXX..XXX.XXXXXXXX....oo. .  o.......XXXXX.......XXXXXX",
".X.........o  .   ......X................XX......................X.........o  .   ......X................XX......................X.........o  .   ......X................XX......................X.........o  .   ......X................XX......................X.........o  .   ......X................XX......................X.........o  .   ......X................XX......................X.........o  .   ......X................XX......................X.........o  .   ......X................XX",
".........         ..  .... ....  . .............   . ....................         ..  .... ....  . .............   . ....................         ..  .... ....  . .............   . ....................         ..  .... ....  . .............   . ....................         ..  .... ....  . .............   . ....................         ..  .... ....  . .............   . ....................         ..  .... ....  . .............   . ....................         ..  .... ....  . ........",
"            .                                                               .                                                               .                                                               .                                                               .                                                               .                                                               .                                                               .                              ",
"           ...                                                             ...                                                             ...                                                             ...                                                             ...                                                             ...                                                             ...                                                             ...                             ",
"   ...    ...... .......X .X   ..  ...  .....           ..         ...    ...... .......X .X   ..  ...  .....           ..         ...    ...... .......X .X   ..  ...  .....           ..         ...    ...... .......X .X   ..  ...  .....           ..         ...    ...... .......X .X   ..  ...  .....           ..         ...    ...... .......X .X   ..  ...  .....           ..         ...    ...... .......X .X   ..  ...  .....           ..         ...    ...... .......X .X   ..  ...  ...",
"     ....    ..    .       ..       ...                              ....    ..    .       ..       ...                              ....    ..    .       ..       ...                              ....    ..    .       ..       ...                              ....    ..    .       ..       ...                              ....    ..    .       ..       ...                              ....    ..    .       ..       ...                              ....    ..    .       ..       ...    ",
"oooooooooooooooooooooooo.  X.  .Xooooooooooo. .oooo..        .oooooooooooooooooooooooooo.  X.  .Xooooooooooo. .oooo..        .oooooooooooooooooooooooooo.  X.  .Xooooooooooo. .oooo..        .oooooooooooooooooooooooooo.  X.  .Xooooooooooo. .oooo..        .oooooooooooooooooooooooooo.  X.  .Xooooooooooo. .oooo..        .oooooooooooooooooooooooooo.  X.  .Xooooooooooo. .oooo..        .oooooooooooooooooooooooooo.  X.  .Xooooooooooo. .oooo..        .oooooooooooooooooooooooooo.  X.  .Xoooooooooo",
"ooooooo.  ooXoXooXooooooo.  . .XoooooXoooXooo.ooooooo. .ooooooooooooooo.  ooXoXooXooooooo.  . .XoooooXoooXooo.ooooooo. .ooooooooooooooo.  ooXoXooXooooooo.  . .XoooooXoooXooo.ooooooo. .ooooooooooooooo.  ooXoXooXooooooo.  . .XoooooXoooXooo.ooooooo. .ooooooooooooooo.  ooXoXooXooooooo.  . .XoooooXoooXooo.ooooooo. .ooooooooooooooo.  ooXoXooXooooooo.  . .XoooooXoooXooo.ooooooo. .ooooooooooooooo.  ooXoXooXooooooo.  . .XoooooXoooXooo.ooooooo. .ooooooooooooooo.  ooXoXooXooooooo.  . .XoooooXoooXo",
"oooXXXXo   XXXXXXXXXoXoooo X  XoXooXXXXXXXXXXXXooXXXoooooXXoXooooooXXXXo   XXXXXXXXXoXoooo X  XoXooXXXXXXXXXXXXooXXXoooooXXoXooooooXXXXo   XXXXXXXXXoXoooo X  XoXooXXXXXXXXXXXXooXXXoooooXXoXooooooXXXXo   XXXXXXXXXoXoooo X  XoXooXXXXXXXXXXXXooXXXoooooXXoXooooooXXXXo   XXXXXXXXXoXoooo X  XoXooXXXXXXXXXXXXooXXXoooooXXoXooooooXXXXo   XXXXXXXXXoXoooo X  XoXooXXXXXXXXXXXXooXXXoooooXXoXooooooXXXXo   XXXXXXXXXoXoooo X  XoXooXXXXXXXXXXXXooXXXoooooXXoXooooooXXXXo   XXXXXXXXXoXoooo X  XoXooXXXXXXXX",
"XXXoXXXXo.  XXXXXXXXXXXXoX X  XoXXXXXXXXXXXXXXXXXXXXXXXXXXXXXXXXXXXoXXXXo.  XXXXXXXXXXXXoX X  XoXXXXXXXXXXXXXXXXXXXXXXXXXXXXXXXXXXXoXXXXo.  XXXXXXXXXXXXoX X  XoXXXXXXXXXXXXXXXXXXXXXXXXXXXXXXXXXXXoXXXXo.  XXXXXXXXXXXXoX X  XoXXXXXXXXXXXXXXXXXXXXXXXXXXXXXXXXXXXoXXXXo.  XXXXXXXXXXXXoX X  XoXXXXXXXXXXXXXXXXXXXXXXXXXXXXXXXXXXXoXXXXo.  XXXXXXXXXXXXoX X  XoXXXXXXXXXXXXXXXXXXXXXXXXXXXXXXXXXXXoXXXXo.  XXXXXXXXXXXXoX X  XoXXXXXXXXXXXXXXXXXXXXXXXXXXXXXXXXXXXoXXXXo.  XXXXXXXXXXXXoX X  XoXXXXXXXXXXX",
"XXXXXXXXXo. .XXXXXXXXXXXXo    oXXXXXXXXXXXXXXXXXXXXXXXXXXXXXXXXXXXXXXXXXXo. .XXXXXXXXXXXXo    oXXXXXXXXXXXXXXXXXXXXXXXXXXXXXXXXXXXXXXXXXXo. .XXXXXXXXXXXXo    oXXXXXXXXXXXXXXXXXXXXXXXXXXXXXXXXXXXXXXXXXXo. .XXXXXXXXXXXXo    oXXXXXXXXXXXXXXXXXXXXXXXXXXXXXXXXXXXXXXXXXXo. .XXXXXXXXXXXXo    oXXXXXXXXXXXXXXXXXXXXXXXXXXXXXXXXXXXXXXXXXXo. .XXXXXXXXXXXXo    oXXXXXXXXXXXXXXXXXXXXXXXXXXXXXXXXXXXXXXXXXXo. .XXXXXXXXXXXXo    oXXXXXXXXXXXXXXXXXXXXXXXXXXXXXXXXXXXXXXXXXXo. .XXXXXXXXXXXXo    oXXXXXXXXXXXX",
"XXXXXXXXXXo.. XXXXXXXXXXXo .  oXXXXXXXXXXXXXXXX  XXXXXXXXXXXXXXXXXXXXXXXXXo.. XXXXXXXXXXXo .  oXXXXXXXXXXXXXXXX  XXXXXXXXXXXXXXXXXXXXXXXXXo.. XXXXXXXXXXXo .  oXXXXXXXXXXXXXXXX  XXXXXXXXXXXXXXXXXXXXXXXXXo.. XXXXXXXXXXXo .  oXXXXXXXXXXXXXXXX  XXXXXXXXXXXXXXXXXXXXXXXXXo.. XXXXXXXXXXXo .  oXXXXXXXXXXXXXXXX  XXXXXXXXXXXXXXXXXXXXXXXXXo.. XXXXXXXXXXXo .  oXXXXXXXXXXXXXXXX  XXXXXXXXXXXXXXXXXXXXXXXXXo.. XXXXXXXXXXXo .  oXXXXXXXXXXXXXXXX  XXXXXXXXXXXXXXXXXXXXXXXXXo.. XXXXXXXXXXXo .  oXXXXXXXXXXXX",
"XXXXXXXXXXXo..XXXXXXXXXXoo .  oXXXXXXXXXXXXXXXX..   XXXXXXXXXXXXXXXXXXXXXXXo..XXXXXXXXXXoo .  oXXXXXXXXXXXXXXXX..   XXXXXXXXXXXXXXXXXXXXXXXo..XXXXXXXXXXoo .  oXXXXXXXXXXXXXXXX..   XXXXXXXXXXXXXXXXXXXXXXXo..XXXXXXXXXXoo .  oXXXXXXXXXXXXXXXX..   XXXXXXXXXXXXXXXXXXXXXXXo..XXXXXXXXXXoo .  oXXXXXXXXXXXXXXXX..   XXXXXXXXXXXXXXXXXXXXXXXo..XXXXXXXXXXoo .  oXXXXXXXXXXXXXXXX..   XXXXXXXXXXXXXXXXXXXXXXXo..XXXXXXXXXXoo .  oXXXXXXXXXXXXXXXX..   XXXXXXXXXXXXXXXXXXXXXXXo..XXXXXXXXXXoo .  oXXXXXXXXXXXX",
"..XXXXXXXXXXX..XXXXXXXXXoo .  ooXXXXXXXXXXXXXXXXo....XXXXXXXXXXX..XXXXXXXXXXX..XXXXXXXXXoo .  ooXXXXXXXXXXXXXXXXo....XXXXXXXXXXX..XXXXXXXXXXX..XXXXXXXXXoo .  ooXXXXXXXXXXXXXXXXo....XXXXXXXXXXX..XXXXXXXXXXX..XXXXXXXXXoo .  ooXXXXXXXXXXXXXXXXo....XXXXXXXXXXX..XXXXXXXXXXX..XXXXXXXXXoo .  ooXXXXXXXXXXXXXXXXo....XXXXXXXXXXX..XXXXXXXXXXX..XXXXXXXXXoo .  ooXXXXXXXXXXXXXXXXo....XXXXXXXXXXX..XXXXXXXXXXX..XXXXXXXXXoo .  ooXXXXXXXXXXXXXXXXo....XXXXXXXXXXX..XXXXXXXXXXX..XXXXXXXXXoo .  ooXXXXXXXXXXX",
"XXXXXXXXXXXXXo..XXXXXXXXXo    ooXXXXXXX...XXXXXXXXXXXXXXXXXXXXXXXXXXXXXXXXXXXo..XXXXXXXXXo    ooXXXXXXX...XXXXXXXXXXXXXXXXXXXXXXXXXXXXXXXXXXXo..XXXXXXXXXo    ooXXXXXXX...XXXXXXXXXXXXXXXXXXXXXXXXXXXXXXXXXXXo..XXXXXXXXXo    ooXXXXXXX...XXXXXXXXXXXXXXXXXXXXXXXXXXXXXXXXXXXo..XXXXXXXXXo    ooXXXXXXX...XXXXXXXXXXXXXXXXXXXXXXXXXXXXXXXXXXXo..XXXXXXXXXo    ooXXXXXXX...XXXXXXXXXXXXXXXXXXXXXXXXXXXXXXXXXXXo..XXXXXXXXXo    ooXXXXXXX...XXXXXXXXXXXXXXXXXXXXXXXXXXXXXXXXXXXo..XXXXXXXXXo    ooXXXXXXX...X",
"XXXXXXXXXXXXXXX.XXXXXXXXoo X  XoXXXXXXXo...XXXXXXXXXXXXXXXXXXXXXXXXXXXXXXXXXXXX.XXXXXXXXoo X  XoXXXXXXXo...XXXXXXXXXXXXXXXXXXXXXXXXXXXXXXXXXXXX.XXXXXXXXoo X  XoXXXXXXXo...XXXXXXXXXXXXXXXXXXXXXXXXXXXXXXXXXXXX.XXXXXXXXoo X  XoXXXXXXXo...XXXXXXXXXXXXXXXXXXXXXXXXXXXXXXXXXXXX.XXXXXXXXoo X  XoXXXXXXXo...XXXXXXXXXXXXXXXXXXXXXXXXXXXXXXXXXXXX.XXXXXXXXoo X  XoXXXXXXXo...XXXXXXXXXXXXXXXXXXXXXXXXXXXXXXXXXXXX.XXXXXXXXoo X  XoXXXXXXXo...XXXXXXXXXXXXXXXXXXXXXXXXXXXXXXXXXXXX.XXXXXXXXoo X  XoXXXXXXXo...",
"XXXXXXXXXXXXXo..XXXXXXXXXo .  ooXXXXXXXXooo.XXXXXXXXXXXX.XXXXXXXXXXXXXXXXXXXXo..XXXXXXXXXo .  ooXXXXXXXXooo.XXXXXXXXXXXX.XXXXXXXXXXXXXXXXXXXXo..XXXXXXXXXo .  ooXXXXXXXXooo.XXXXXXXXXXXX.XXXXXXXXXXXXXXXXXXXXo..XXXXXXXXXo .  ooXXXXXXXXooo.XXXXXXXXXXXX.XXXXXXXXXXXXXXXXXXXXo..XXXXXXXXXo .  ooXXXXXXXXooo.XXXXXXXXXXXX.XXXXXXXXXXXXXXXXXXXXo..XXXXXXXXXo .  ooXXXXXXXXooo.XXXXXXXXXXXX.XXXXXXXXXXXXXXXXXXXXo..XXXXXXXXXo .  ooXXXXXXXXooo.XXXXXXXXXXXX.XXXXXXXXXXXXXXXXXXXXo..XXXXXXXXXo .  ooXXXXXXXXooo",
"XXXXXXXXXXXXXXXoXXXXXXXXXo .  oXXXXXXXXXXXXXXXXXX. XXXXXX.XXXXXXXXXXXXXXXXXXXXXoXXXXXXXXXo .  oXXXXXXXXXXXXXXXXXX. XXXXXX.XXXXXXXXXXXXXXXXXXXXXoXXXXXXXXXo .  oXXXXXXXXXXXXXXXXXX. XXXXXX.XXXXXXXXXXXXXXXXXXXXXoXXXXXXXXXo .  oXXXXXXXXXXXXXXXXXX. XXXXXX.XXXXXXXXXXXXXXXXXXXXXoXXXXXXXXXo .  oXXXXXXXXXXXXXXXXXX. XXXXXX.XXXXXXXXXXXXXXXXXXXXXoXXXXXXXXXo .  oXXXXXXXXXXXXXXXXXX. XXXXXX.XXXXXXXXXXXXXXXXXXXXXoXXXXXXXXXo .  oXXXXXXXXXXXXXXXXXX. XXXXXX.XXXXXXXXXXXXXXXXXXXXXoXXXXXXXXXo .  oXXXXXXXXXXXX",
"XXXXXXXXXXXXXXXXXXXXXXXXoo .  ooXXXXXXXXXXXXXXXXXXXXXXXXXXXXXXXXXXXXXXXXXXXXXXXXXXXXXXXXoo .  ooXXXXXXXXXXXXXXXXXXXXXXXXXXXXXXXXXXXXXXXXXXXXXXXXXXXXXXXXoo .  ooXXXXXXXXXXXXXXXXXXXXXXXXXXXXXXXXXXXXXXXXXXXXXXXXXXXXXXXXoo .  ooXXXXXXXXXXXXXXXXXXXXXXXXXXXXXXXXXXXXXXXXXXXXXXXXXXXXXXXXoo .  ooXXXXXXXXXXXXXXXXXXXXXXXXXXXXXXXXXXXXXXXXXXXXXXXXXXXXXXXXoo .  ooXXXXXXXXXXXXXXXXXXXXXXXXXXXXXXXXXXXXXXXXXXXXXXXXXXXXXXXXoo .  ooXXXXXXXXXXXXXXXXXXXXXXXXXXXXXXXXXXXXXXXXXXXXXXXXXXXXXXXXoo .  ooXXXXXXXXXXX",
"XXXXXXXXXXXXXXXXXXXX..XXoo    ooXX.XXXXXXXXXXXXXXXXXXXXXXXXXXXXXXXXXXXXXXXXXXXXXXXXX..XXoo    ooXX.XXXXXXXXXXXXXXXXXXXXXXXXXXXXXXXXXXXXXXXXXXXXXXXXX..XXoo    ooXX.XXXXXXXXXXXXXXXXXXXXXXXXXXXXXXXXXXXXXXXXXXXXXXXXX..XXoo    ooXX.XXXXXXXXXXXXXXXXXXXXXXXXXXXXXXXXXXXXXXXXXXXXXXXXX..XXoo    ooXX.XXXXXXXXXXXXXXXXXXXXXXXXXXXXXXXXXXXXXXXXXXXXXXXXX..XXoo    ooXX.XXXXXXXXXXXXXXXXXXXXXXXXXXXXXXXXXXXXXXXXXXXXXXXXX..XXoo    ooXX.XXXXXXXXXXXXXXXXXXXXXXXXXXXXXXXXXXXXXXXXXXXXXXXXX..XXoo    ooXX.XXXXXXXX",
"XX..X...XXXXXXXXXX.......o    o....XXXXXXXXXXX....XXXXXX....XXXXXX..X...XXXXXXXXXX.......o    o....XXXXXXXXXXX....XXXXXX....XXXXXX..X...XXXXXXXXXX.......o    o....XXXXXXXXXXX....XXXXXX....XXXXXX..X...XXXXXXXXXX.......o    o....XXXXXXXXXXX....XXXXXX....XXXXXX..X...XXXXXXXXXX.......o    o....XXXXXXXXXXX....XXXXXX....XXXXXX..X...XXXXXXXXXX.......o    o....XXXXXXXXXXX....XXXXXX....XXXXXX..X...XXXXXXXXXX.......o    o....XXXXXXXXXXX....XXXXXX....XXXXXX..X...XXXXXXXXXX.......o    o....XXXXXXXX",
".........X......X........  .  ...............XXX....X....................X......X........  .  ...............XXX....X....................X......X........  .  ...............XXX....X....................X......X........  .  ...............XXX....X....................X......X........  .  ...............XXX....X....................X......X........  .  ...............XXX....X....................X......X........  .  ...............XXX....X....................X......X........  .  .............",
".... ...................  ..      .....  ...............        .... ...................  ..      .....  ...............        .... ...................  ..      .....  ...............        .... ...................  ..      .....  ...............        .... ...................  ..      .....  ...............        .... ...................  ..      .....  ...............        .... ...................  ..      .....  ...............        .... ...................  ..      .....  ..",
"                          .                                                               .                                                               .                                                               .                                                               .                                                               .                                                               .                                                               .                ",
"                        ....                                .                           ....                                .                           ....                                .                           ....                                .                           ....                                .                           ....                                .                           ....                                .                           ....               ",
"... ..        ....  ...  . ..           ...X  ....     ..  .    ... ..        ....  ...  . ..           ...X  ....     ..  .    ... ..        ....  ...  . ..           ...X  ....     ..  .    ... ..        ....  ...  . ..           ...X  ....     ..  .    ... ..        ....  ...  . ..           ...X  ....     ..  .    ... ..        ....  ...  . ..           ...X  ....     ..  .    ... ..        ....  ...  . ..           ...X  ....     ..  .    ... ..        ....  ...  . ..           ...",
"      . .                                  .X                         . .                                  .X                         . .                                  .X                         . .                                  .X                         . .                                  .X                         . .                                  .X                         . .                                  .X                         . .                                  ",
" .Xoooooooooo.oX..Xoo..ooooo. .ooooooXXX..  .   .XX.. .   .Xooo. .Xoooooooooo.oX..Xoo..ooooo. .ooooooXXX..  .   .XX.. .   .Xooo. .Xoooooooooo.oX..Xoo..ooooo. .ooooooXXX..  .   .XX.. .   .Xooo. .Xoooooooooo.oX..Xoo..ooooo. .ooooooXXX..  .   .XX.. .   .Xooo. .Xoooooooooo.oX..Xoo..ooooo. .ooooooXXX..  .   .XX.. .   .Xooo. .Xoooooooooo.oX..Xoo..ooooo. .ooooooXXX..  .   .XX.. .   .Xooo. .Xoooooooooo.oX..Xoo..ooooo. .ooooooXXX..  .   .XX.. .   .Xooo. .Xoooooooooo.oX..Xoo..ooooo. .ooooooXXX.. ",
"ooooooooXooooXooooooooooooooooooXooooooooo. .   ooooooooooooooooooooooooXooooXooooooooooooooooooXooooooooo. .   ooooooooooooooooooooooooXooooXooooooooooooooooooXooooooooo. .   ooooooooooooooooooooooooXooooXooooooooooooooooooXooooooooo. .   ooooooooooooooooooooooooXooooXooooooooooooooooooXooooooooo. .   ooooooooooooooooooooooooXooooXooooooooooooooooooXooooooooo. .   ooooooooooooooooooooooooXooooXooooooooooooooooooXooooooooo. .   ooooooooooooooooooooooooXooooXooooooooooooooooooXooooooooo.",
"oooXXXoXXXXXXXXXXXoooXXoooooXoooXXXXoooooo. .   ooooooXXoXoooXoooooXXXoXXXXXXXXXXXoooXXoooooXoooXXXXoooooo. .   ooooooXXoXoooXoooooXXXoXXXXXXXXXXXoooXXoooooXoooXXXXoooooo. .   ooooooXXoXoooXoooooXXXoXXXXXXXXXXXoooXXoooooXoooXXXXoooooo. .   ooooooXXoXoooXoooooXXXoXXXXXXXXXXXoooXXoooooXoooXXXXoooooo. .   ooooooXXoXoooXoooooXXXoXXXXXXXXXXXoooXXoooooXoooXXXXoooooo. .   ooooooXXoXoooXoooooXXXoXXXXXXXXXXXoooXXoooooXoooXXXXoooooo. .   ooooooXXoXoooXoooooXXXoXXXXXXXXXXXoooXXoooooXoooXXXXoooooo.",
"XXXXXX.XXXXXXXXXXXXXXXXXXXXXXXXXXXXXXXXXXoX .  .oXXXXXXXXXXXXXXXXXXXXX.XXXXXXXXXXXXXXXXXXXXXXXXXXXXXXXXXXoX .  .oXXXXXXXXXXXXXXXXXXXXX.XXXXXXXXXXXXXXXXXXXXXXXXXXXXXXXXXXoX .  .oXXXXXXXXXXXXXXXXXXXXX.XXXXXXXXXXXXXXXXXXXXXXXXXXXXXXXXXXoX .  .oXXXXXXXXXXXXXXXXXXXXX.XXXXXXXXXXXXXXXXXXXXXXXXXXXXXXXXXXoX .  .oXXXXXXXXXXXXXXXXXXXXX.XXXXXXXXXXXXXXXXXXXXXXXXXXXXXXXXXXoX .  .oXXXXXXXXXXXXXXXXXXXXX.XXXXXXXXXXXXXXXXXXXXXXXXXXXXXXXXXXoX .  .oXXXXXXXXXXXXXXXXXXXXX.XXXXXXXXXXXXXXXXXXXXXXXXXXXXXXXXXXoX",
"XXXXXXXXXXXXXXXXXXXXXXXXXXXXXXXXXXXXXXXXXoX .  .XXXXXXXXXXXXXXXXXXXXXXXXXXXXXXXXXXXXXXXXXXXXXXXXXXXXXXXXXoX .  .XXXXXXXXXXXXXXXXXXXXXXXXXXXXXXXXXXXXXXXXXXXXXXXXXXXXXXXXXoX .  .XXXXXXXXXXXXXXXXXXXXXXXXXXXXXXXXXXXXXXXXXXXXXXXXXXXXXXXXXoX .  .XXXXXXXXXXXXXXXXXXXXXXXXXXXXXXXXXXXXXXXXXXXXXXXXXXXXXXXXXoX .  .XXXXXXXXXXXXXXXXXXXXXXXXXXXXXXXXXXXXXXXXXXXXXXXXXXXXXXXXXoX .  .XXXXXXXXXXXXXXXXXXXXXXXXXXXXXXXXXXXXXXXXXXXXXXXXXXXXXXXXXoX .  .XXXXXXXXXXXXXXXXXXXXXXXXXXXXXXXXXXXXXXXXXXXXXXXXXXXXXXXXXoX",
"XXXXXXXXXXXXXXXXXXXXXXXXXXXXXXXXXXXXX.XXXoo .  XoXXXXXXXXXXXXXXXXXXXXXXXXXXXXXXXXXXXXXXXXXXXXXXXXXXXX.XXXoo .  XoXXXXXXXXXXXXXXXXXXXXXXXXXXXXXXXXXXXXXXXXXXXXXXXXXXXX.XXXoo .  XoXXXXXXXXXXXXXXXXXXXXXXXXXXXXXXXXXXXXXXXXXXXXXXXXXXXX.XXXoo .  XoXXXXXXXXXXXXXXXXXXXXXXXXXXXXXXXXXXXXXXXXXXXXXXXXXXXX.XXXoo .  XoXXXXXXXXXXXXXXXXXXXXXXXXXXXXXXXXXXXXXXXXXXXXXXXXXXXX.XXXoo .  XoXXXXXXXXXXXXXXXXXXXXXXXXXXXXXXXXXXXXXXXXXXXXXXXXXXXX.XXXoo .  XoXXXXXXXXXXXXXXXXXXXXXXXXXXXXXXXXXXXXXXXXXXXXXXXXXXXX.XXXoo",
"XXXXXXXXXXXXXXXXX.XXXXXXXXXXXXXXXXXXX..XXXo  . XoXXXXXXXXXXXXXXXXXXXXXXXXXXXXXXXX.XXXXXXXXXXXXXXXXXXX..XXXo  . XoXXXXXXXXXXXXXXXXXXXXXXXXXXXXXXXX.XXXXXXXXXXXXXXXXXXX..XXXo  . XoXXXXXXXXXXXXXXXXXXXXXXXXXXXXXXXX.XXXXXXXXXXXXXXXXXXX..XXXo  . XoXXXXXXXXXXXXXXXXXXXXXXXXXXXXXXXX.XXXXXXXXXXXXXXXXXXX..XXXo  . XoXXXXXXXXXXXXXXXXXXXXXXXXXXXXXXXX.XXXXXXXXXXXXXXXXXXX..XXXo  . XoXXXXXXXXXXXXXXXXXXXXXXXXXXXXXXXX.XXXXXXXXXXXXXXXXXXX..XXXo  . XoXXXXXXXXXXXXXXXXXXXXXXXXXXXXXXXX.XXXXXXXXXXXXXXXXXXX..XXXo",
"XXXXXXXXXXXXXXXXXoXXXXXXXXXXXXXXXXXXXX.XXoo    ooXXXXX.XXXXXXXXXXXXXXXXXXXXXXXXXXoXXXXXXXXXXXXXXXXXXXX.XXoo    ooXXXXX.XXXXXXXXXXXXXXXXXXXXXXXXXXoXXXXXXXXXXXXXXXXXXXX.XXoo    ooXXXXX.XXXXXXXXXXXXXXXXXXXXXXXXXXoXXXXXXXXXXXXXXXXXXXX.XXoo    ooXXXXX.XXXXXXXXXXXXXXXXXXXXXXXXXXoXXXXXXXXXXXXXXXXXXXX.XXoo    ooXXXXX.XXXXXXXXXXXXXXXXXXXXXXXXXXoXXXXXXXXXXXXXXXXXXXX.XXoo    ooXXXXX.XXXXXXXXXXXXXXXXXXXXXXXXXXoXXXXXXXXXXXXXXXXXXXX.XXoo    ooXXXXX.XXXXXXXXXXXXXXXXXXXXXXXXXXoXXXXXXXXXXXXXXXXXXXX.XXoo",
"XXXXX....XXXXXXXXXXXXXXXXXXXXXX  XXXXXXXXXo    oXXXXXX.XXXXXXXXXXXXXX....XXXXXXXXXXXXXXXXXXXXXX  XXXXXXXXXo    oXXXXXX.XXXXXXXXXXXXXX....XXXXXXXXXXXXXXXXXXXXXX  XXXXXXXXXo    oXXXXXX.XXXXXXXXXXXXXX....XXXXXXXXXXXXXXXXXXXXXX  XXXXXXXXXo    oXXXXXX.XXXXXXXXXXXXXX....XXXXXXXXXXXXXXXXXXXXXX  XXXXXXXXXo    oXXXXXX.XXXXXXXXXXXXXX....XXXXXXXXXXXXXXXXXXXXXX  XXXXXXXXXo    oXXXXXX.XXXXXXXXXXXXXX....XXXXXXXXXXXXXXXXXXXXXX  XXXXXXXXXo    oXXXXXX.XXXXXXXXXXXXXX....XXXXXXXXXXXXXXXXXXXXXX  XXXXXXXXXo",
"XXXXXX.  .XXXXXXXXXXXXXXXXXXXX. .XXXXXXXXXX .  oXXXXXXXXXXXXXXXXXXXXXX.  .XXXXXXXXXXXXXXXXXXXX. .XXXXXXXXXX .  oXXXXXXXXXXXXXXXXXXXXXX.  .XXXXXXXXXXXXXXXXXXXX. .XXXXXXXXXX .  oXXXXXXXXXXXXXXXXXXXXXX.  .XXXXXXXXXXXXXXXXXXXX. .XXXXXXXXXX .  oXXXXXXXXXXXXXXXXXXXXXX.  .XXXXXXXXXXXXXXXXXXXX. .XXXXXXXXXX .  oXXXXXXXXXXXXXXXXXXXXXX.  .XXXXXXXXXXXXXXXXXXXX. .XXXXXXXXXX .  oXXXXXXXXXXXXXXXXXXXXXX.  .XXXXXXXXXXXXXXXXXXXX. .XXXXXXXXXX .  oXXXXXXXXXXXXXXXXXXXXXX.  .XXXXXXXXXXXXXXXXXXXX. .XXXXXXXXXX",
"XXXX.X.oo..XXXXXXXXXXXXXXXXXX. XXXXXXXXXXXo .  ooXXXXXXXXXXXXXXXXXXX.X.oo..XXXXXXXXXXXXXXXXXX. XXXXXXXXXXXo .  ooXXXXXXXXXXXXXXXXXXX.X.oo..XXXXXXXXXXXXXXXXXX. XXXXXXXXXXXo .  ooXXXXXXXXXXXXXXXXXXX.X.oo..XXXXXXXXXXXXXXXXXX. XXXXXXXXXXXo .  ooXXXXXXXXXXXXXXXXXXX.X.oo..XXXXXXXXXXXXXXXXXX. XXXXXXXXXXXo .  ooXXXXXXXXXXXXXXXXXXX.X.oo..XXXXXXXXXXXXXXXXXX. XXXXXXXXXXXo .  ooXXXXXXXXXXXXXXXXXXX.X.oo..XXXXXXXXXXXXXXXXXX. XXXXXXXXXXXo .  ooXXXXXXXXXXXXXXXXXXX.X.oo..XXXXXXXXXXXXXXXXXX. XXXXXXXXXXXo",
"XXXXoXX.XX.XXXXXXXXXXX  XXXXXooXXXXXXXXXXoo .  XoXXXXXXXXXXXXXXXXXXXoXX.XX.XXXXXXXXXXX  XXXXXooXXXXXXXXXXoo .  XoXXXXXXXXXXXXXXXXXXXoXX.XX.XXXXXXXXXXX  XXXXXooXXXXXXXXXXoo .  XoXXXXXXXXXXXXXXXXXXXoXX.XX.XXXXXXXXXXX  XXXXXooXXXXXXXXXXoo .  XoXXXXXXXXXXXXXXXXXXXoXX.XX.XXXXXXXXXXX  XXXXXooXXXXXXXXXXoo .  XoXXXXXXXXXXXXXXXXXXXoXX.XX.XXXXXXXXXXX  XXXXXooXXXXXXXXXXoo .  XoXXXXXXXXXXXXXXXXXXXoXX.XX.XXXXXXXXXXX  XXXXXooXXXXXXXXXXoo .  XoXXXXXXXXXXXXXXXXXXXoXX.XX.XXXXXXXXXXX  XXXXXooXXXXXXXXXXoo",
"XXXXXXXXXXXXXXXXXXXXX..XXXXXXXXXXX.XXXXXXoo .  ooXXXXXXXXXXXXXXXXXXXXXXXXXXXXXXXXXXXX..XXXXXXXXXXX.XXXXXXoo .  ooXXXXXXXXXXXXXXXXXXXXXXXXXXXXXXXXXXXX..XXXXXXXXXXX.XXXXXXoo .  ooXXXXXXXXXXXXXXXXXXXXXXXXXXXXXXXXXXXX..XXXXXXXXXXX.XXXXXXoo .  ooXXXXXXXXXXXXXXXXXXXXXXXXXXXXXXXXXXXX..XXXXXXXXXXX.XXXXXXoo .  ooXXXXXXXXXXXXXXXXXXXXXXXXXXXXXXXXXXXX..XXXXXXXXXXX.XXXXXXoo .  ooXXXXXXXXXXXXXXXXXXXXXXXXXXXXXXXXXXXX..XXXXXXXXXXX.XXXXXXoo .  ooXXXXXXXXXXXXXXXXXXXXXXXXXXXXXXXXXXXX..XXXXXXXXXXX.XXXXXXoo",
"XXXXXXXXXXXXXXXXXXXXXXXXXXXXXXXXXXX.XXXXXoo .  ooXXXXXXXXXXXXXXXXXXXXXXXXXXXXXXXXXXXXXXXXXXXXXXXXXX.XXXXXoo .  ooXXXXXXXXXXXXXXXXXXXXXXXXXXXXXXXXXXXXXXXXXXXXXXXXXX.XXXXXoo .  ooXXXXXXXXXXXXXXXXXXXXXXXXXXXXXXXXXXXXXXXXXXXXXXXXXX.XXXXXoo .  ooXXXXXXXXXXXXXXXXXXXXXXXXXXXXXXXXXXXXXXXXXXXXXXXXXX.XXXXXoo .  ooXXXXXXXXXXXXXXXXXXXXXXXXXXXXXXXXXXXXXXXXXXXXXXXXXX.XXXXXoo .  ooXXXXXXXXXXXXXXXXXXXXXXXXXXXXXXXXXXXXXXXXXXXXXXXXXX.XXXXXoo .  ooXXXXXXXXXXXXXXXXXXXXXXXXXXXXXXXXXXXXXXXXXXXXXXXXXX.XXXXXoo",
"XXXXXXXXXXXXX.XXXXXXXXXXXXXXXXXXXXXXXX.XXoo    ooXXXXXXXXXXXXXXXXXXXXXXXXXXXX.XXXXXXXXXXXXXXXXXXXXXXXX.XXoo    ooXXXXXXXXXXXXXXXXXXXXXXXXXXXX.XXXXXXXXXXXXXXXXXXXXXXXX.XXoo    ooXXXXXXXXXXXXXXXXXXXXXXXXXXXX.XXXXXXXXXXXXXXXXXXXXXXXX.XXoo    ooXXXXXXXXXXXXXXXXXXXXXXXXXXXX.XXXXXXXXXXXXXXXXXXXXXXXX.XXoo    ooXXXXXXXXXXXXXXXXXXXXXXXXXXXX.XXXXXXXXXXXXXXXXXXXXXXXX.XXoo    ooXXXXXXXXXXXXXXXXXXXXXXXXXXXX.XXXXXXXXXXXXXXXXXXXXXXXX.XXoo    ooXXXXXXXXXXXXXXXXXXXXXXXXXXXX.XXXXXXXXXXXXXXXXXXXXXXXX.XXoo",
"XXX...XXXXX.....XXX.XXX...X......X.......oo .  o..X..XX...X...XXXXX...XXXXX.....XXX.XXX...X......X.......oo .  o..X..XX...X...XXXXX...XXXXX.....XXX.XXX...X......X.......oo .  o..X..XX...X...XXXXX...XXXXX.....XXX.XXX...X......X.......oo .  o..X..XX...X...XXXXX...XXXXX.....XXX.XXX...X......X.......oo .  o..X..XX...X...XXXXX...XXXXX.....XXX.XXX...X......X.......oo .  o..X..XX...X...XXXXX...XXXXX.....XXX.XXX...X......X.......oo .  o..X..XX...X...XXXXX...XXXXX.....XXX.XXX...X......X.......oo",
"..................XX.......X..............o    ...................................XX.......X..............o    ...................................XX.......X..............o    ...................................XX.......X..............o    ...................................XX.......X..............o    ...................................XX.......X..............o    ...................................XX.......X..............o    ...................................XX.......X..............o",
"..   ..........   ..     ..... ..........        ........ ........   ..........   ..     ..... ..........        ........ ........   ..........   ..     ..... ..........        ........ ........   ..........   ..     ..... ..........        ........ ........   ..........   ..     ..... ..........        ........ ........   ..........   ..     ..... ..........        ........ ........   ..........   ..     ..... ..........        ........ ........   ..........   ..     ..... ..........  ",
"                                            .                                                               .                                                               .                                                               .                                                               .                                                               .                                                               .                                                              ",
"                                    .     ...       .                                               .     ...       .                                               .     ...       .                                               .     ...       .                                               .     ...       .                                               .     ...       .                                               .     ...       .                                               .     .",
" ..  ...... .   .     X.. .    ... .     ...X      .     ....    ..  ...... .   .     X.. .    ... .     ...X      .     ....    ..  ...... .   .     X.. .    ... .     ...X      .     ....    ..  ...... .   .     X.. .    ... .     ...X      .     ....    ..  ...... .   .     X.. .    ... .     ...X      .     ....    ..  ...... .   .     X.. .    ... .     ...X      .     ....    ..  ...... .   .     X.. .    ... .     ...X      .     ....    ..  ...... .   .     X.. .    ... .     ..",
"             XX           .          .....                                   XX           .          .....                                   XX           .          .....                                   XX           .          .....                                   XX           .          .....                                   XX           .          .....                                   XX           .          .....                                   XX           .          ..... ",
"ooooooooooo. .X  X.. .ooooooooo..   .oooooooooooo. .o.     .ooooooooooooooo. .X  X.. .ooooooooo..   .oooooooooooo. .o.     .ooooooooooooooo. .X  X.. .ooooooooo..   .oooooooooooo. .o.     .ooooooooooooooo. .X  X.. .ooooooooo..   .oooooooooooo. .o.     .ooooooooooooooo. .X  X.. .ooooooooo..   .oooooooooooo. .o.     .ooooooooooooooo. .X  X.. .ooooooooo..   .oooooooooooo. .o.     .ooooooooooooooo. .X  X.. .ooooooooo..   .oooooooooooo. .o.     .ooooooooooooooo. .X  X.. .ooooooooo..   .oooooo",
"oo.ooooooooo  .  .oooooooXoooooooooooooooooooooooooooooooooooooooo.ooooooooo  .  .oooooooXoooooooooooooooooooooooooooooooooooooooo.ooooooooo  .  .oooooooXoooooooooooooooooooooooooooooooooooooooo.ooooooooo  .  .oooooooXoooooooooooooooooooooooooooooooooooooooo.ooooooooo  .  .oooooooXoooooooooooooooooooooooooooooooooooooooo.ooooooooo  .  .oooooooXoooooooooooooooooooooooooooooooooooooooo.ooooooooo  .  .oooooooXoooooooooooooooooooooooooooooooooooooooo.ooooooooo  .  .oooooooXooooooooooooooooo",
"ooXXoooooooo  X  oooooooXXooXoooXXXXoooXXXXXXXooooXoooooooooooooooXXoooooooo  X  oooooooXXooXoooXXXXoooXXXXXXXooooXoooooooooooooooXXoooooooo  X  oooooooXXooXoooXXXXoooXXXXXXXooooXoooooooooooooooXXoooooooo  X  oooooooXXooXoooXXXXoooXXXXXXXooooXoooooooooooooooXXoooooooo  X  oooooooXXooXoooXXXXoooXXXXXXXooooXoooooooooooooooXXoooooooo  X  oooooooXXooXoooXXXXoooXXXXXXXooooXoooooooooooooooXXoooooooo  X  oooooooXXooXoooXXXXoooXXXXXXXooooXoooooooooooooooXXoooooooo  X  oooooooXXooXoooXXXXoooXXXX",
".XXXXXXXXXXo. .  oXXXXXXXXXXXXXXXXXXXXXXXXXXXXXXXXXXXXXXXXXXXXX..XXXXXXXXXXo. .  oXXXXXXXXXXXXXXXXXXXXXXXXXXXXXXXXXXXXXXXXXXXXX..XXXXXXXXXXo. .  oXXXXXXXXXXXXXXXXXXXXXXXXXXXXXXXXXXXXXXXXXXXXX..XXXXXXXXXXo. .  oXXXXXXXXXXXXXXXXXXXXXXXXXXXXXXXXXXXXXXXXXXXXX..XXXXXXXXXXo. .  oXXXXXXXXXXXXXXXXXXXXXXXXXXXXXXXXXXXXXXXXXXXXX..XXXXXXXXXXo. .  oXXXXXXXXXXXXXXXXXXXXXXXXXXXXXXXXXXXXXXXXXXXXX..XXXXXXXXXXo. .  oXXXXXXXXXXXXXXXXXXXXXXXXXXXXXXXXXXXXXXXXXXXXX..XXXXXXXXXXo. .  oXXXXXXXXXXXXXXXXXXXXXXXXX",
"XXXXXXXXXXXoo    oXXXX XXXXXXXXXXXXXXXXXXXXXXXXXXXXXXXXXXXXXXXXXXXXXXXXXXXXoo    oXXXX XXXXXXXXXXXXXXXXXXXXXXXXXXXXXXXXXXXXXXXXXXXXXXXXXXXXoo    oXXXX XXXXXXXXXXXXXXXXXXXXXXXXXXXXXXXXXXXXXXXXXXXXXXXXXXXXoo    oXXXX XXXXXXXXXXXXXXXXXXXXXXXXXXXXXXXXXXXXXXXXXXXXXXXXXXXXoo    oXXXX XXXXXXXXXXXXXXXXXXXXXXXXXXXXXXXXXXXXXXXXXXXXXXXXXXXXoo    oXXXX XXXXXXXXXXXXXXXXXXXXXXXXXXXXXXXXXXXXXXXXXXXXXXXXXXXXoo    oXXXX XXXXXXXXXXXXXXXXXXXXXXXXXXXXXXXXXXXXXXXXXXXXXXXXXXXXoo    oXXXX XXXXXXXXXXXXXXXXXXXX",
"XXXXXXXXXXXXo .  oXXXX.XXXXXXXXX.X.XXXXXXXXXXXXXXXXXXXXXXXXXXXXXXXXXXXXXXXXXo .  oXXXX.XXXXXXXXX.X.XXXXXXXXXXXXXXXXXXXXXXXXXXXXXXXXXXXXXXXXXo .  oXXXX.XXXXXXXXX.X.XXXXXXXXXXXXXXXXXXXXXXXXXXXXXXXXXXXXXXXXXo .  oXXXX.XXXXXXXXX.X.XXXXXXXXXXXXXXXXXXXXXXXXXXXXXXXXXXXXXXXXXo .  oXXXX.XXXXXXXXX.X.XXXXXXXXXXXXXXXXXXXXXXXXXXXXXXXXXXXXXXXXXo .  oXXXX.XXXXXXXXX.X.XXXXXXXXXXXXXXXXXXXXXXXXXXXXXXXXXXXXXXXXXo .  oXXXX.XXXXXXXXX.X.XXXXXXXXXXXXXXXXXXXXXXXXXXXXXXXXXXXXXXXXXo .  oXXXX.XXXXXXXXX.X.XXXXXXXX",
"XXXXXX XXXXXo .  oXXXXXXXXXXXXX..oXXXXXXXXXXXXXX.XXXXXXXXX.XXXXXXXXXXX XXXXXo .  oXXXXXXXXXXXXX..oXXXXXXXXXXXXXX.XXXXXXXXX.XXXXXXXXXXX XXXXXo .  oXXXXXXXXXXXXX..oXXXXXXXXXXXXXX.XXXXXXXXX.XXXXXXXXXXX XXXXXo .  oXXXXXXXXXXXXX..oXXXXXXXXXXXXXX.XXXXXXXXX.XXXXXXXXXXX XXXXXo .  oXXXXXXXXXXXXX..oXXXXXXXXXXXXXX.XXXXXXXXX.XXXXXXXXXXX XXXXXo .  oXXXXXXXXXXXXX..oXXXXXXXXXXXXXX.XXXXXXXXX.XXXXXXXXXXX XXXXXo .  oXXXXXXXXXXXXX..oXXXXXXXXXXXXXX.XXXXXXXXX.XXXXXXXXXXX XXXXXo .  oXXXXXXXXXXXXX..oXXXXXXXXX",
"XXXXXX.XXXXoo    ooXXXXXXXXXX.. .XXXXXXXXXXXXXXX.XXXXXXXX.XXXXXXXXXXXX.XXXXoo    ooXXXXXXXXXX.. .XXXXXXXXXXXXXXX.XXXXXXXX.XXXXXXXXXXXX.XXXXoo    ooXXXXXXXXXX.. .XXXXXXXXXXXXXXX.XXXXXXXX.XXXXXXXXXXXX.XXXXoo    ooXXXXXXXXXX.. .XXXXXXXXXXXXXXX.XXXXXXXX.XXXXXXXXXXXX.XXXXoo    ooXXXXXXXXXX.. .XXXXXXXXXXXXXXX.XXXXXXXX.XXXXXXXXXXXX.XXXXoo    ooXXXXXXXXXX.. .XXXXXXXXXXXXXXX.XXXXXXXX.XXXXXXXXXXXX.XXXXoo    ooXXXXXXXXXX.. .XXXXXXXXXXXXXXX.XXXXXXXX.XXXXXXXXXXXX.XXXXoo    ooXXXXXXXXXX.. .XXXXXXXXXX",
"XXXXXXXXXXXoo    ooXXXXXXXX.   .oXXXX XXXXXXXXXXoXXXXXXXX.oXXXXXXXXXXXXXXXXoo    ooXXXXXXXX.   .oXXXX XXXXXXXXXXoXXXXXXXX.oXXXXXXXXXXXXXXXXoo    ooXXXXXXXX.   .oXXXX XXXXXXXXXXoXXXXXXXX.oXXXXXXXXXXXXXXXXoo    ooXXXXXXXX.   .oXXXX XXXXXXXXXXoXXXXXXXX.oXXXXXXXXXXXXXXXXoo    ooXXXXXXXX.   .oXXXX XXXXXXXXXXoXXXXXXXX.oXXXXXXXXXXXXXXXXoo    ooXXXXXXXX.   .oXXXX XXXXXXXXXXoXXXXXXXX.oXXXXXXXXXXXXXXXXoo    ooXXXXXXXX.   .oXXXX XXXXXXXXXXoXXXXXXXX.oXXXXXXXXXXXXXXXXoo    ooXXXXXXXX.   .oXXXX XXXXX",
"XXXXXXXXXXXXo    XoXXXXXXX.oooo.XXXXX.XXXXXXXXXXXXXXXXXXXXoXXXXXXXXXXXXXXXXXo    XoXXXXXXX.oooo.XXXXX.XXXXXXXXXXXXXXXXXXXXoXXXXXXXXXXXXXXXXXo    XoXXXXXXX.oooo.XXXXX.XXXXXXXXXXXXXXXXXXXXoXXXXXXXXXXXXXXXXXo    XoXXXXXXX.oooo.XXXXX.XXXXXXXXXXXXXXXXXXXXoXXXXXXXXXXXXXXXXXo    XoXXXXXXX.oooo.XXXXX.XXXXXXXXXXXXXXXXXXXXoXXXXXXXXXXXXXXXXXo    XoXXXXXXX.oooo.XXXXX.XXXXXXXXXXXXXXXXXXXXoXXXXXXXXXXXXXXXXXo    XoXXXXXXX.oooo.XXXXX.XXXXXXXXXXXXXXXXXXXXoXXXXXXXXXXXXXXXXXo    XoXXXXXXX.oooo.XXXXX.XXXXX",
"XXXXXXXXXXXXo    XoXXXXXXXXXXXXXXXXXXXXXXXXXXXXXXXXXXXXXXoXXXXXXXXXXXXXXXXXXo    XoXXXXXXXXXXXXXXXXXXXXXXXXXXXXXXXXXXXXXXoXXXXXXXXXXXXXXXXXXo    XoXXXXXXXXXXXXXXXXXXXXXXXXXXXXXXXXXXXXXXoXXXXXXXXXXXXXXXXXXo    XoXXXXXXXXXXXXXXXXXXXXXXXXXXXXXXXXXXXXXXoXXXXXXXXXXXXXXXXXXo    XoXXXXXXXXXXXXXXXXXXXXXXXXXXXXXXXXXXXXXXoXXXXXXXXXXXXXXXXXXo    XoXXXXXXXXXXXXXXXXXXXXXXXXXXXXXXXXXXXXXXoXXXXXXXXXXXXXXXXXXo    XoXXXXXXXXXXXXXXXXXXXXXXXXXXXXXXXXXXXXXXoXXXXXXXXXXXXXXXXXXo    XoXXXXXXXXXXXXXXXXXXXXXXXX",
"XXXXXXXXXXXoo  . ooXXXXXXXXXXXXXXXXXXXXXXXXXXXXXXXXXXXXXXXXXXXXXXXXXXXXXXXXoo  . ooXXXXXXXXXXXXXXXXXXXXXXXXXXXXXXXXXXXXXXXXXXXXXXXXXXXXXXXXoo  . ooXXXXXXXXXXXXXXXXXXXXXXXXXXXXXXXXXXXXXXXXXXXXXXXXXXXXXXXXoo  . ooXXXXXXXXXXXXXXXXXXXXXXXXXXXXXXXXXXXXXXXXXXXXXXXXXXXXXXXXoo  . ooXXXXXXXXXXXXXXXXXXXXXXXXXXXXXXXXXXXXXXXXXXXXXXXXXXXXXXXXoo  . ooXXXXXXXXXXXXXXXXXXXXXXXXXXXXXXXXXXXXXXXXXXXXXXXXXXXXXXXXoo  . ooXXXXXXXXXXXXXXXXXXXXXXXXXXXXXXXXXXXXXXXXXXXXXXXXXXXXXXXXoo  . ooXXXXXXXXXXXXXXXXXXXXXXXX",
"XXXXXXXXXXXoo    ooXX.XXXXXXXXXXXXXXXXXXXX..XXXXXXXXXXXXXXXXXXXXXXXXXXXXXXXoo    ooXX.XXXXXXXXXXXXXXXXXXXX..XXXXXXXXXXXXXXXXXXXXXXXXXXXXXXXoo    ooXX.XXXXXXXXXXXXXXXXXXXX..XXXXXXXXXXXXXXXXXXXXXXXXXXXXXXXoo    ooXX.XXXXXXXXXXXXXXXXXXXX..XXXXXXXXXXXXXXXXXXXXXXXXXXXXXXXoo    ooXX.XXXXXXXXXXXXXXXXXXXX..XXXXXXXXXXXXXXXXXXXXXXXXXXXXXXXoo    ooXX.XXXXXXXXXXXXXXXXXXXX..XXXXXXXXXXXXXXXXXXXXXXXXXXXXXXXoo    ooXX.XXXXXXXXXXXXXXXXXXXX..XXXXXXXXXXXXXXXXXXXXXXXXXXXXXXXoo    ooXX.XXXXXXXXXXXXXXXXXXXX.",
"XXXX..XXXXXoo    ooXXX.XXXXXXXXXXXXXXXXXXXXXXXXXXXXXXXXXXXXXXXXXXXXX..XXXXXoo    ooXXX.XXXXXXXXXXXXXXXXXXXXXXXXXXXXXXXXXXXXXXXXXXXXX..XXXXXoo    ooXXX.XXXXXXXXXXXXXXXXXXXXXXXXXXXXXXXXXXXXXXXXXXXXX..XXXXXoo    ooXXX.XXXXXXXXXXXXXXXXXXXXXXXXXXXXXXXXXXXXXXXXXXXXX..XXXXXoo    ooXXX.XXXXXXXXXXXXXXXXXXXXXXXXXXXXXXXXXXXXXXXXXXXXX..XXXXXoo    ooXXX.XXXXXXXXXXXXXXXXXXXXXXXXXXXXXXXXXXXXXXXXXXXXX..XXXXXoo    ooXXX.XXXXXXXXXXXXXXXXXXXXXXXXXXXXXXXXXXXXXXXXXXXXX..XXXXXoo    ooXXX.XXXXXXXXXXXXXXXXXXXX",
"XXXXXX....oo. .  o.......XXXXX.......XXXXXXXXXXXX....XXX..XXX.XXXXXXXX....oo. .  o.......XXXXX.......XXXXXXXXXXXX....XXX..XXX.XXXXXXXX....oo. .  o.......XXXXX.......XXXXXXXXXXXX....XXX..XXX.XXXXXXXX....oo. .  o.......XXXXX.......XXXXXXXXXXXX....XXX..XXX.XXXXXXXX....oo. .  o.......XXXXX.......XXXXXXXXXXXX....XXX..XXX.XXXXXXXX....oo. .  o.......XXXXX.......XXXXXXXXXXXX....XXX..XXX.XXXXXXXX....oo. .  o.......XXXXX.......XXXXXXXXXXXX....XXX..XXX.XXXXXXXX....oo. .  o.......XXXXX.......XXXXXX",
".X.........o  .   ......X................XX......................X.........o  .   ......X................XX......................X.........o  .   ......X................XX......................X.........o  .   ......X................XX......................X.........o  .   ......X................XX......................X.........o  .   ......X................XX......................X.........o  .   ......X................XX......................X.........o  .   ......X................XX",
".........         ..  .... ....  . .............   . ....................         ..  .... ....  . .............   . ....................         ..  .... ....  . .............   . ....................         ..  .... ....  . .............   . ....................         ..  .... ....  . .............   . ....................         ..  .... ....  . .............   . ....................         ..  .... ....  . .............   . ....................         ..  .... ....  . ........",
"            .                                                               .                                                               .                                                               .                                                               .                                                               .                                                               .                                                               .                              ",
"           ...                                                             ...                                                             ...                                                             ...                                                             ...                                                             ...                                                             ...                                                             ...                             ",
"   ...    ...... .......X .X   ..  ...  .....           ..         ...    ...... .......X .X   ..  ...  .....           ..         ...    ...... .......X .X   ..  ...  .....           ..         ...    ...... .......X .X   ..  ...  .....           ..         ...    ...... .......X .X   ..  ...  .....           ..         ...    ...... .......X .X   ..  ...  .....           ..         ...    ...... .......X .X   ..  ...  .....           ..         ...    ...... .......X .X   ..  ...  ...",
"     ....    ..    .       ..       ...                              ....    ..    .       ..       ...                              ....    ..    .       ..       ...                              ....    ..    .       ..       ...                              ....    ..    .       ..       ...                              ....    ..    .       ..       ...                              ....    ..    .       ..       ...                              ....    ..    .       ..       ...    ",
"oooooooooooooooooooooooo.  X.  .Xooooooooooo. .oooo..        .oooooooooooooooooooooooooo.  X.  .Xooooooooooo. .oooo..        .oooooooooooooooooooooooooo.  X.  .Xooooooooooo. .oooo..        .oooooooooooooooooooooooooo.  X.  .Xooooooooooo. .oooo..        .oooooooooooooooooooooooooo.  X.  .Xooooooooooo. .oooo..        .oooooooooooooooooooooooooo.  X.  .Xooooooooooo. .oooo..        .oooooooooooooooooooooooooo.  X.  .Xooooooooooo. .oooo..        .oooooooooooooooooooooooooo.  X.  .Xoooooooooo",
"ooooooo.  ooXoXooXooooooo.  . .XoooooXoooXooo.ooooooo. .ooooooooooooooo.  ooXoXooXooooooo.  . .XoooooXoooXooo.ooooooo. .ooooooooooooooo.  ooXoXooXooooooo.  . .XoooooXoooXooo.ooooooo. .ooooooooooooooo.  ooXoXooXooooooo.  . .XoooooXoooXooo.ooooooo. .ooooooooooooooo.  ooXoXooXooooooo.  . .XoooooXoooXooo.ooooooo. .ooooooooooooooo.  ooXoXooXooooooo.  . .XoooooXoooXooo.ooooooo. .ooooooooooooooo.  ooXoXooXooooooo.  . .XoooooXoooXooo.ooooooo. .ooooooooooooooo.  ooXoXooXooooooo.  . .XoooooXoooXo",
"oooXXXXo   XXXXXXXXXoXoooo X  XoXooXXXXXXXXXXXXooXXXoooooXXoXooooooXXXXo   XXXXXXXXXoXoooo X  XoXooXXXXXXXXXXXXooXXXoooooXXoXooooooXXXXo   XXXXXXXXXoXoooo X  XoXooXXXXXXXXXXXXooXXXoooooXXoXooooooXXXXo   XXXXXXXXXoXoooo X  XoXooXXXXXXXXXXXXooXXXoooooXXoXooooooXXXXo   XXXXXXXXXoXoooo X  XoXooXXXXXXXXXXXXooXXXoooooXXoXooooooXXXXo   XXXXXXXXXoXoooo X  XoXooXXXXXXXXXXXXooXXXoooooXXoXooooooXXXXo   XXXXXXXXXoXoooo X  XoXooXXXXXXXXXXXXooXXXoooooXXoXooooooXXXXo   XXXXXXXXXoXoooo X  XoXooXXXXXXXX",
"XXXoXXXXo.  XXXXXXXXXXXXoX X  XoXXXXXXXXXXXXXXXXXXXXXXXXXXXXXXXXXXXoXXXXo.  XXXXXXXXXXXXoX X  XoXXXXXXXXXXXXXXXXXXXXXXXXXXXXXXXXXXXoXXXXo.  XXXXXXXXXXXXoX X  XoXXXXXXXXXXXXXXXXXXXXXXXXXXXXXXXXXXXoXXXXo.  XXXXXXXXXXXXoX X  XoXXXXXXXXXXXXXXXXXXXXXXXXXXXXXXXXXXXoXXXXo.  XXXXXXXXXXXXoX X  XoXXXXXXXXXXXXXXXXXXXXXXXXXXXXXXXXXXXoXXXXo.  XXXXXXXXXXXXoX X  XoXXXXXXXXXXXXXXXXXXXXXXXXXXXXXXXXXXXoXXXXo.  XXXXXXXXXXXXoX X  XoXXXXXXXXXXXXXXXXXXXXXXXXXXXXXXXXXXXoXXXXo.  XXXXXXXXXXXXoX X  XoXXXXXXXXXXX",
"XXXXXXXXXo. .XXXXXXXXXXXXo    oXXXXXXXXXXXXXXXXXXXXXXXXXXXXXXXXXXXXXXXXXXo. .XXXXXXXXXXXXo    oXXXXXXXXXXXXXXXXXXXXXXXXXXXXXXXXXXXXXXXXXXo. .XXXXXXXXXXXXo    oXXXXXXXXXXXXXXXXXXXXXXXXXXXXXXXXXXXXXXXXXXo. .XXXXXXXXXXXXo    oXXXXXXXXXXXXXXXXXXXXXXXXXXXXXXXXXXXXXXXXXXo. .XXXXXXXXXXXXo    oXXXXXXXXXXXXXXXXXXXXXXXXXXXXXXXXXXXXXXXXXXo. .XXXXXXXXXXXXo    oXXXXXXXXXXXXXXXXXXXXXXXXXXXXXXXXXXXXXXXXXXo. .XXXXXXXXXXXXo    oXXXXXXXXXXXXXXXXXXXXXXXXXXXXXXXXXXXXXXXXXXo. .XXXXXXXXXXXXo    oXXXXXXXXXXXX",
"XXXXXXXXXXo.. XXXXXXXXXXXo .  oXXXXXXXXXXXXXXXX  XXXXXXXXXXXXXXXXXXXXXXXXXo.. XXXXXXXXXXXo .  oXXXXXXXXXXXXXXXX  XXXXXXXXXXXXXXXXXXXXXXXXXo.. XXXXXXXXXXXo .  oXXXXXXXXXXXXXXXX  XXXXXXXXXXXXXXXXXXXXXXXXXo.. XXXXXXXXXXXo .  oXXXXXXXXXXXXXXXX  XXXXXXXXXXXXXXXXXXXXXXXXXo.. XXXXXXXXXXXo .  oXXXXXXXXXXXXXXXX  XXXXXXXXXXXXXXXXXXXXXXXXXo.. XXXXXXXXXXXo .  oXXXXXXXXXXXXXXXX  XXXXXXXXXXXXXXXXXXXXXXXXXo.. XXXXXXXXXXXo .  oXXXXXXXXXXXXXXXX  XXXXXXXXXXXXXXXXXXXXXXXXXo.. XXXXXXXXXXXo .  oXXXXXXXXXXXX",
"XXXXXXXXXXXo..XXXXXXXXXXoo .  oXXXXXXXXXXXXXXXX..   XXXXXXXXXXXXXXXXXXXXXXXo..XXXXXXXXXXoo .  oXXXXXXXXXXXXXXXX..   XXXXXXXXXXXXXXXXXXXXXXXo..XXXXXXXXXXoo .  oXXXXXXXXXXXXXXXX..   XXXXXXXXXXXXXXXXXXXXXXXo..XXXXXXXXXXoo .  oXXXXXXXXXXXXXXXX..   XXXXXXXXXXXXXXXXXXXXXXXo..XXXXXXXXXXoo .  oXXXXXXXXXXXXXXXX..   XXXXXXXXXXXXXXXXXXXXXXXo..XXXXXXXXXXoo .  oXXXXXXXXXXXXXXXX..   XXXXXXXXXXXXXXXXXXXXXXXo..XXXXXXXXXXoo .  oXXXXXXXXXXXXXXXX..   XXXXXXXXXXXXXXXXXXXXXXXo..XXXXXXXXXXoo .  oXXXXXXXXXXXX",
"..XXXXXXXXXXX..XXXXXXXXXoo .  ooXXXXXXXXXXXXXXXXo....XXXXXXXXXXX..XXXXXXXXXXX..XXXXXXXXXoo .  ooXXXXXXXXXXXXXXXXo....XXXXXXXXXXX..XXXXXXXXXXX..XXXXXXXXXoo .  ooXXXXXXXXXXXXXXXXo....XXXXXXXXXXX..XXXXXXXXXXX..XXXXXXXXXoo .  ooXXXXXXXXXXXXXXXXo....XXXXXXXXXXX..XXXXXXXXXXX..XXXXXXXXXoo .  ooXXXXXXXXXXXXXXXXo....XXXXXXXXXXX..XXXXXXXXXXX..XXXXXXXXXoo .  ooXXXXXXXXXXXXXXXXo....XXXXXXXXXXX..XXXXXXXXXXX..XXXXXXXXXoo .  ooXXXXXXXXXXXXXXXXo....XXXXXXXXXXX..XXXXXXXXXXX..XXXXXXXXXoo .  ooXXXXXXXXXXX",
"XXXXXXXXXXXXXo..XXXXXXXXXo    ooXXXXXXX...XXXXXXXXXXXXXXXXXXXXXXXXXXXXXXXXXXXo..XXXXXXXXXo    ooXXXXXXX...XXXXXXXXXXXXXXXXXXXXXXXXXXXXXXXXXXXo..XXXXXXXXXo    ooXXXXXXX...XXXXXXXXXXXXXXXXXXXXXXXXXXXXXXXXXXXo..XXXXXXXXXo    ooXXXXXXX...XXXXXXXXXXXXXXXXXXXXXXXXXXXXXXXXXXXo..XXXXXXXXXo    ooXXXXXXX...XXXXXXXXXXXXXXXXXXXXXXXXXXXXXXXXXXXo..XXXXXXXXXo    ooXXXXXXX...XXXXXXXXXXXXXXXXXXXXXXXXXXXXXXXXXXXo..XXXXXXXXXo    ooXXXXXXX...XXXXXXXXXXXXXXXXXXXXXXXXXXXXXXXXXXXo..XXXXXXXXXo    ooXXXXXXX...X",
"XXXXXXXXXXXXXXX.XXXXXXXXoo X  XoXXXXXXXo...XXXXXXXXXXXXXXXXXXXXXXXXXXXXXXXXXXXX.XXXXXXXXoo X  XoXXXXXXXo...XXXXXXXXXXXXXXXXXXXXXXXXXXXXXXXXXXXX.XXXXXXXXoo X  XoXXXXXXXo...XXXXXXXXXXXXXXXXXXXXXXXXXXXXXXXXXXXX.XXXXXXXXoo X  XoXXXXXXXo...XXXXXXXXXXXXXXXXXXXXXXXXXXXXXXXXXXXX.XXXXXXXXoo X  XoXXXXXXXo...XXXXXXXXXXXXXXXXXXXXXXXXXXXXXXXXXXXX.XXXXXXXXoo X  XoXXXXXXXo...XXXXXXXXXXXXXXXXXXXXXXXXXXXXXXXXXXXX.XXXXXXXXoo X  XoXXXXXXXo...XXXXXXXXXXXXXXXXXXXXXXXXXXXXXXXXXXXX.XXXXXXXXoo X  XoXXXXXXXo...",
"XXXXXXXXXXXXXo..XXXXXXXXXo .  ooXXXXXXXXooo.XXXXXXXXXXXX.XXXXXXXXXXXXXXXXXXXXo..XXXXXXXXXo .  ooXXXXXXXXooo.XXXXXXXXXXXX.XXXXXXXXXXXXXXXXXXXXo..XXXXXXXXXo .  ooXXXXXXXXooo.XXXXXXXXXXXX.XXXXXXXXXXXXXXXXXXXXo..XXXXXXXXXo .  ooXXXXXXXXooo.XXXXXXXXXXXX.XXXXXXXXXXXXXXXXXXXXo..XXXXXXXXXo .  ooXXXXXXXXooo.XXXXXXXXXXXX.XXXXXXXXXXXXXXXXXXXXo..XXXXXXXXXo .  ooXXXXXXXXooo.XXXXXXXXXXXX.XXXXXXXXXXXXXXXXXXXXo..XXXXXXXXXo .  ooXXXXXXXXooo.XXXXXXXXXXXX.XXXXXXXXXXXXXXXXXXXXo..XXXXXXXXXo .  ooXXXXXXXXooo",
"XXXXXXXXXXXXXXXoXXXXXXXXXo .  oXXXXXXXXXXXXXXXXXX. XXXXXX.XXXXXXXXXXXXXXXXXXXXXoXXXXXXXXXo .  oXXXXXXXXXXXXXXXXXX. XXXXXX.XXXXXXXXXXXXXXXXXXXXXoXXXXXXXXXo .  oXXXXXXXXXXXXXXXXXX. XXXXXX.XXXXXXXXXXXXXXXXXXXXXoXXXXXXXXXo .  oXXXXXXXXXXXXXXXXXX. XXXXXX.XXXXXXXXXXXXXXXXXXXXXoXXXXXXXXXo .  oXXXXXXXXXXXXXXXXXX. XXXXXX.XXXXXXXXXXXXXXXXXXXXXoXXXXXXXXXo .  oXXXXXXXXXXXXXXXXXX. XXXXXX.XXXXXXXXXXXXXXXXXXXXXoXXXXXXXXXo .  oXXXXXXXXXXXXXXXXXX. XXXXXX.XXXXXXXXXXXXXXXXXXXXXoXXXXXXXXXo .  oXXXXXXXXXXXX",
"XXXXXXXXXXXXXXXXXXXXXXXXoo .  ooXXXXXXXXXXXXXXXXXXXXXXXXXXXXXXXXXXXXXXXXXXXXXXXXXXXXXXXXoo .  ooXXXXXXXXXXXXXXXXXXXXXXXXXXXXXXXXXXXXXXXXXXXXXXXXXXXXXXXXoo .  ooXXXXXXXXXXXXXXXXXXXXXXXXXXXXXXXXXXXXXXXXXXXXXXXXXXXXXXXXoo .  ooXXXXXXXXXXXXXXXXXXXXXXXXXXXXXXXXXXXXXXXXXXXXXXXXXXXXXXXXoo .  ooXXXXXXXXXXXXXXXXXXXXXXXXXXXXXXXXXXXXXXXXXXXXXXXXXXXXXXXXoo .  ooXXXXXXXXXXXXXXXXXXXXXXXXXXXXXXXXXXXXXXXXXXXXXXXXXXXXXXXXoo .  ooXXXXXXXXXXXXXXXXXXXXXXXXXXXXXXXXXXXXXXXXXXXXXXXXXXXXXXXXoo .  ooXXXXXXXXXXX",
"XXXXXXXXXXXXXXXXXXXX..XXoo    ooXX.XXXXXXXXXXXXXXXXXXXXXXXXXXXXXXXXXXXXXXXXXXXXXXXXX..XXoo    ooXX.XXXXXXXXXXXXXXXXXXXXXXXXXXXXXXXXXXXXXXXXXXXXXXXXX..XXoo    ooXX.XXXXXXXXXXXXXXXXXXXXXXXXXXXXXXXXXXXXXXXXXXXXXXXXX..XXoo    ooXX.XXXXXXXXXXXXXXXXXXXXXXXXXXXXXXXXXXXXXXXXXXXXXXXXX..XXoo    ooXX.XXXXXXXXXXXXXXXXXXXXXXXXXXXXXXXXXXXXXXXXXXXXXXXXX..XXoo    ooXX.XXXXXXXXXXXXXXXXXXXXXXXXXXXXXXXXXXXXXXXXXXXXXXXXX..XXoo    ooXX.XXXXXXXXXXXXXXXXXXXXXXXXXXXXXXXXXXXXXXXXXXXXXXXXX..XXoo    ooXX.XXXXXXXX",
"XX..X...XXXXXXXXXX.......o    o....XXXXXXXXXXX....XXXXXX....XXXXXX..X...XXXXXXXXXX.......o    o....XXXXXXXXXXX....XXXXXX....XXXXXX..X...XXXXXXXXXX.......o    o....XXXXXXXXXXX....XXXXXX....XXXXXX..X...XXXXXXXXXX.......o    o....XXXXXXXXXXX....XXXXXX....XXXXXX..X...XXXXXXXXXX.......o    o....XXXXXXXXXXX....XXXXXX....XXXXXX..X...XXXXXXXXXX.......o    o....XXXXXXXXXXX....XXXXXX....XXXXXX..X...XXXXXXXXXX.......o    o....XXXXXXXXXXX....XXXXXX....XXXXXX..X...XXXXXXXXXX.......o    o....XXXXXXXX",
".........X......X........  .  ...............XXX....X....................X......X........  .  ...............XXX....X....................X......X........  .  ...............XXX....X....................X......X........  .  ...............XXX....X....................X......X........  .  ...............XXX....X....................X......X........  .  ...............XXX....X....................X......X........  .  ...............XXX....X....................X......X........  .  .............",
".... ...................  ..      .....  ...............        .... ...................  ..      .....  ...............        .... ...................  ..      .....  ...............        .... ...................  ..      .....  ...............        .... ...................  ..      .....  ...............        .... ...................  ..      .....  ...............        .... ...................  ..      .....  ...............        .... ...................  ..      .....  ..",
"                          .                                                               .                                                               .                                                               .                                                               .                                                               .                                                               .                                                               .                ",
"                        ....                                .                           ....                                .                           ....                                .                           ....                                .                           ....                                .                           ....                                .                           ....                                .                           ....               ",
"... ..        ....  ...  . ..           ...X  ....     ..  .    ... ..        ....  ...  . ..           ...X  ....     ..  .    ... ..        ....  ...  . ..           ...X  ....     ..  .    ... ..        ....  ...  . ..           ...X  ....     ..  .    ... ..        ....  ...  . ..           ...X  ....     ..  .    ... ..        ....  ...  . ..           ...X  ....     ..  .    ... ..        ....  ...  . ..           ...X  ....     ..  .    ... ..        ....  ...  . ..           ...",
"      . .                                  .X                         . .                                  .X                         . .                                  .X                         . .                                  .X                         . .                                  .X                         . .                                  .X                         . .                                  .X                         . .                                  ",
" .Xoooooooooo.oX..Xoo..ooooo. .ooooooXXX..  .   .XX.. .   .Xooo. .Xoooooooooo.oX..Xoo..ooooo. .ooooooXXX..  .   .XX.. .   .Xooo. .Xoooooooooo.oX..Xoo..ooooo. .ooooooXXX..  .   .XX.. .   .Xooo. .Xoooooooooo.oX..Xoo..ooooo. .ooooooXXX..  .   .XX.. .   .Xooo. .Xoooooooooo.oX..Xoo..ooooo. .ooooooXXX..  .   .XX.. .   .Xooo. .Xoooooooooo.oX..Xoo..ooooo. .ooooooXXX..  .   .XX.. .   .Xooo. .Xoooooooooo.oX..Xoo..ooooo. .ooooooXXX..  .   .XX.. .   .Xooo. .Xoooooooooo.oX..Xoo..ooooo. .ooooooXXX.. ",
"ooooooooXooooXooooooooooooooooooXooooooooo. .   ooooooooooooooooooooooooXooooXooooooooooooooooooXooooooooo. .   ooooooooooooooooooooooooXooooXooooooooooooooooooXooooooooo. .   ooooooooooooooooooooooooXooooXooooooooooooooooooXooooooooo. .   ooooooooooooooooooooooooXooooXooooooooooooooooooXooooooooo. .   ooooooooooooooooooooooooXooooXooooooooooooooooooXooooooooo. .   ooooooooooooooooooooooooXooooXooooooooooooooooooXooooooooo. .   ooooooooooooooooooooooooXooooXooooooooooooooooooXooooooooo.",
"oooXXXoXXXXXXXXXXXoooXXoooooXoooXXXXoooooo. .   ooooooXXoXoooXoooooXXXoXXXXXXXXXXXoooXXoooooXoooXXXXoooooo. .   ooooooXXoXoooXoooooXXXoXXXXXXXXXXXoooXXoooooXoooXXXXoooooo. .   ooooooXXoXoooXoooooXXXoXXXXXXXXXXXoooXXoooooXoooXXXXoooooo. .   ooooooXXoXoooXoooooXXXoXXXXXXXXXXXoooXXoooooXoooXXXXoooooo. .   ooooooXXoXoooXoooooXXXoXXXXXXXXXXXoooXXoooooXoooXXXXoooooo. .   ooooooXXoXoooXoooooXXXoXXXXXXXXXXXoooXXoooooXoooXXXXoooooo. .   ooooooXXoXoooXoooooXXXoXXXXXXXXXXXoooXXoooooXoooXXXXoooooo.",
"XXXXXX.XXXXXXXXXXXXXXXXXXXXXXXXXXXXXXXXXXoX .  .oXXXXXXXXXXXXXXXXXXXXX.XXXXXXXXXXXXXXXXXXXXXXXXXXXXXXXXXXoX .  .oXXXXXXXXXXXXXXXXXXXXX.XXXXXXXXXXXXXXXXXXXXXXXXXXXXXXXXXXoX .  .oXXXXXXXXXXXXXXXXXXXXX.XXXXXXXXXXXXXXXXXXXXXXXXXXXXXXXXXXoX .  .oXXXXXXXXXXXXXXXXXXXXX.XXXXXXXXXXXXXXXXXXXXXXXXXXXXXXXXXXoX .  .oXXXXXXXXXXXXXXXXXXXXX.XXXXXXXXXXXXXXXXXXXXXXXXXXXXXXXXXXoX .  .oXXXXXXXXXXXXXXXXXXXXX.XXXXXXXXXXXXXXXXXXXXXXXXXXXXXXXXXXoX .  .oXXXXXXXXXXXXXXXXXXXXX.XXXXXXXXXXXXXXXXXXXXXXXXXXXXXXXXXXoX",
"XXXXXXXXXXXXXXXXXXXXXXXXXXXXXXXXXXXXXXXXXoX .  .XXXXXXXXXXXXXXXXXXXXXXXXXXXXXXXXXXXXXXXXXXXXXXXXXXXXXXXXXoX .  .XXXXXXXXXXXXXXXXXXXXXXXXXXXXXXXXXXXXXXXXXXXXXXXXXXXXXXXXXoX .  .XXXXXXXXXXXXXXXXXXXXXXXXXXXXXXXXXXXXXXXXXXXXXXXXXXXXXXXXXoX .  .XXXXXXXXXXXXXXXXXXXXXXXXXXXXXXXXXXXXXXXXXXXXXXXXXXXXXXXXXoX .  .XXXXXXXXXXXXXXXXXXXXXXXXXXXXXXXXXXXXXXXXXXXXXXXXXXXXXXXXXoX .  .XXXXXXXXXXXXXXXXXXXXXXXXXXXXXXXXXXXXXXXXXXXXXXXXXXXXXXXXXoX .  .XXXXXXXXXXXXXXXXXXXXXXXXXXXXXXXXXXXXXXXXXXXXXXXXXXXXXXXXXoX",
"XXXXXXXXXXXXXXXXXXXXXXXXXXXXXXXXXXXXX.XXXoo .  XoXXXXXXXXXXXXXXXXXXXXXXXXXXXXXXXXXXXXXXXXXXXXXXXXXXXX.XXXoo .  XoXXXXXXXXXXXXXXXXXXXXXXXXXXXXXXXXXXXXXXXXXXXXXXXXXXXX.XXXoo .  XoXXXXXXXXXXXXXXXXXXXXXXXXXXXXXXXXXXXXXXXXXXXXXXXXXXXX.XXXoo .  XoXXXXXXXXXXXXXXXXXXXXXXXXXXXXXXXXXXXXXXXXXXXXXXXXXXXX.XXXoo .  XoXXXXXXXXXXXXXXXXXXXXXXXXXXXXXXXXXXXXXXXXXXXXXXXXXXXX.XXXoo .  XoXXXXXXXXXXXXXXXXXXXXXXXXXXXXXXXXXXXXXXXXXXXXXXXXXXXX.XXXoo .  XoXXXXXXXXXXXXXXXXXXXXXXXXXXXXXXXXXXXXXXXXXXXXXXXXXXXX.XXXoo",
"XXXXXXXXXXXXXXXXX.XXXXXXXXXXXXXXXXXXX..XXXo  . XoXXXXXXXXXXXXXXXXXXXXXXXXXXXXXXXX.XXXXXXXXXXXXXXXXXXX..XXXo  . XoXXXXXXXXXXXXXXXXXXXXXXXXXXXXXXXX.XXXXXXXXXXXXXXXXXXX..XXXo  . XoXXXXXXXXXXXXXXXXXXXXXXXXXXXXXXXX.XXXXXXXXXXXXXXXXXXX..XXXo  . XoXXXXXXXXXXXXXXXXXXXXXXXXXXXXXXXX.XXXXXXXXXXXXXXXXXXX..XXXo  . XoXXXXXXXXXXXXXXXXXXXXXXXXXXXXXXXX.XXXXXXXXXXXXXXXXXXX..XXXo  . XoXXXXXXXXXXXXXXXXXXXXXXXXXXXXXXXX.XXXXXXXXXXXXXXXXXXX..XXXo  . XoXXXXXXXXXXXXXXXXXXXXXXXXXXXXXXXX.XXXXXXXXXXXXXXXXXXX..XXXo",
"XXXXXXXXXXXXXXXXXoXXXXXXXXXXXXXXXXXXXX.XXoo    ooXXXXX.XXXXXXXXXXXXXXXXXXXXXXXXXXoXXXXXXXXXXXXXXXXXXXX.XXoo    ooXXXXX.XXXXXXXXXXXXXXXXXXXXXXXXXXoXXXXXXXXXXXXXXXXXXXX.XXoo    ooXXXXX.XXXXXXXXXXXXXXXXXXXXXXXXXXoXXXXXXXXXXXXXXXXXXXX.XXoo    ooXXXXX.XXXXXXXXXXXXXXXXXXXXXXXXXXoXXXXXXXXXXXXXXXXXXXX.XXoo    ooXXXXX.XXXXXXXXXXXXXXXXXXXXXXXXXXoXXXXXXXXXXXXXXXXXXXX.XXoo    ooXXXXX.XXXXXXXXXXXXXXXXXXXXXXXXXXoXXXXXXXXXXXXXXXXXXXX.XXoo    ooXXXXX.XXXXXXXXXXXXXXXXXXXXXXXXXXoXXXXXXXXXXXXXXXXXXXX.XXoo",
"XXXXX....XXXXXXXXXXXXXXXXXXXXXX  XXXXXXXXXo    oXXXXXX.XXXXXXXXXXXXXX....XXXXXXXXXXXXXXXXXXXXXX  XXXXXXXXXo    oXXXXXX.XXXXXXXXXXXXXX....XXXXXXXXXXXXXXXXXXXXXX  XXXXXXXXXo    oXXXXXX.XXXXXXXXXXXXXX....XXXXXXXXXXXXXXXXXXXXXX  XXXXXXXXXo    oXXXXXX.XXXXXXXXXXXXXX....XXXXXXXXXXXXXXXXXXXXXX  XXXXXXXXXo    oXXXXXX.XXXXXXXXXXXXXX....XXXXXXXXXXXXXXXXXXXXXX  XXXXXXXXXo    oXXXXXX.XXXXXXXXXXXXXX....XXXXXXXXXXXXXXXXXXXXXX  XXXXXXXXXo    oXXXXXX.XXXXXXXXXXXXXX....XXXXXXXXXXXXXXXXXXXXXX  XXXXXXXXXo",
"XXXXXX.  .XXXXXXXXXXXXXXXXXXXX. .XXXXXXXXXX .  oXXXXXXXXXXXXXXXXXXXXXX.  .XXXXXXXXXXXXXXXXXXXX. .XXXXXXXXXX .  oXXXXXXXXXXXXXXXXXXXXXX.  .XXXXXXXXXXXXXXXXXXXX. .XXXXXXXXXX .  oXXXXXXXXXXXXXXXXXXXXXX.  .XXXXXXXXXXXXXXXXXXXX. .XXXXXXXXXX .  oXXXXXXXXXXXXXXXXXXXXXX.  .XXXXXXXXXXXXXXXXXXXX. .XXXXXXXXXX .  oXXXXXXXXXXXXXXXXXXXXXX.  .XXXXXXXXXXXXXXXXXXXX. .XXXXXXXXXX .  oXXXXXXXXXXXXXXXXXXXXXX.  .XXXXXXXXXXXXXXXXXXXX. .XXXXXXXXXX .  oXXXXXXXXXXXXXXXXXXXXXX.  .XXXXXXXXXXXXXXXXXXXX. .XXXXXXXXXX",
"XXXX.X.oo..XXXXXXXXXXXXXXXXXX. XXXXXXXXXXXo .  ooXXXXXXXXXXXXXXXXXXX.X.oo..XXXXXXXXXXXXXXXXXX. XXXXXXXXXXXo .  ooXXXXXXXXXXXXXXXXXXX.X.oo..XXXXXXXXXXXXXXXXXX. XXXXXXXXXXXo .  ooXXXXXXXXXXXXXXXXXXX.X.oo..XXXXXXXXXXXXXXXXXX. XXXXXXXXXXXo .  ooXXXXXXXXXXXXXXXXXXX.X.oo..XXXXXXXXXXXXXXXXXX. XXXXXXXXXXXo .  ooXXXXXXXXXXXXXXXXXXX.X.oo..XXXXXXXXXXXXXXXXXX. XXXXXXXXXXXo .  ooXXXXXXXXXXXXXXXXXXX.X.oo..XXXXXXXXXXXXXXXXXX. XXXXXXXXXXXo .  ooXXXXXXXXXXXXXXXXXXX.X.oo..XXXXXXXXXXXXXXXXXX. XXXXXXXXXXXo",
"XXXXoXX.XX.XXXXXXXXXXX  XXXXXooXXXXXXXXXXoo .  XoXXXXXXXXXXXXXXXXXXXoXX.XX.XXXXXXXXXXX  XXXXXooXXXXXXXXXXoo .  XoXXXXXXXXXXXXXXXXXXXoXX.XX.XXXXXXXXXXX  XXXXXooXXXXXXXXXXoo .  XoXXXXXXXXXXXXXXXXXXXoXX.XX.XXXXXXXXXXX  XXXXXooXXXXXXXXXXoo .  XoXXXXXXXXXXXXXXXXXXXoXX.XX.XXXXXXXXXXX  XXXXXooXXXXXXXXXXoo .  XoXXXXXXXXXXXXXXXXXXXoXX.XX.XXXXXXXXXXX  XXXXXooXXXXXXXXXXoo .  XoXXXXXXXXXXXXXXXXXXXoXX.XX.XXXXXXXXXXX  XXXXXooXXXXXXXXXXoo .  XoXXXXXXXXXXXXXXXXXXXoXX.XX.XXXXXXXXXXX  XXXXXooXXXXXXXXXXoo",
"XXXXXXXXXXXXXXXXXXXXX..XXXXXXXXXXX.XXXXXXoo .  ooXXXXXXXXXXXXXXXXXXXXXXXXXXXXXXXXXXXX..XXXXXXXXXXX.XXXXXXoo .  ooXXXXXXXXXXXXXXXXXXXXXXXXXXXXXXXXXXXX..XXXXXXXXXXX.XXXXXXoo .  ooXXXXXXXXXXXXXXXXXXXXXXXXXXXXXXXXXXXX..XXXXXXXXXXX.XXXXXXoo .  ooXXXXXXXXXXXXXXXXXXXXXXXXXXXXXXXXXXXX..XXXXXXXXXXX.XXXXXXoo .  ooXXXXXXXXXXXXXXXXXXXXXXXXXXXXXXXXXXXX..XXXXXXXXXXX.XXXXXXoo .  ooXXXXXXXXXXXXXXXXXXXXXXXXXXXXXXXXXXXX..XXXXXXXXXXX.XXXXXXoo .  ooXXXXXXXXXXXXXXXXXXXXXXXXXXXXXXXXXXXX..XXXXXXXXXXX.XXXXXXoo",
"XXXXXXXXXXXXXXXXXXXXXXXXXXXXXXXXXXX.XXXXXoo .  ooXXXXXXXXXXXXXXXXXXXXXXXXXXXXXXXXXXXXXXXXXXXXXXXXXX.XXXXXoo .  ooXXXXXXXXXXXXXXXXXXXXXXXXXXXXXXXXXXXXXXXXXXXXXXXXXX.XXXXXoo .  ooXXXXXXXXXXXXXXXXXXXXXXXXXXXXXXXXXXXXXXXXXXXXXXXXXX.XXXXXoo .  ooXXXXXXXXXXXXXXXXXXXXXXXXXXXXXXXXXXXXXXXXXXXXXXXXXX.XXXXXoo .  ooXXXXXXXXXXXXXXXXXXXXXXXXXXXXXXXXXXXXXXXXXXXXXXXXXX.XXXXXoo .  ooXXXXXXXXXXXXXXXXXXXXXXXXXXXXXXXXXXXXXXXXXXXXXXXXXX.XXXXXoo .  ooXXXXXXXXXXXXXXXXXXXXXXXXXXXXXXXXXXXXXXXXXXXXXXXXXX.XXXXXoo",
"XXXXXXXXXXXXX.XXXXXXXXXXXXXXXXXXXXXXXX.XXoo    ooXXXXXXXXXXXXXXXXXXXXXXXXXXXX.XXXXXXXXXXXXXXXXXXXXXXXX.XXoo    ooXXXXXXXXXXXXXXXXXXXXXXXXXXXX.XXXXXXXXXXXXXXXXXXXXXXXX.XXoo    ooXXXXXXXXXXXXXXXXXXXXXXXXXXXX.XXXXXXXXXXXXXXXXXXXXXXXX.XXoo    ooXXXXXXXXXXXXXXXXXXXXXXXXXXXX.XXXXXXXXXXXXXXXXXXXXXXXX.XXoo    ooXXXXXXXXXXXXXXXXXXXXXXXXXXXX.XXXXXXXXXXXXXXXXXXXXXXXX.XXoo    ooXXXXXXXXXXXXXXXXXXXXXXXXXXXX.XXXXXXXXXXXXXXXXXXXXXXXX.XXoo    ooXXXXXXXXXXXXXXXXXXXXXXXXXXXX.XXXXXXXXXXXXXXXXXXXXXXXX.XXoo",
"XXX...XXXXX.....XXX.XXX...X......X.......oo .  o..X..XX...X...XXXXX...XXXXX.....XXX.XXX...X......X.......oo .  o..X..XX...X...XXXXX...XXXXX.....XXX.XXX...X......X.......oo .  o..X..XX...X...XXXXX...XXXXX.....XXX.XXX...X......X.......oo .  o..X..XX...X...XXXXX...XXXXX.....XXX.XXX...X......X.......oo .  o..X..XX...X...XXXXX...XXXXX.....XXX.XXX...X......X.......oo .  o..X..XX...X...XXXXX...XXXXX.....XXX.XXX...X......X.......oo .  o..X..XX...X...XXXXX...XXXXX.....XXX.XXX...X......X.......oo",
"..................XX.......X..............o    ...................................XX.......X..............o    ...................................XX.......X..............o    ...................................XX.......X..............o    ...................................XX.......X..............o    ...................................XX.......X..............o    ...................................XX.......X..............o    ...................................XX.......X..............o",
"..   ..........   ..     ..... ..........        ........ ........   ..........   ..     ..... ..........        ........ ........   ..........   ..     ..... ..........        ........ ........   ..........   ..     ..... ..........        ........ ........   ..........   ..     ..... ..........        ........ ........   ..........   ..     ..... ..........        ........ ........   ..........   ..     ..... ..........        ........ ........   ..........   ..     ..... ..........  ",
"                                            .                                                               .                                                               .                                                               .                                                               .                                                               .                                                               .                                                              ",
"                                    .     ...       .                                               .     ...       .                                               .     ...       .                                               .     ...       .                                               .     ...       .                                               .     ...       .                                               .     ...       .                                               .     .",
" ..  ...... .   .     X.. .    ... .     ...X      .     ....    ..  ...... .   .     X.. .    ... .     ...X      .     ....    ..  ...... .   .     X.. .    ... .     ...X      .     ....    ..  ...... .   .     X.. .    ... .     ...X      .     ....    ..  ...... .   .     X.. .    ... .     ...X      .     ....    ..  ...... .   .     X.. .    ... .     ...X      .     ....    ..  ...... .   .     X.. .    ... .     ...X      .     ....    ..  ...... .   .     X.. .    ... .     ..",
"             XX           .          .....                                   XX           .          .....                                   XX           .          .....                                   XX           .          .....                                   XX           .          .....                                   XX           .          .....                                   XX           .          .....                                   XX           .          ..... ",
"ooooooooooo. .X  X.. .ooooooooo..   .oooooooooooo. .o.     .ooooooooooooooo. .X  X.. .ooooooooo..   .oooooooooooo. .o.     .ooooooooooooooo. .X  X.. .ooooooooo..   .oooooooooooo. .o.     .ooooooooooooooo. .X  X.. .ooooooooo..   .oooooooooooo. .o.     .ooooooooooooooo. .X  X.. .ooooooooo..   .oooooooooooo. .o.     .ooooooooooooooo. .X  X.. .ooooooooo..   .oooooooooooo. .o.     .ooooooooooooooo. .X  X.. .ooooooooo..   .oooooooooooo. .o.     .ooooooooooooooo. .X  X.. .ooooooooo..   .oooooo",
"oo.ooooooooo  .  .oooooooXoooooooooooooooooooooooooooooooooooooooo.ooooooooo  .  .oooooooXoooooooooooooooooooooooooooooooooooooooo.ooooooooo  .  .oooooooXoooooooooooooooooooooooooooooooooooooooo.ooooooooo  .  .oooooooXoooooooooooooooooooooooooooooooooooooooo.ooooooooo  .  .oooooooXoooooooooooooooooooooooooooooooooooooooo.ooooooooo  .  .oooooooXoooooooooooooooooooooooooooooooooooooooo.ooooooooo  .  .oooooooXoooooooooooooooooooooooooooooooooooooooo.ooooooooo  .  .oooooooXooooooooooooooooo",
"ooXXoooooooo  X  oooooooXXooXoooXXXXoooXXXXXXXooooXoooooooooooooooXXoooooooo  X  oooooooXXooXoooXXXXoooXXXXXXXooooXoooooooooooooooXXoooooooo  X  oooooooXXooXoooXXXXoooXXXXXXXooooXoooooooooooooooXXoooooooo  X  oooooooXXooXoooXXXXoooXXXXXXXooooXoooooooooooooooXXoooooooo  X  oooooooXXooXoooXXXXoooXXXXXXXooooXoooooooooooooooXXoooooooo  X  oooooooXXooXoooXXXXoooXXXXXXXooooXoooooooooooooooXXoooooooo  X  oooooooXXooXoooXXXXoooXXXXXXXooooXoooooooooooooooXXoooooooo  X  oooooooXXooXoooXXXXoooXXXX",
".XXXXXXXXXXo. .  oXXXXXXXXXXXXXXXXXXXXXXXXXXXXXXXXXXXXXXXXXXXXX..XXXXXXXXXXo. .  oXXXXXXXXXXXXXXXXXXXXXXXXXXXXXXXXXXXXXXXXXXXXX..XXXXXXXXXXo. .  oXXXXXXXXXXXXXXXXXXXXXXXXXXXXXXXXXXXXXXXXXXXXX..XXXXXXXXXXo. .  oXXXXXXXXXXXXXXXXXXXXXXXXXXXXXXXXXXXXXXXXXXXXX..XXXXXXXXXXo. .  oXXXXXXXXXXXXXXXXXXXXXXXXXXXXXXXXXXXXXXXXXXXXX..XXXXXXXXXXo. .  oXXXXXXXXXXXXXXXXXXXXXXXXXXXXXXXXXXXXXXXXXXXXX..XXXXXXXXXXo. .  oXXXXXXXXXXXXXXXXXXXXXXXXXXXXXXXXXXXXXXXXXXXXX..XXXXXXXXXXo. .  oXXXXXXXXXXXXXXXXXXXXXXXXX",
"XXXXXXXXXXXoo    oXXXX XXXXXXXXXXXXXXXXXXXXXXXXXXXXXXXXXXXXXXXXXXXXXXXXXXXXoo    oXXXX XXXXXXXXXXXXXXXXXXXXXXXXXXXXXXXXXXXXXXXXXXXXXXXXXXXXoo    oXXXX XXXXXXXXXXXXXXXXXXXXXXXXXXXXXXXXXXXXXXXXXXXXXXXXXXXXoo    oXXXX XXXXXXXXXXXXXXXXXXXXXXXXXXXXXXXXXXXXXXXXXXXXXXXXXXXXoo    oXXXX XXXXXXXXXXXXXXXXXXXXXXXXXXXXXXXXXXXXXXXXXXXXXXXXXXXXoo    oXXXX XXXXXXXXXXXXXXXXXXXXXXXXXXXXXXXXXXXXXXXXXXXXXXXXXXXXoo    oXXXX XXXXXXXXXXXXXXXXXXXXXXXXXXXXXXXXXXXXXXXXXXXXXXXXXXXXoo    oXXXX XXXXXXXXXXXXXXXXXXXX",
"XXXXXXXXXXXXo .  oXXXX.XXXXXXXXX.X.XXXXXXXXXXXXXXXXXXXXXXXXXXXXXXXXXXXXXXXXXo .  oXXXX.XXXXXXXXX.X.XXXXXXXXXXXXXXXXXXXXXXXXXXXXXXXXXXXXXXXXXo .  oXXXX.XXXXXXXXX.X.XXXXXXXXXXXXXXXXXXXXXXXXXXXXXXXXXXXXXXXXXo .  oXXXX.XXXXXXXXX.X.XXXXXXXXXXXXXXXXXXXXXXXXXXXXXXXXXXXXXXXXXo .  oXXXX.XXXXXXXXX.X.XXXXXXXXXXXXXXXXXXXXXXXXXXXXXXXXXXXXXXXXXo .  oXXXX.XXXXXXXXX.X.XXXXXXXXXXXXXXXXXXXXXXXXXXXXXXXXXXXXXXXXXo .  oXXXX.XXXXXXXXX.X.XXXXXXXXXXXXXXXXXXXXXXXXXXXXXXXXXXXXXXXXXo .  oXXXX.XXXXXXXXX.X.XXXXXXXX",
"XXXXXX XXXXXo .  oXXXXXXXXXXXXX..oXXXXXXXXXXXXXX.XXXXXXXXX.XXXXXXXXXXX XXXXXo .  oXXXXXXXXXXXXX..oXXXXXXXXXXXXXX.XXXXXXXXX.XXXXXXXXXXX XXXXXo .  oXXXXXXXXXXXXX..oXXXXXXXXXXXXXX.XXXXXXXXX.XXXXXXXXXXX XXXXXo .  oXXXXXXXXXXXXX..oXXXXXXXXXXXXXX.XXXXXXXXX.XXXXXXXXXXX XXXXXo .  oXXXXXXXXXXXXX..oXXXXXXXXXXXXXX.XXXXXXXXX.XXXXXXXXXXX XXXXXo .  oXXXXXXXXXXXXX..oXXXXXXXXXXXXXX.XXXXXXXXX.XXXXXXXXXXX XXXXXo .  oXXXXXXXXXXXXX..oXXXXXXXXXXXXXX.XXXXXXXXX.XXXXXXXXXXX XXXXXo .  oXXXXXXXXXXXXX..oXXXXXXXXX",
"XXXXXX.XXXXoo    ooXXXXXXXXXX.. .XXXXXXXXXXXXXXX.XXXXXXXX.XXXXXXXXXXXX.XXXXoo    ooXXXXXXXXXX.. .XXXXXXXXXXXXXXX.XXXXXXXX.XXXXXXXXXXXX.XXXXoo    ooXXXXXXXXXX.. .XXXXXXXXXXXXXXX.XXXXXXXX.XXXXXXXXXXXX.XXXXoo    ooXXXXXXXXXX.. .XXXXXXXXXXXXXXX.XXXXXXXX.XXXXXXXXXXXX.XXXXoo    ooXXXXXXXXXX.. .XXXXXXXXXXXXXXX.XXXXXXXX.XXXXXXXXXXXX.XXXXoo    ooXXXXXXXXXX.. .XXXXXXXXXXXXXXX.XXXXXXXX.XXXXXXXXXXXX.XXXXoo    ooXXXXXXXXXX.. .XXXXXXXXXXXXXXX.XXXXXXXX.XXXXXXXXXXXX.XXXXoo    ooXXXXXXXXXX.. .XXXXXXXXXX",
"XXXXXXXXXXXoo    ooXXXXXXXX.   .oXXXX XXXXXXXXXXoXXXXXXXX.oXXXXXXXXXXXXXXXXoo    ooXXXXXXXX.   .oXXXX XXXXXXXXXXoXXXXXXXX.oXXXXXXXXXXXXXXXXoo    ooXXXXXXXX.   .oXXXX XXXXXXXXXXoXXXXXXXX.oXXXXXXXXXXXXXXXXoo    ooXXXXXXXX.   .oXXXX XXXXXXXXXXoXXXXXXXX.oXXXXXXXXXXXXXXXXoo    ooXXXXXXXX.   .oXXXX XXXXXXXXXXoXXXXXXXX.oXXXXXXXXXXXXXXXXoo    ooXXXXXXXX.   .oXXXX XXXXXXXXXXoXXXXXXXX.oXXXXXXXXXXXXXXXXoo    ooXXXXXXXX.   .oXXXX XXXXXXXXXXoXXXXXXXX.oXXXXXXXXXXXXXXXXoo    ooXXXXXXXX.   .oXXXX XXXXX",
"XXXXXXXXXXXXo    XoXXXXXXX.oooo.XXXXX.XXXXXXXXXXXXXXXXXXXXoXXXXXXXXXXXXXXXXXo    XoXXXXXXX.oooo.XXXXX.XXXXXXXXXXXXXXXXXXXXoXXXXXXXXXXXXXXXXXo    XoXXXXXXX.oooo.XXXXX.XXXXXXXXXXXXXXXXXXXXoXXXXXXXXXXXXXXXXXo    XoXXXXXXX.oooo.XXXXX.XXXXXXXXXXXXXXXXXXXXoXXXXXXXXXXXXXXXXXo    XoXXXXXXX.oooo.XXXXX.XXXXXXXXXXXXXXXXXXXXoXXXXXXXXXXXXXXXXXo    XoXXXXXXX.oooo.XXXXX.XXXXXXXXXXXXXXXXXXXXoXXXXXXXXXXXXXXXXXo    XoXXXXXXX.oooo.XXXXX.XXXXXXXXXXXXXXXXXXXXoXXXXXXXXXXXXXXXXXo    XoXXXXXXX.oooo.XXXXX.XXXXX",
"XXXXXXXXXXXXo    XoXXXXXXXXXXXXXXXXXXXXXXXXXXXXXXXXXXXXXXoXXXXXXXXXXXXXXXXXXo    XoXXXXXXXXXXXXXXXXXXXXXXXXXXXXXXXXXXXXXXoXXXXXXXXXXXXXXXXXXo    XoXXXXXXXXXXXXXXXXXXXXXXXXXXXXXXXXXXXXXXoXXXXXXXXXXXXXXXXXXo    XoXXXXXXXXXXXXXXXXXXXXXXXXXXXXXXXXXXXXXXoXXXXXXXXXXXXXXXXXXo    XoXXXXXXXXXXXXXXXXXXXXXXXXXXXXXXXXXXXXXXoXXXXXXXXXXXXXXXXXXo    XoXXXXXXXXXXXXXXXXXXXXXXXXXXXXXXXXXXXXXXoXXXXXXXXXXXXXXXXXXo    XoXXXXXXXXXXXXXXXXXXXXXXXXXXXXXXXXXXXXXXoXXXXXXXXXXXXXXXXXXo    XoXXXXXXXXXXXXXXXXXXXXXXXX",
"XXXXXXXXXXXoo  . ooXXXXXXXXXXXXXXXXXXXXXXXXXXXXXXXXXXXXXXXXXXXXXXXXXXXXXXXXoo  . ooXXXXXXXXXXXXXXXXXXXXXXXXXXXXXXXXXXXXXXXXXXXXXXXXXXXXXXXXoo  . ooXXXXXXXXXXXXXXXXXXXXXXXXXXXXXXXXXXXXXXXXXXXXXXXXXXXXXXXXoo  . ooXXXXXXXXXXXXXXXXXXXXXXXXXXXXXXXXXXXXXXXXXXXXXXXXXXXXXXXXoo  . ooXXXXXXXXXXXXXXXXXXXXXXXXXXXXXXXXXXXXXXXXXXXXXXXXXXXXXXXXoo  . ooXXXXXXXXXXXXXXXXXXXXXXXXXXXXXXXXXXXXXXXXXXXXXXXXXXXXXXXXoo  . ooXXXXXXXXXXXXXXXXXXXXXXXXXXXXXXXXXXXXXXXXXXXXXXXXXXXXXXXXoo  . ooXXXXXXXXXXXXXXXXXXXXXXXX",
"XXXXXXXXXXXoo    ooXX.XXXXXXXXXXXXXXXXXXXX..XXXXXXXXXXXXXXXXXXXXXXXXXXXXXXXoo    ooXX.XXXXXXXXXXXXXXXXXXXX..XXXXXXXXXXXXXXXXXXXXXXXXXXXXXXXoo    ooXX.XXXXXXXXXXXXXXXXXXXX..XXXXXXXXXXXXXXXXXXXXXXXXXXXXXXXoo    ooXX.XXXXXXXXXXXXXXXXXXXX..XXXXXXXXXXXXXXXXXXXXXXXXXXXXXXXoo    ooXX.XXXXXXXXXXXXXXXXXXXX..XXXXXXXXXXXXXXXXXXXXXXXXXXXXXXXoo    ooXX.XXXXXXXXXXXXXXXXXXXX..XXXXXXXXXXXXXXXXXXXXXXXXXXXXXXXoo    ooXX.XXXXXXXXXXXXXXXXXXXX..XXXXXXXXXXXXXXXXXXXXXXXXXXXXXXXoo    ooXX.XXXXXXXXXXXXXXXXXXXX.",
"XXXX..XXXXXoo    ooXXX.XXXXXXXXXXXXXXXXXXXXXXXXXXXXXXXXXXXXXXXXXXXXX..XXXXXoo    ooXXX.XXXXXXXXXXXXXXXXXXXXXXXXXXXXXXXXXXXXXXXXXXXXX..XXXXXoo    ooXXX.XXXXXXXXXXXXXXXXXXXXXXXXXXXXXXXXXXXXXXXXXXXXX..XXXXXoo    ooXXX.XXXXXXXXXXXXXXXXXXXXXXXXXXXXXXXXXXXXXXXXXXXXX..XXXXXoo    ooXXX.XXXXXXXXXXXXXXXXXXXXXXXXXXXXXXXXXXXXXXXXXXXXX..XXXXXoo    ooXXX.XXXXXXXXXXXXXXXXXXXXXXXXXXXXXXXXXXXXXXXXXXXXX..XXXXXoo    ooXXX.XXXXXXXXXXXXXXXXXXXXXXXXXXXXXXXXXXXXXXXXXXXXX..XXXXXoo    ooXXX.XXXXXXXXXXXXXXXXXXXX",
"XXXXXX....oo. .  o.......XXXXX.......XXXXXXXXXXXX....XXX..XXX.XXXXXXXX....oo. .  o.......XXXXX.......XXXXXXXXXXXX....XXX..XXX.XXXXXXXX....oo. .  o.......XXXXX.......XXXXXXXXXXXX....XXX..XXX.XXXXXXXX....oo. .  o.......XXXXX.......XXXXXXXXXXXX....XXX..XXX.XXXXXXXX....oo. .  o.......XXXXX.......XXXXXXXXXXXX....XXX..XXX.XXXXXXXX....oo. .  o.......XXXXX.......XXXXXXXXXXXX....XXX..XXX.XXXXXXXX....oo. .  o.......XXXXX.......XXXXXXXXXXXX....XXX..XXX.XXXXXXXX....oo. .  o.......XXXXX.......XXXXXX",
".X.........o  .   ......X................XX......................X.........o  .   ......X................XX......................X.........o  .   ......X................XX......................X.........o  .   ......X................XX......................X.........o  .   ......X................XX......................X.........o  .   ......X................XX......................X.........o  .   ......X................XX......................X.........o  .   ......X................XX",
".........         ..  .... ....  . .............   . ....................         ..  .... ....  . .............   . ....................         ..  .... ....  . .............   . ....................         ..  .... ....  . .............   . ....................         ..  .... ....  . .............   . ....................         ..  .... ....  . .............   . ....................         ..  .... ....  . .............   . ....................         ..  .... ....  . ........",
"            .                                                               .                                                               .                                                               .                                                               .                                                               .                                                               .                                                               .                              ",
"           ...                                                             ...                                                             ...                                                             ...                                                             ...                                                             ...                                                             ...                                                             ...                             ",
"   ...    ...... .......X .X   ..  ...  .....           ..         ...    ...... .......X .X   ..  ...  .....           ..         ...    ...... .......X .X   ..  ...  .....           ..         ...    ...... .......X .X   ..  ...  .....           ..         ...    ...... .......X .X   ..  ...  .....           ..         ...    ...... .......X .X   ..  ...  .....           ..         ...    ...... .......X .X   ..  ...  .....           ..         ...    ...... .......X .X   ..  ...  ...",
"     ....    ..    .       ..       ...                              ....    ..    .       ..       ...                              ....    ..    .       ..       ...                              ....    ..    .       ..       ...                              ....    ..    .       ..       ...                              ....    ..    .       ..       ...                              ....    ..    .       ..       ...                              ....    ..    .       ..       ...    ",
"oooooooooooooooooooooooo.  X.  .Xooooooooooo. .oooo..        .oooooooooooooooooooooooooo.  X.  .Xooooooooooo. .oooo..        .oooooooooooooooooooooooooo.  X.  .Xooooooooooo. .oooo..        .oooooooooooooooooooooooooo.  X.  .Xooooooooooo. .oooo..        .oooooooooooooooooooooooooo.  X.  .Xooooooooooo. .oooo..        .oooooooooooooooooooooooooo.  X.  .Xooooooooooo. .oooo..        .oooooooooooooooooooooooooo.  X.  .Xooooooooooo. .oooo..        .oooooooooooooooooooooooooo.  X.  .Xoooooooooo",
"ooooooo.  ooXoXooXooooooo.  . .XoooooXoooXooo.ooooooo. .ooooooooooooooo.  ooXoXooXooooooo.  . .XoooooXoooXooo.ooooooo. .ooooooooooooooo.  ooXoXooXooooooo.  . .XoooooXoooXooo.ooooooo. .ooooooooooooooo.  ooXoXooXooooooo.  . .XoooooXoooXooo.ooooooo. .ooooooooooooooo.  ooXoXooXooooooo.  . .XoooooXoooXooo.ooooooo. .ooooooooooooooo.  ooXoXooXooooooo.  . .XoooooXoooXooo.ooooooo. .ooooooooooooooo.  ooXoXooXooooooo.  . .XoooooXoooXooo.ooooooo. .ooooooooooooooo.  ooXoXooXooooooo.  . .XoooooXoooXo",
"oooXXXXo   XXXXXXXXXoXoooo X  XoXooXXXXXXXXXXXXooXXXoooooXXoXooooooXXXXo   XXXXXXXXXoXoooo X  XoXooXXXXXXXXXXXXooXXXoooooXXoXooooooXXXXo   XXXXXXXXXoXoooo X  XoXooXXXXXXXXXXXXooXXXoooooXXoXooooooXXXXo   XXXXXXXXXoXoooo X  XoXooXXXXXXXXXXXXooXXXoooooXXoXooooooXXXXo   XXXXXXXXXoXoooo X  XoXooXXXXXXXXXXXXooXXXoooooXXoXooooooXXXXo   XXXXXXXXXoXoooo X  XoXooXXXXXXXXXXXXooXXXoooooXXoXooooooXXXXo   XXXXXXXXXoXoooo X  XoXooXXXXXXXXXXXXooXXXoooooXXoXooooooXXXXo   XXXXXXXXXoXoooo X  XoXooXXXXXXXX",
"XXXoXXXXo.  XXXXXXXXXXXXoX X  XoXXXXXXXXXXXXXXXXXXXXXXXXXXXXXXXXXXXoXXXXo.  XXXXXXXXXXXXoX X  XoXXXXXXXXXXXXXXXXXXXXXXXXXXXXXXXXXXXoXXXXo.  XXXXXXXXXXXXoX X  XoXXXXXXXXXXXXXXXXXXXXXXXXXXXXXXXXXXXoXXXXo.  XXXXXXXXXXXXoX X  XoXXXXXXXXXXXXXXXXXXXXXXXXXXXXXXXXXXXoXXXXo.  XXXXXXXXXXXXoX X  XoXXXXXXXXXXXXXXXXXXXXXXXXXXXXXXXXXXXoXXXXo.  XXXXXXXXXXXXoX X  XoXXXXXXXXXXXXXXXXXXXXXXXXXXXXXXXXXXXoXXXXo.  XXXXXXXXXXXXoX X  XoXXXXXXXXXXXXXXXXXXXXXXXXXXXXXXXXXXXoXXXXo.  XXXXXXXXXXXXoX X  XoXXXXXXXXXXX",
"XXXXXXXXXo. .XXXXXXXXXXXXo    oXXXXXXXXXXXXXXXXXXXXXXXXXXXXXXXXXXXXXXXXXXo. .XXXXXXXXXXXXo    oXXXXXXXXXXXXXXXXXXXXXXXXXXXXXXXXXXXXXXXXXXo. .XXXXXXXXXXXXo    oXXXXXXXXXXXXXXXXXXXXXXXXXXXXXXXXXXXXXXXXXXo. .XXXXXXXXXXXXo    oXXXXXXXXXXXXXXXXXXXXXXXXXXXXXXXXXXXXXXXXXXo. .XXXXXXXXXXXXo    oXXXXXXXXXXXXXXXXXXXXXXXXXXXXXXXXXXXXXXXXXXo. .XXXXXXXXXXXXo    oXXXXXXXXXXXXXXXXXXXXXXXXXXXXXXXXXXXXXXXXXXo. .XXXXXXXXXXXXo    oXXXXXXXXXXXXXXXXXXXXXXXXXXXXXXXXXXXXXXXXXXo. .XXXXXXXXXXXXo    oXXXXXXXXXXXX",
"XXXXXXXXXXo.. XXXXXXXXXXXo .  oXXXXXXXXXXXXXXXX  XXXXXXXXXXXXXXXXXXXXXXXXXo.. XXXXXXXXXXXo .  oXXXXXXXXXXXXXXXX  XXXXXXXXXXXXXXXXXXXXXXXXXo.. XXXXXXXXXXXo .  oXXXXXXXXXXXXXXXX  XXXXXXXXXXXXXXXXXXXXXXXXXo.. XXXXXXXXXXXo .  oXXXXXXXXXXXXXXXX  XXXXXXXXXXXXXXXXXXXXXXXXXo.. XXXXXXXXXXXo .  oXXXXXXXXXXXXXXXX  XXXXXXXXXXXXXXXXXXXXXXXXXo.. XXXXXXXXXXXo .  oXXXXXXXXXXXXXXXX  XXXXXXXXXXXXXXXXXXXXXXXXXo.. XXXXXXXXXXXo .  oXXXXXXXXXXXXXXXX  XXXXXXXXXXXXXXXXXXXXXXXXXo.. XXXXXXXXXXXo .  oXXXXXXXXXXXX",
"XXXXXXXXXXXo..XXXXXXXXXXoo .  oXXXXXXXXXXXXXXXX..   XXXXXXXXXXXXXXXXXXXXXXXo..XXXXXXXXXXoo .  oXXXXXXXXXXXXXXXX..   XXXXXXXXXXXXXXXXXXXXXXXo..XXXXXXXXXXoo .  oXXXXXXXXXXXXXXXX..   XXXXXXXXXXXXXXXXXXXXXXXo..XXXXXXXXXXoo .  oXXXXXXXXXXXXXXXX..   XXXXXXXXXXXXXXXXXXXXXXXo..XXXXXXXXXXoo .  oXXXXXXXXXXXXXXXX..   XXXXXXXXXXXXXXXXXXXXXXXo..XXXXXXXXXXoo .  oXXXXXXXXXXXXXXXX..   XXXXXXXXXXXXXXXXXXXXXXXo..XXXXXXXXXXoo .  oXXXXXXXXXXXXXXXX..   XXXXXXXXXXXXXXXXXXXXXXXo..XXXXXXXXXXoo .  oXXXXXXXXXXXX",
"..XXXXXXXXXXX..XXXXXXXXXoo .  ooXXXXXXXXXXXXXXXXo....XXXXXXXXXXX..XXXXXXXXXXX..XXXXXXXXXoo .  ooXXXXXXXXXXXXXXXXo....XXXXXXXXXXX..XXXXXXXXXXX..XXXXXXXXXoo .  ooXXXXXXXXXXXXXXXXo....XXXXXXXXXXX..XXXXXXXXXXX..XXXXXXXXXoo .  ooXXXXXXXXXXXXXXXXo....XXXXXXXXXXX..XXXXXXXXXXX..XXXXXXXXXoo .  ooXXXXXXXXXXXXXXXXo....XXXXXXXXXXX..XXXXXXXXXXX..XXXXXXXXXoo .  ooXXXXXXXXXXXXXXXXo....XXXXXXXXXXX..XXXXXXXXXXX..XXXXXXXXXoo .  ooXXXXXXXXXXXXXXXXo....XXXXXXXXXXX..XXXXXXXXXXX..XXXXXXXXXoo .  ooXXXXXXXXXXX",
"XXXXXXXXXXXXXo..XXXXXXXXXo    ooXXXXXXX...XXXXXXXXXXXXXXXXXXXXXXXXXXXXXXXXXXXo..XXXXXXXXXo    ooXXXXXXX...XXXXXXXXXXXXXXXXXXXXXXXXXXXXXXXXXXXo..XXXXXXXXXo    ooXXXXXXX...XXXXXXXXXXXXXXXXXXXXXXXXXXXXXXXXXXXo..XXXXXXXXXo    ooXXXXXXX...XXXXXXXXXXXXXXXXXXXXXXXXXXXXXXXXXXXo..XXXXXXXXXo    ooXXXXXXX...XXXXXXXXXXXXXXXXXXXXXXXXXXXXXXXXXXXo..XXXXXXXXXo    ooXXXXXXX...XXXXXXXXXXXXXXXXXXXXXXXXXXXXXXXXXXXo..XXXXXXXXXo    ooXXXXXXX...XXXXXXXXXXXXXXXXXXXXXXXXXXXXXXXXXXXo..XXXXXXXXXo    ooXXXXXXX...X",
"XXXXXXXXXXXXXXX.XXXXXXXXoo X  XoXXXXXXXo...XXXXXXXXXXXXXXXXXXXXXXXXXXXXXXXXXXXX.XXXXXXXXoo X  XoXXXXXXXo...XXXXXXXXXXXXXXXXXXXXXXXXXXXXXXXXXXXX.XXXXXXXXoo X  XoXXXXXXXo...XXXXXXXXXXXXXXXXXXXXXXXXXXXXXXXXXXXX.XXXXXXXXoo X  XoXXXXXXXo...XXXXXXXXXXXXXXXXXXXXXXXXXXXXXXXXXXXX.XXXXXXXXoo X  XoXXXXXXXo...XXXXXXXXXXXXXXXXXXXXXXXXXXXXXXXXXXXX.XXXXXXXXoo X  XoXXXXXXXo...XXXXXXXXXXXXXXXXXXXXXXXXXXXXXXXXXXXX.XXXXXXXXoo X  XoXXXXXXXo...XXXXXXXXXXXXXXXXXXXXXXXXXXXXXXXXXXXX.XXXXXXXXoo X  XoXXXXXXXo...",
"XXXXXXXXXXXXXo..XXXXXXXXXo .  ooXXXXXXXXooo.XXXXXXXXXXXX.XXXXXXXXXXXXXXXXXXXXo..XXXXXXXXXo .  ooXXXXXXXXooo.XXXXXXXXXXXX.XXXXXXXXXXXXXXXXXXXXo..XXXXXXXXXo .  ooXXXXXXXXooo.XXXXXXXXXXXX.XXXXXXXXXXXXXXXXXXXXo..XXXXXXXXXo .  ooXXXXXXXXooo.XXXXXXXXXXXX.XXXXXXXXXXXXXXXXXXXXo..XXXXXXXXXo .  ooXXXXXXXXooo.XXXXXXXXXXXX.XXXXXXXXXXXXXXXXXXXXo..XXXXXXXXXo .  ooXXXXXXXXooo.XXXXXXXXXXXX.XXXXXXXXXXXXXXXXXXXXo..XXXXXXXXXo .  ooXXXXXXXXooo.XXXXXXXXXXXX.XXXXXXXXXXXXXXXXXXXXo..XXXXXXXXXo .  ooXXXXXXXXooo",
"XXXXXXXXXXXXXXXoXXXXXXXXXo .  oXXXXXXXXXXXXXXXXXX. XXXXXX.XXXXXXXXXXXXXXXXXXXXXoXXXXXXXXXo .  oXXXXXXXXXXXXXXXXXX. XXXXXX.XXXXXXXXXXXXXXXXXXXXXoXXXXXXXXXo .  oXXXXXXXXXXXXXXXXXX. XXXXXX.XXXXXXXXXXXXXXXXXXXXXoXXXXXXXXXo .  oXXXXXXXXXXXXXXXXXX. XXXXXX.XXXXXXXXXXXXXXXXXXXXXoXXXXXXXXXo .  oXXXXXXXXXXXXXXXXXX. XXXXXX.XXXXXXXXXXXXXXXXXXXXXoXXXXXXXXXo .  oXXXXXXXXXXXXXXXXXX. XXXXXX.XXXXXXXXXXXXXXXXXXXXXoXXXXXXXXXo .  oXXXXXXXXXXXXXXXXXX. XXXXXX.XXXXXXXXXXXXXXXXXXXXXoXXXXXXXXXo .  oXXXXXXXXXXXX",
"XXXXXXXXXXXXXXXXXXXXXXXXoo .  ooXXXXXXXXXXXXXXXXXXXXXXXXXXXXXXXXXXXXXXXXXXXXXXXXXXXXXXXXoo .  ooXXXXXXXXXXXXXXXXXXXXXXXXXXXXXXXXXXXXXXXXXXXXXXXXXXXXXXXXoo .  ooXXXXXXXXXXXXXXXXXXXXXXXXXXXXXXXXXXXXXXXXXXXXXXXXXXXXXXXXoo .  ooXXXXXXXXXXXXXXXXXXXXXXXXXXXXXXXXXXXXXXXXXXXXXXXXXXXXXXXXoo .  ooXXXXXXXXXXXXXXXXXXXXXXXXXXXXXXXXXXXXXXXXXXXXXXXXXXXXXXXXoo .  ooXXXXXXXXXXXXXXXXXXXXXXXXXXXXXXXXXXXXXXXXXXXXXXXXXXXXXXXXoo .  ooXXXXXXXXXXXXXXXXXXXXXXXXXXXXXXXXXXXXXXXXXXXXXXXXXXXXXXXXoo .  ooXXXXXXXXXXX",
"XXXXXXXXXXXXXXXXXXXX..XXoo    ooXX.XXXXXXXXXXXXXXXXXXXXXXXXXXXXXXXXXXXXXXXXXXXXXXXXX..XXoo    ooXX.XXXXXXXXXXXXXXXXXXXXXXXXXXXXXXXXXXXXXXXXXXXXXXXXX..XXoo    ooXX.XXXXXXXXXXXXXXXXXXXXXXXXXXXXXXXXXXXXXXXXXXXXXXXXX..XXoo    ooXX.XXXXXXXXXXXXXXXXXXXXXXXXXXXXXXXXXXXXXXXXXXXXXXXXX..XXoo    ooXX.XXXXXXXXXXXXXXXXXXXXXXXXXXXXXXXXXXXXXXXXXXXXXXXXX..XXoo    ooXX.XXXXXXXXXXXXXXXXXXXXXXXXXXXXXXXXXXXXXXXXXXXXXXXXX..XXoo    ooXX.XXXXXXXXXXXXXXXXXXXXXXXXXXXXXXXXXXXXXXXXXXXXXXXXX..XXoo    ooXX.XXXXXXXX",
"XX..X...XXXXXXXXXX.......o    o....XXXXXXXXXXX....XXXXXX....XXXXXX..X...XXXXXXXXXX.......o    o....XXXXXXXXXXX....XXXXXX....XXXXXX..X...XXXXXXXXXX.......o    o....XXXXXXXXXXX....XXXXXX....XXXXXX..X...XXXXXXXXXX.......o    o....XXXXXXXXXXX....XXXXXX....XXXXXX..X...XXXXXXXXXX.......o    o....XXXXXXXXXXX....XXXXXX....XXXXXX..X...XXXXXXXXXX.......o    o....XXXXXXXXXXX....XXXXXX....XXXXXX..X...XXXXXXXXXX.......o    o....XXXXXXXXXXX....XXXXXX....XXXXXX..X...XXXXXXXXXX.......o    o....XXXXXXXX",
".........X......X........  .  ...............XXX....X....................X......X........  .  ...............XXX....X....................X......X........  .  ...............XXX....X....................X......X........  .  ...............XXX....X....................X......X........  .  ...............XXX....X....................X......X........  .  ...............XXX....X....................X......X........  .  ...............XXX....X....................X......X........  .  .............",
".... ...................  ..      .....  ...............        .... ...................  ..      .....  ...............        .... ...................  ..      .....  ...............        .... ...................  ..      .....  ...............        .... ...................  ..      .....  ...............        .... ...................  ..      .....  ...............        .... ...................  ..      .....  ...............        .... ...................  ..      .....  ..",
"                          .                                                               .                                                               .                                                               .                                                               .                                                               .                                                               .                                                               .                ",
"                        ....                                .                           ....                                .                           ....                                .                           ....                                .                           ....                                .                           ....                                .                           ....                                .                           ....               ",
"... ..        ....  ...  . ..           ...X  ....     ..  .    ... ..        ....  ...  . ..           ...X  ....     ..  .    ... ..        ....  ...  . ..           ...X  ....     ..  .    ... ..        ....  ...  . ..           ...X  ....     ..  .    ... ..        ....  ...  . ..           ...X  ....     ..  .    ... ..        ....  ...  . ..           ...X  ....     ..  .    ... ..        ....  ...  . ..           ...X  ....     ..  .    ... ..        ....  ...  . ..           ...",
"      . .                                  .X                         . .                                  .X                         . .                                  .X                         . .                                  .X                         . .                                  .X                         . .                                  .X                         . .                                  .X                         . .                                  ",
" .Xoooooooooo.oX..Xoo..ooooo. .ooooooXXX..  .   .XX.. .   .Xooo. .Xoooooooooo.oX..Xoo..ooooo. .ooooooXXX..  .   .XX.. .   .Xooo. .Xoooooooooo.oX..Xoo..ooooo. .ooooooXXX..  .   .XX.. .   .Xooo. .Xoooooooooo.oX..Xoo..ooooo. .ooooooXXX..  .   .XX.. .   .Xooo. .Xoooooooooo.oX..Xoo..ooooo. .ooooooXXX..  .   .XX.. .   .Xooo. .Xoooooooooo.oX..Xoo..ooooo. .ooooooXXX..  .   .XX.. .   .Xooo. .Xoooooooooo.oX..Xoo..ooooo. .ooooooXXX..  .   .XX.. .   .Xooo. .Xoooooooooo.oX..Xoo..ooooo. .ooooooXXX.. ",
"ooooooooXooooXooooooooooooooooooXooooooooo. .   ooooooooooooooooooooooooXooooXooooooooooooooooooXooooooooo. .   ooooooooooooooooooooooooXooooXooooooooooooooooooXooooooooo. .   ooooooooooooooooooooooooXooooXooooooooooooooooooXooooooooo. .   ooooooooooooooooooooooooXooooXooooooooooooooooooXooooooooo. .   ooooooooooooooooooooooooXooooXooooooooooooooooooXooooooooo. .   ooooooooooooooooooooooooXooooXooooooooooooooooooXooooooooo. .   ooooooooooooooooooooooooXooooXooooooooooooooooooXooooooooo.",
"oooXXXoXXXXXXXXXXXoooXXoooooXoooXXXXoooooo. .   ooooooXXoXoooXoooooXXXoXXXXXXXXXXXoooXXoooooXoooXXXXoooooo. .   ooooooXXoXoooXoooooXXXoXXXXXXXXXXXoooXXoooooXoooXXXXoooooo. .   ooooooXXoXoooXoooooXXXoXXXXXXXXXXXoooXXoooooXoooXXXXoooooo. .   ooooooXXoXoooXoooooXXXoXXXXXXXXXXXoooXXoooooXoooXXXXoooooo. .   ooooooXXoXoooXoooooXXXoXXXXXXXXXXXoooXXoooooXoooXXXXoooooo. .   ooooooXXoXoooXoooooXXXoXXXXXXXXXXXoooXXoooooXoooXXXXoooooo. .   ooooooXXoXoooXoooooXXXoXXXXXXXXXXXoooXXoooooXoooXXXXoooooo.",
"XXXXXX.XXXXXXXXXXXXXXXXXXXXXXXXXXXXXXXXXXoX .  .oXXXXXXXXXXXXXXXXXXXXX.XXXXXXXXXXXXXXXXXXXXXXXXXXXXXXXXXXoX .  .oXXXXXXXXXXXXXXXXXXXXX.XXXXXXXXXXXXXXXXXXXXXXXXXXXXXXXXXXoX .  .oXXXXXXXXXXXXXXXXXXXXX.XXXXXXXXXXXXXXXXXXXXXXXXXXXXXXXXXXoX .  .oXXXXXXXXXXXXXXXXXXXXX.XXXXXXXXXXXXXXXXXXXXXXXXXXXXXXXXXXoX .  .oXXXXXXXXXXXXXXXXXXXXX.XXXXXXXXXXXXXXXXXXXXXXXXXXXXXXXXXXoX .  .oXXXXXXXXXXXXXXXXXXXXX.XXXXXXXXXXXXXXXXXXXXXXXXXXXXXXXXXXoX .  .oXXXXXXXXXXXXXXXXXXXXX.XXXXXXXXXXXXXXXXXXXXXXXXXXXXXXXXXXoX",
"XXXXXXXXXXXXXXXXXXXXXXXXXXXXXXXXXXXXXXXXXoX .  .XXXXXXXXXXXXXXXXXXXXXXXXXXXXXXXXXXXXXXXXXXXXXXXXXXXXXXXXXoX .  .XXXXXXXXXXXXXXXXXXXXXXXXXXXXXXXXXXXXXXXXXXXXXXXXXXXXXXXXXoX .  .XXXXXXXXXXXXXXXXXXXXXXXXXXXXXXXXXXXXXXXXXXXXXXXXXXXXXXXXXoX .  .XXXXXXXXXXXXXXXXXXXXXXXXXXXXXXXXXXXXXXXXXXXXXXXXXXXXXXXXXoX .  .XXXXXXXXXXXXXXXXXXXXXXXXXXXXXXXXXXXXXXXXXXXXXXXXXXXXXXXXXoX .  .XXXXXXXXXXXXXXXXXXXXXXXXXXXXXXXXXXXXXXXXXXXXXXXXXXXXXXXXXoX .  .XXXXXXXXXXXXXXXXXXXXXXXXXXXXXXXXXXXXXXXXXXXXXXXXXXXXXXXXXoX",
"XXXXXXXXXXXXXXXXXXXXXXXXXXXXXXXXXXXXX.XXXoo .  XoXXXXXXXXXXXXXXXXXXXXXXXXXXXXXXXXXXXXXXXXXXXXXXXXXXXX.XXXoo .  XoXXXXXXXXXXXXXXXXXXXXXXXXXXXXXXXXXXXXXXXXXXXXXXXXXXXX.XXXoo .  XoXXXXXXXXXXXXXXXXXXXXXXXXXXXXXXXXXXXXXXXXXXXXXXXXXXXX.XXXoo .  XoXXXXXXXXXXXXXXXXXXXXXXXXXXXXXXXXXXXXXXXXXXXXXXXXXXXX.XXXoo .  XoXXXXXXXXXXXXXXXXXXXXXXXXXXXXXXXXXXXXXXXXXXXXXXXXXXXX.XXXoo .  XoXXXXXXXXXXXXXXXXXXXXXXXXXXXXXXXXXXXXXXXXXXXXXXXXXXXX.XXXoo .  XoXXXXXXXXXXXXXXXXXXXXXXXXXXXXXXXXXXXXXXXXXXXXXXXXXXXX.XXXoo",
"XXXXXXXXXXXXXXXXX.XXXXXXXXXXXXXXXXXXX..XXXo  . XoXXXXXXXXXXXXXXXXXXXXXXXXXXXXXXXX.XXXXXXXXXXXXXXXXXXX..XXXo  . XoXXXXXXXXXXXXXXXXXXXXXXXXXXXXXXXX.XXXXXXXXXXXXXXXXXXX..XXXo  . XoXXXXXXXXXXXXXXXXXXXXXXXXXXXXXXXX.XXXXXXXXXXXXXXXXXXX..XXXo  . XoXXXXXXXXXXXXXXXXXXXXXXXXXXXXXXXX.XXXXXXXXXXXXXXXXXXX..XXXo  . XoXXXXXXXXXXXXXXXXXXXXXXXXXXXXXXXX.XXXXXXXXXXXXXXXXXXX..XXXo  . XoXXXXXXXXXXXXXXXXXXXXXXXXXXXXXXXX.XXXXXXXXXXXXXXXXXXX..XXXo  . XoXXXXXXXXXXXXXXXXXXXXXXXXXXXXXXXX.XXXXXXXXXXXXXXXXXXX..XXXo",
"XXXXXXXXXXXXXXXXXoXXXXXXXXXXXXXXXXXXXX.XXoo    ooXXXXX.XXXXXXXXXXXXXXXXXXXXXXXXXXoXXXXXXXXXXXXXXXXXXXX.XXoo    ooXXXXX.XXXXXXXXXXXXXXXXXXXXXXXXXXoXXXXXXXXXXXXXXXXXXXX.XXoo    ooXXXXX.XXXXXXXXXXXXXXXXXXXXXXXXXXoXXXXXXXXXXXXXXXXXXXX.XXoo    ooXXXXX.XXXXXXXXXXXXXXXXXXXXXXXXXXoXXXXXXXXXXXXXXXXXXXX.XXoo    ooXXXXX.XXXXXXXXXXXXXXXXXXXXXXXXXXoXXXXXXXXXXXXXXXXXXXX.XXoo    ooXXXXX.XXXXXXXXXXXXXXXXXXXXXXXXXXoXXXXXXXXXXXXXXXXXXXX.XXoo    ooXXXXX.XXXXXXXXXXXXXXXXXXXXXXXXXXoXXXXXXXXXXXXXXXXXXXX.XXoo",
"XXXXX....XXXXXXXXXXXXXXXXXXXXXX  XXXXXXXXXo    oXXXXXX.XXXXXXXXXXXXXX....XXXXXXXXXXXXXXXXXXXXXX  XXXXXXXXXo    oXXXXXX.XXXXXXXXXXXXXX....XXXXXXXXXXXXXXXXXXXXXX  XXXXXXXXXo    oXXXXXX.XXXXXXXXXXXXXX....XXXXXXXXXXXXXXXXXXXXXX  XXXXXXXXXo    oXXXXXX.XXXXXXXXXXXXXX....XXXXXXXXXXXXXXXXXXXXXX  XXXXXXXXXo    oXXXXXX.XXXXXXXXXXXXXX....XXXXXXXXXXXXXXXXXXXXXX  XXXXXXXXXo    oXXXXXX.XXXXXXXXXXXXXX....XXXXXXXXXXXXXXXXXXXXXX  XXXXXXXXXo    oXXXXXX.XXXXXXXXXXXXXX....XXXXXXXXXXXXXXXXXXXXXX  XXXXXXXXXo",
"XXXXXX.  .XXXXXXXXXXXXXXXXXXXX. .XXXXXXXXXX .  oXXXXXXXXXXXXXXXXXXXXXX.  .XXXXXXXXXXXXXXXXXXXX. .XXXXXXXXXX .  oXXXXXXXXXXXXXXXXXXXXXX.  .XXXXXXXXXXXXXXXXXXXX. .XXXXXXXXXX .  oXXXXXXXXXXXXXXXXXXXXXX.  .XXXXXXXXXXXXXXXXXXXX. .XXXXXXXXXX .  oXXXXXXXXXXXXXXXXXXXXXX.  .XXXXXXXXXXXXXXXXXXXX. .XXXXXXXXXX .  oXXXXXXXXXXXXXXXXXXXXXX.  .XXXXXXXXXXXXXXXXXXXX. .XXXXXXXXXX .  oXXXXXXXXXXXXXXXXXXXXXX.  .XXXXXXXXXXXXXXXXXXXX. .XXXXXXXXXX .  oXXXXXXXXXXXXXXXXXXXXXX.  .XXXXXXXXXXXXXXXXXXXX. .XXXXXXXXXX",
"XXXX.X.oo..XXXXXXXXXXXXXXXXXX. XXXXXXXXXXXo .  ooXXXXXXXXXXXXXXXXXXX.X.oo..XXXXXXXXXXXXXXXXXX. XXXXXXXXXXXo .  ooXXXXXXXXXXXXXXXXXXX.X.oo..XXXXXXXXXXXXXXXXXX. XXXXXXXXXXXo .  ooXXXXXXXXXXXXXXXXXXX.X.oo..XXXXXXXXXXXXXXXXXX. XXXXXXXXXXXo .  ooXXXXXXXXXXXXXXXXXXX.X.oo..XXXXXXXXXXXXXXXXXX. XXXXXXXXXXXo .  ooXXXXXXXXXXXXXXXXXXX.X.oo..XXXXXXXXXXXXXXXXXX. XXXXXXXXXXXo .  ooXXXXXXXXXXXXXXXXXXX.X.oo..XXXXXXXXXXXXXXXXXX. XXXXXXXXXXXo .  ooXXXXXXXXXXXXXXXXXXX.X.oo..XXXXXXXXXXXXXXXXXX. XXXXXXXXXXXo",
"XXXXoXX.XX.XXXXXXXXXXX  XXXXXooXXXXXXXXXXoo .  XoXXXXXXXXXXXXXXXXXXXoXX.XX.XXXXXXXXXXX  XXXXXooXXXXXXXXXXoo .  XoXXXXXXXXXXXXXXXXXXXoXX.XX.XXXXXXXXXXX  XXXXXooXXXXXXXXXXoo .  XoXXXXXXXXXXXXXXXXXXXoXX.XX.XXXXXXXXXXX  XXXXXooXXXXXXXXXXoo .  XoXXXXXXXXXXXXXXXXXXXoXX.XX.XXXXXXXXXXX  XXXXXooXXXXXXXXXXoo .  XoXXXXXXXXXXXXXXXXXXXoXX.XX.XXXXXXXXXXX  XXXXXooXXXXXXXXXXoo .  XoXXXXXXXXXXXXXXXXXXXoXX.XX.XXXXXXXXXXX  XXXXXooXXXXXXXXXXoo .  XoXXXXXXXXXXXXXXXXXXXoXX.XX.XXXXXXXXXXX  XXXXXooXXXXXXXXXXoo",
"XXXXXXXXXXXXXXXXXXXXX..XXXXXXXXXXX.XXXXXXoo .  ooXXXXXXXXXXXXXXXXXXXXXXXXXXXXXXXXXXXX..XXXXXXXXXXX.XXXXXXoo .  ooXXXXXXXXXXXXXXXXXXXXXXXXXXXXXXXXXXXX..XXXXXXXXXXX.XXXXXXoo .  ooXXXXXXXXXXXXXXXXXXXXXXXXXXXXXXXXXXXX..XXXXXXXXXXX.XXXXXXoo .  ooXXXXXXXXXXXXXXXXXXXXXXXXXXXXXXXXXXXX..XXXXXXXXXXX.XXXXXXoo .  ooXXXXXXXXXXXXXXXXXXXXXXXXXXXXXXXXXXXX..XXXXXXXXXXX.XXXXXXoo .  ooXXXXXXXXXXXXXXXXXXXXXXXXXXXXXXXXXXXX..XXXXXXXXXXX.XXXXXXoo .  ooXXXXXXXXXXXXXXXXXXXXXXXXXXXXXXXXXXXX..XXXXXXXXXXX.XXXXXXoo",
"XXXXXXXXXXXXXXXXXXXXXXXXXXXXXXXXXXX.XXXXXoo .  ooXXXXXXXXXXXXXXXXXXXXXXXXXXXXXXXXXXXXXXXXXXXXXXXXXX.XXXXXoo .  ooXXXXXXXXXXXXXXXXXXXXXXXXXXXXXXXXXXXXXXXXXXXXXXXXXX.XXXXXoo .  ooXXXXXXXXXXXXXXXXXXXXXXXXXXXXXXXXXXXXXXXXXXXXXXXXXX.XXXXXoo .  ooXXXXXXXXXXXXXXXXXXXXXXXXXXXXXXXXXXXXXXXXXXXXXXXXXX.XXXXXoo .  ooXXXXXXXXXXXXXXXXXXXXXXXXXXXXXXXXXXXXXXXXXXXXXXXXXX.XXXXXoo .  ooXXXXXXXXXXXXXXXXXXXXXXXXXXXXXXXXXXXXXXXXXXXXXXXXXX.XXXXXoo .  ooXXXXXXXXXXXXXXXXXXXXXXXXXXXXXXXXXXXXXXXXXXXXXXXXXX.XXXXXoo",
"XXXXXXXXXXXXX.XXXXXXXXXXXXXXXXXXXXXXXX.XXoo    ooXXXXXXXXXXXXXXXXXXXXXXXXXXXX.XXXXXXXXXXXXXXXXXXXXXXXX.XXoo    ooXXXXXXXXXXXXXXXXXXXXXXXXXXXX.XXXXXXXXXXXXXXXXXXXXXXXX.XXoo    ooXXXXXXXXXXXXXXXXXXXXXXXXXXXX.XXXXXXXXXXXXXXXXXXXXXXXX.XXoo    ooXXXXXXXXXXXXXXXXXXXXXXXXXXXX.XXXXXXXXXXXXXXXXXXXXXXXX.XXoo    ooXXXXXXXXXXXXXXXXXXXXXXXXXXXX.XXXXXXXXXXXXXXXXXXXXXXXX.XXoo    ooXXXXXXXXXXXXXXXXXXXXXXXXXXXX.XXXXXXXXXXXXXXXXXXXXXXXX.XXoo    ooXXXXXXXXXXXXXXXXXXXXXXXXXXXX.XXXXXXXXXXXXXXXXXXXXXXXX.XXoo",
"XXX...XXXXX.....XXX.XXX...X......X.......oo .  o..X..XX...X...XXXXX...XXXXX.....XXX.XXX...X......X.......oo .  o..X..XX...X...XXXXX...XXXXX.....XXX.XXX...X......X.......oo .  o..X..XX...X...XXXXX...XXXXX.....XXX.XXX...X......X.......oo .  o..X..XX...X...XXXXX...XXXXX.....XXX.XXX...X......X.......oo .  o..X..XX...X...XXXXX...XXXXX.....XXX.XXX...X......X.......oo .  o..X..XX...X...XXXXX...XXXXX.....XXX.XXX...X......X.......oo .  o..X..XX...X...XXXXX...XXXXX.....XXX.XXX...X......X.......oo",
"..................XX.......X..............o    ...................................XX.......X..............o    ...................................XX.......X..............o    ...................................XX.......X..............o    ...................................XX.......X..............o    ...................................XX.......X..............o    ...................................XX.......X..............o    ...................................XX.......X..............o",
"..   ..........   ..     ..... ..........        ........ ........   ..........   ..     ..... ..........        ........ ........   ..........   ..     ..... ..........        ........ ........   ..........   ..     ..... ..........        ........ ........   ..........   ..     ..... ..........        ........ ........   ..........   ..     ..... ..........        ........ ........   ..........   ..     ..... ..........        ........ ........   ..........   ..     ..... ..........  ",
"                                            .                                                               .                                                               .                                                               .                                                               .                                                               .                                                               .                                                              ",
"                                    .     ...       .                                               .     ...       .                                               .     ...       .                                               .     ...       .                                               .     ...       .                                               .     ...       .                                               .     ...       .                                               .     .",
" ..  ...... .   .     X.. .    ... .     ...X      .     ....    ..  ...... .   .     X.. .    ... .     ...X      .     ....    ..  ...... .   .     X.. .    ... .     ...X      .     ....    ..  ...... .   .     X.. .    ... .     ...X      .     ....    ..  ...... .   .     X.. .    ... .     ...X      .     ....    ..  ...... .   .     X.. .    ... .     ...X      .     ....    ..  ...... .   .     X.. .    ... .     ...X      .     ....    ..  ...... .   .     X.. .    ... .     ..",
"             XX           .          .....                                   XX           .          .....                                   XX           .          .....                                   XX           .          .....                                   XX           .          .....                                   XX           .          .....                                   XX           .          .....                                   XX           .          ..... ",
"ooooooooooo. .X  X.. .ooooooooo..   .oooooooooooo. .o.     .ooooooooooooooo. .X  X.. .ooooooooo..   .oooooooooooo. .o.     .ooooooooooooooo. .X  X.. .ooooooooo..   .oooooooooooo. .o.     .ooooooooooooooo. .X  X.. .ooooooooo..   .oooooooooooo. .o.     .ooooooooooooooo. .X  X.. .ooooooooo..   .oooooooooooo. .o.     .ooooooooooooooo. .X  X.. .ooooooooo..   .oooooooooooo. .o.     .ooooooooooooooo. .X  X.. .ooooooooo..   .oooooooooooo. .o.     .ooooooooooooooo. .X  X.. .ooooooooo..   .oooooo",
"oo.ooooooooo  .  .oooooooXoooooooooooooooooooooooooooooooooooooooo.ooooooooo  .  .oooooooXoooooooooooooooooooooooooooooooooooooooo.ooooooooo  .  .oooooooXoooooooooooooooooooooooooooooooooooooooo.ooooooooo  .  .oooooooXoooooooooooooooooooooooooooooooooooooooo.ooooooooo  .  .oooooooXoooooooooooooooooooooooooooooooooooooooo.ooooooooo  .  .oooooooXoooooooooooooooooooooooooooooooooooooooo.ooooooooo  .  .oooooooXoooooooooooooooooooooooooooooooooooooooo.ooooooooo  .  .oooooooXooooooooooooooooo",
"ooXXoooooooo  X  oooooooXXooXoooXXXXoooXXXXXXXooooXoooooooooooooooXXoooooooo  X  oooooooXXooXoooXXXXoooXXXXXXXooooXoooooooooooooooXXoooooooo  X  oooooooXXooXoooXXXXoooXXXXXXXooooXoooooooooooooooXXoooooooo  X  oooooooXXooXoooXXXXoooXXXXXXXooooXoooooooooooooooXXoooooooo  X  oooooooXXooXoooXXXXoooXXXXXXXooooXoooooooooooooooXXoooooooo  X  oooooooXXooXoooXXXXoooXXXXXXXooooXoooooooooooooooXXoooooooo  X  oooooooXXooXoooXXXXoooXXXXXXXooooXoooooooooooooooXXoooooooo  X  oooooooXXooXoooXXXXoooXXXX",
".XXXXXXXXXXo. .  oXXXXXXXXXXXXXXXXXXXXXXXXXXXXXXXXXXXXXXXXXXXXX..XXXXXXXXXXo. .  oXXXXXXXXXXXXXXXXXXXXXXXXXXXXXXXXXXXXXXXXXXXXX..XXXXXXXXXXo. .  oXXXXXXXXXXXXXXXXXXXXXXXXXXXXXXXXXXXXXXXXXXXXX..XXXXXXXXXXo. .  oXXXXXXXXXXXXXXXXXXXXXXXXXXXXXXXXXXXXXXXXXXXXX..XXXXXXXXXXo. .  oXXXXXXXXXXXXXXXXXXXXXXXXXXXXXXXXXXXXXXXXXXXXX..XXXXXXXXXXo. .  oXXXXXXXXXXXXXXXXXXXXXXXXXXXXXXXXXXXXXXXXXXXXX..XXXXXXXXXXo. .  oXXXXXXXXXXXXXXXXXXXXXXXXXXXXXXXXXXXXXXXXXXXXX..XXXXXXXXXXo. .  oXXXXXXXXXXXXXXXXXXXXXXXXX",
"XXXXXXXXXXXoo    oXXXX XXXXXXXXXXXXXXXXXXXXXXXXXXXXXXXXXXXXXXXXXXXXXXXXXXXXoo    oXXXX XXXXXXXXXXXXXXXXXXXXXXXXXXXXXXXXXXXXXXXXXXXXXXXXXXXXoo    oXXXX XXXXXXXXXXXXXXXXXXXXXXXXXXXXXXXXXXXXXXXXXXXXXXXXXXXXoo    oXXXX XXXXXXXXXXXXXXXXXXXXXXXXXXXXXXXXXXXXXXXXXXXXXXXXXXXXoo    oXXXX XXXXXXXXXXXXXXXXXXXXXXXXXXXXXXXXXXXXXXXXXXXXXXXXXXXXoo    oXXXX XXXXXXXXXXXXXXXXXXXXXXXXXXXXXXXXXXXXXXXXXXXXXXXXXXXXoo    oXXXX XXXXXXXXXXXXXXXXXXXXXXXXXXXXXXXXXXXXXXXXXXXXXXXXXXXXoo    oXXXX XXXXXXXXXXXXXXXXXXXX",
"XXXXXXXXXXXXo .  oXXXX.XXXXXXXXX.X.XXXXXXXXXXXXXXXXXXXXXXXXXXXXXXXXXXXXXXXXXo .  oXXXX.XXXXXXXXX.X.XXXXXXXXXXXXXXXXXXXXXXXXXXXXXXXXXXXXXXXXXo .  oXXXX.XXXXXXXXX.X.XXXXXXXXXXXXXXXXXXXXXXXXXXXXXXXXXXXXXXXXXo .  oXXXX.XXXXXXXXX.X.XXXXXXXXXXXXXXXXXXXXXXXXXXXXXXXXXXXXXXXXXo .  oXXXX.XXXXXXXXX.X.XXXXXXXXXXXXXXXXXXXXXXXXXXXXXXXXXXXXXXXXXo .  oXXXX.XXXXXXXXX.X.XXXXXXXXXXXXXXXXXXXXXXXXXXXXXXXXXXXXXXXXXo .  oXXXX.XXXXXXXXX.X.XXXXXXXXXXXXXXXXXXXXXXXXXXXXXXXXXXXXXXXXXo .  oXXXX.XXXXXXXXX.X.XXXXXXXX",
"XXXXXX XXXXXo .  oXXXXXXXXXXXXX..oXXXXXXXXXXXXXX.XXXXXXXXX.XXXXXXXXXXX XXXXXo .  oXXXXXXXXXXXXX..oXXXXXXXXXXXXXX.XXXXXXXXX.XXXXXXXXXXX XXXXXo .  oXXXXXXXXXXXXX..oXXXXXXXXXXXXXX.XXXXXXXXX.XXXXXXXXXXX XXXXXo .  oXXXXXXXXXXXXX..oXXXXXXXXXXXXXX.XXXXXXXXX.XXXXXXXXXXX XXXXXo .  oXXXXXXXXXXXXX..oXXXXXXXXXXXXXX.XXXXXXXXX.XXXXXXXXXXX XXXXXo .  oXXXXXXXXXXXXX..oXXXXXXXXXXXXXX.XXXXXXXXX.XXXXXXXXXXX XXXXXo .  oXXXXXXXXXXXXX..oXXXXXXXXXXXXXX.XXXXXXXXX.XXXXXXXXXXX XXXXXo .  oXXXXXXXXXXXXX..oXXXXXXXXX",
"XXXXXX.XXXXoo    ooXXXXXXXXXX.. .XXXXXXXXXXXXXXX.XXXXXXXX.XXXXXXXXXXXX.XXXXoo    ooXXXXXXXXXX.. .XXXXXXXXXXXXXXX.XXXXXXXX.XXXXXXXXXXXX.XXXXoo    ooXXXXXXXXXX.. .XXXXXXXXXXXXXXX.XXXXXXXX.XXXXXXXXXXXX.XXXXoo    ooXXXXXXXXXX.. .XXXXXXXXXXXXXXX.XXXXXXXX.XXXXXXXXXXXX.XXXXoo    ooXXXXXXXXXX.. .XXXXXXXXXXXXXXX.XXXXXXXX.XXXXXXXXXXXX.XXXXoo    ooXXXXXXXXXX.. .XXXXXXXXXXXXXXX.XXXXXXXX.XXXXXXXXXXXX.XXXXoo    ooXXXXXXXXXX.. .XXXXXXXXXXXXXXX.XXXXXXXX.XXXXXXXXXXXX.XXXXoo    ooXXXXXXXXXX.. .XXXXXXXXXX",
"XXXXXXXXXXXoo    ooXXXXXXXX.   .oXXXX XXXXXXXXXXoXXXXXXXX.oXXXXXXXXXXXXXXXXoo    ooXXXXXXXX.   .oXXXX XXXXXXXXXXoXXXXXXXX.oXXXXXXXXXXXXXXXXoo    ooXXXXXXXX.   .oXXXX XXXXXXXXXXoXXXXXXXX.oXXXXXXXXXXXXXXXXoo    ooXXXXXXXX.   .oXXXX XXXXXXXXXXoXXXXXXXX.oXXXXXXXXXXXXXXXXoo    ooXXXXXXXX.   .oXXXX XXXXXXXXXXoXXXXXXXX.oXXXXXXXXXXXXXXXXoo    ooXXXXXXXX.   .oXXXX XXXXXXXXXXoXXXXXXXX.oXXXXXXXXXXXXXXXXoo    ooXXXXXXXX.   .oXXXX XXXXXXXXXXoXXXXXXXX.oXXXXXXXXXXXXXXXXoo    ooXXXXXXXX.   .oXXXX XXXXX",
"XXXXXXXXXXXXo    XoXXXXXXX.oooo.XXXXX.XXXXXXXXXXXXXXXXXXXXoXXXXXXXXXXXXXXXXXo    XoXXXXXXX.oooo.XXXXX.XXXXXXXXXXXXXXXXXXXXoXXXXXXXXXXXXXXXXXo    XoXXXXXXX.oooo.XXXXX.XXXXXXXXXXXXXXXXXXXXoXXXXXXXXXXXXXXXXXo    XoXXXXXXX.oooo.XXXXX.XXXXXXXXXXXXXXXXXXXXoXXXXXXXXXXXXXXXXXo    XoXXXXXXX.oooo.XXXXX.XXXXXXXXXXXXXXXXXXXXoXXXXXXXXXXXXXXXXXo    XoXXXXXXX.oooo.XXXXX.XXXXXXXXXXXXXXXXXXXXoXXXXXXXXXXXXXXXXXo    XoXXXXXXX.oooo.XXXXX.XXXXXXXXXXXXXXXXXXXXoXXXXXXXXXXXXXXXXXo    XoXXXXXXX.oooo.XXXXX.XXXXX",
"XXXXXXXXXXXXo    XoXXXXXXXXXXXXXXXXXXXXXXXXXXXXXXXXXXXXXXoXXXXXXXXXXXXXXXXXXo    XoXXXXXXXXXXXXXXXXXXXXXXXXXXXXXXXXXXXXXXoXXXXXXXXXXXXXXXXXXo    XoXXXXXXXXXXXXXXXXXXXXXXXXXXXXXXXXXXXXXXoXXXXXXXXXXXXXXXXXXo    XoXXXXXXXXXXXXXXXXXXXXXXXXXXXXXXXXXXXXXXoXXXXXXXXXXXXXXXXXXo    XoXXXXXXXXXXXXXXXXXXXXXXXXXXXXXXXXXXXXXXoXXXXXXXXXXXXXXXXXXo    XoXXXXXXXXXXXXXXXXXXXXXXXXXXXXXXXXXXXXXXoXXXXXXXXXXXXXXXXXXo    XoXXXXXXXXXXXXXXXXXXXXXXXXXXXXXXXXXXXXXXoXXXXXXXXXXXXXXXXXXo    XoXXXXXXXXXXXXXXXXXXXXXXXX",
"XXXXXXXXXXXoo  . ooXXXXXXXXXXXXXXXXXXXXXXXXXXXXXXXXXXXXXXXXXXXXXXXXXXXXXXXXoo  . ooXXXXXXXXXXXXXXXXXXXXXXXXXXXXXXXXXXXXXXXXXXXXXXXXXXXXXXXXoo  . ooXXXXXXXXXXXXXXXXXXXXXXXXXXXXXXXXXXXXXXXXXXXXXXXXXXXXXXXXoo  . ooXXXXXXXXXXXXXXXXXXXXXXXXXXXXXXXXXXXXXXXXXXXXXXXXXXXXXXXXoo  . ooXXXXXXXXXXXXXXXXXXXXXXXXXXXXXXXXXXXXXXXXXXXXXXXXXXXXXXXXoo  . ooXXXXXXXXXXXXXXXXXXXXXXXXXXXXXXXXXXXXXXXXXXXXXXXXXXXXXXXXoo  . ooXXXXXXXXXXXXXXXXXXXXXXXXXXXXXXXXXXXXXXXXXXXXXXXXXXXXXXXXoo  . ooXXXXXXXXXXXXXXXXXXXXXXXX",
"XXXXXXXXXXXoo    ooXX.XXXXXXXXXXXXXXXXXXXX..XXXXXXXXXXXXXXXXXXXXXXXXXXXXXXXoo    ooXX.XXXXXXXXXXXXXXXXXXXX..XXXXXXXXXXXXXXXXXXXXXXXXXXXXXXXoo    ooXX.XXXXXXXXXXXXXXXXXXXX..XXXXXXXXXXXXXXXXXXXXXXXXXXXXXXXoo    ooXX.XXXXXXXXXXXXXXXXXXXX..XXXXXXXXXXXXXXXXXXXXXXXXXXXXXXXoo    ooXX.XXXXXXXXXXXXXXXXXXXX..XXXXXXXXXXXXXXXXXXXXXXXXXXXXXXXoo    ooXX.XXXXXXXXXXXXXXXXXXXX..XXXXXXXXXXXXXXXXXXXXXXXXXXXXXXXoo    ooXX.XXXXXXXXXXXXXXXXXXXX..XXXXXXXXXXXXXXXXXXXXXXXXXXXXXXXoo    ooXX.XXXXXXXXXXXXXXXXXXXX.",
"XXXX..XXXXXoo    ooXXX.XXXXXXXXXXXXXXXXXXXXXXXXXXXXXXXXXXXXXXXXXXXXX..XXXXXoo    ooXXX.XXXXXXXXXXXXXXXXXXXXXXXXXXXXXXXXXXXXXXXXXXXXX..XXXXXoo    ooXXX.XXXXXXXXXXXXXXXXXXXXXXXXXXXXXXXXXXXXXXXXXXXXX..XXXXXoo    ooXXX.XXXXXXXXXXXXXXXXXXXXXXXXXXXXXXXXXXXXXXXXXXXXX..XXXXXoo    ooXXX.XXXXXXXXXXXXXXXXXXXXXXXXXXXXXXXXXXXXXXXXXXXXX..XXXXXoo    ooXXX.XXXXXXXXXXXXXXXXXXXXXXXXXXXXXXXXXXXXXXXXXXXXX..XXXXXoo    ooXXX.XXXXXXXXXXXXXXXXXXXXXXXXXXXXXXXXXXXXXXXXXXXXX..XXXXXoo    ooXXX.XXXXXXXXXXXXXXXXXXXX",
"XXXXXX....oo. .  o.......XXXXX.......XXXXXXXXXXXX....XXX..XXX.XXXXXXXX....oo. .  o.......XXXXX.......XXXXXXXXXXXX....XXX..XXX.XXXXXXXX....oo. .  o.......XXXXX.......XXXXXXXXXXXX....XXX..XXX.XXXXXXXX....oo. .  o.......XXXXX.......XXXXXXXXXXXX....XXX..XXX.XXXXXXXX....oo. .  o.......XXXXX.......XXXXXXXXXXXX....XXX..XXX.XXXXXXXX....oo. .  o.......XXXXX.......XXXXXXXXXXXX....XXX..XXX.XXXXXXXX....oo. .  o.......XXXXX.......XXXXXXXXXXXX....XXX..XXX.XXXXXXXX....oo. .  o.......XXXXX.......XXXXXX",
".X.........o  .   ......X................XX......................X.........o  .   ......X................XX......................X.........o  .   ......X................XX......................X.........o  .   ......X................XX......................X.........o  .   ......X................XX......................X.........o  .   ......X................XX......................X.........o  .   ......X................XX......................X.........o  .   ......X................XX",
".........         ..  .... ....  . .............   . ....................         ..  .... ....  . .............   . ....................         ..  .... ....  . .............   . ....................         ..  .... ....  . .............   . ....................         ..  .... ....  . .............   . ....................         ..  .... ....  . .............   . ....................         ..  .... ....  . .............   . ....................         ..  .... ....  . ........",
"            .                                                               .                                                               .                                                               .                                                               .                                                               .                                                               .                                                               .                              ",
"           ...                                                             ...                                                             ...                                                             ...                                                             ...                                                             ...                                                             ...                                                             ...                             ",
"   ...    ...... .......X .X   ..  ...  .....           ..         ...    ...... .......X .X   ..  ...  .....           ..         ...    ...... .......X .X   ..  ...  .....           ..         ...    ...... .......X .X   ..  ...  .....           ..         ...    ...... .......X .X   ..  ...  .....           ..         ...    ...... .......X .X   ..  ...  .....           ..         ...    ...... .......X .X   ..  ...  .....           ..         ...    ...... .......X .X   ..  ...  ...",
"     ....    ..    .       ..       ...                              ....    ..    .       ..       ...                              ....    ..    .       ..       ...                              ....    ..    .       ..       ...                              ....    ..    .       ..       ...                              ....    ..    .       ..       ...                              ....    ..    .       ..       ...                              ....    ..    .       ..       ...    ",
"oooooooooooooooooooooooo.  X.  .Xooooooooooo. .oooo..        .oooooooooooooooooooooooooo.  X.  .Xooooooooooo. .oooo..        .oooooooooooooooooooooooooo.  X.  .Xooooooooooo. .oooo..        .oooooooooooooooooooooooooo.  X.  .Xooooooooooo. .oooo..        .oooooooooooooooooooooooooo.  X.  .Xooooooooooo. .oooo..        .oooooooooooooooooooooooooo.  X.  .Xooooooooooo. .oooo..        .oooooooooooooooooooooooooo.  X.  .Xooooooooooo. .oooo..        .oooooooooooooooooooooooooo.  X.  .Xoooooooooo",
"ooooooo.  ooXoXooXooooooo.  . .XoooooXoooXooo.ooooooo. .ooooooooooooooo.  ooXoXooXooooooo.  . .XoooooXoooXooo.ooooooo. .ooooooooooooooo.  ooXoXooXooooooo.  . .XoooooXoooXooo.ooooooo. .ooooooooooooooo.  ooXoXooXooooooo.  . .XoooooXoooXooo.ooooooo. .ooooooooooooooo.  ooXoXooXooooooo.  . .XoooooXoooXooo.ooooooo. .ooooooooooooooo.  ooXoXooXooooooo.  . .XoooooXoooXooo.ooooooo. .ooooooooooooooo.  ooXoXooXooooooo.  . .XoooooXoooXooo.ooooooo. .ooooooooooooooo.  ooXoXooXooooooo.  . .XoooooXoooXo",
"oooXXXXo   XXXXXXXXXoXoooo X  XoXooXXXXXXXXXXXXooXXXoooooXXoXooooooXXXXo   XXXXXXXXXoXoooo X  XoXooXXXXXXXXXXXXooXXXoooooXXoXooooooXXXXo   XXXXXXXXXoXoooo X  XoXooXXXXXXXXXXXXooXXXoooooXXoXooooooXXXXo   XXXXXXXXXoXoooo X  XoXooXXXXXXXXXXXXooXXXoooooXXoXooooooXXXXo   XXXXXXXXXoXoooo X  XoXooXXXXXXXXXXXXooXXXoooooXXoXooooooXXXXo   XXXXXXXXXoXoooo X  XoXooXXXXXXXXXXXXooXXXoooooXXoXooooooXXXXo   XXXXXXXXXoXoooo X  XoXooXXXXXXXXXXXXooXXXoooooXXoXooooooXXXXo   XXXXXXXXXoXoooo X  XoXooXXXXXXXX",
"XXXoXXXXo.  XXXXXXXXXXXXoX X  XoXXXXXXXXXXXXXXXXXXXXXXXXXXXXXXXXXXXoXXXXo.  XXXXXXXXXXXXoX X  XoXXXXXXXXXXXXXXXXXXXXXXXXXXXXXXXXXXXoXXXXo.  XXXXXXXXXXXXoX X  XoXXXXXXXXXXXXXXXXXXXXXXXXXXXXXXXXXXXoXXXXo.  XXXXXXXXXXXXoX X  XoXXXXXXXXXXXXXXXXXXXXXXXXXXXXXXXXXXXoXXXXo.  XXXXXXXXXXXXoX X  XoXXXXXXXXXXXXXXXXXXXXXXXXXXXXXXXXXXXoXXXXo.  XXXXXXXXXXXXoX X  XoXXXXXXXXXXXXXXXXXXXXXXXXXXXXXXXXXXXoXXXXo.  XXXXXXXXXXXXoX X  XoXXXXXXXXXXXXXXXXXXXXXXXXXXXXXXXXXXXoXXXXo.  XXXXXXXXXXXXoX X  XoXXXXXXXXXXX",
"XXXXXXXXXo. .XXXXXXXXXXXXo    oXXXXXXXXXXXXXXXXXXXXXXXXXXXXXXXXXXXXXXXXXXo. .XXXXXXXXXXXXo    oXXXXXXXXXXXXXXXXXXXXXXXXXXXXXXXXXXXXXXXXXXo. .XXXXXXXXXXXXo    oXXXXXXXXXXXXXXXXXXXXXXXXXXXXXXXXXXXXXXXXXXo. .XXXXXXXXXXXXo    oXXXXXXXXXXXXXXXXXXXXXXXXXXXXXXXXXXXXXXXXXXo. .XXXXXXXXXXXXo    oXXXXXXXXXXXXXXXXXXXXXXXXXXXXXXXXXXXXXXXXXXo. .XXXXXXXXXXXXo    oXXXXXXXXXXXXXXXXXXXXXXXXXXXXXXXXXXXXXXXXXXo. .XXXXXXXXXXXXo    oXXXXXXXXXXXXXXXXXXXXXXXXXXXXXXXXXXXXXXXXXXo. .XXXXXXXXXXXXo    oXXXXXXXXXXXX",
"XXXXXXXXXXo.. XXXXXXXXXXXo .  oXXXXXXXXXXXXXXXX  XXXXXXXXXXXXXXXXXXXXXXXXXo.. XXXXXXXXXXXo .  oXXXXXXXXXXXXXXXX  XXXXXXXXXXXXXXXXXXXXXXXXXo.. XXXXXXXXXXXo .  oXXXXXXXXXXXXXXXX  XXXXXXXXXXXXXXXXXXXXXXXXXo.. XXXXXXXXXXXo .  oXXXXXXXXXXXXXXXX  XXXXXXXXXXXXXXXXXXXXXXXXXo.. XXXXXXXXXXXo .  oXXXXXXXXXXXXXXXX  XXXXXXXXXXXXXXXXXXXXXXXXXo.. XXXXXXXXXXXo .  oXXXXXXXXXXXXXXXX  XXXXXXXXXXXXXXXXXXXXXXXXXo.. XXXXXXXXXXXo .  oXXXXXXXXXXXXXXXX  XXXXXXXXXXXXXXXXXXXXXXXXXo.. XXXXXXXXXXXo .  oXXXXXXXXXXXX",
"XXXXXXXXXXXo..XXXXXXXXXXoo .  oXXXXXXXXXXXXXXXX..   XXXXXXXXXXXXXXXXXXXXXXXo..XXXXXXXXXXoo .  oXXXXXXXXXXXXXXXX..   XXXXXXXXXXXXXXXXXXXXXXXo..XXXXXXXXXXoo .  oXXXXXXXXXXXXXXXX..   XXXXXXXXXXXXXXXXXXXXXXXo..XXXXXXXXXXoo .  oXXXXXXXXXXXXXXXX..   XXXXXXXXXXXXXXXXXXXXXXXo..XXXXXXXXXXoo .  oXXXXXXXXXXXXXXXX..   XXXXXXXXXXXXXXXXXXXXXXXo..XXXXXXXXXXoo .  oXXXXXXXXXXXXXXXX..   XXXXXXXXXXXXXXXXXXXXXXXo..XXXXXXXXXXoo .  oXXXXXXXXXXXXXXXX..   XXXXXXXXXXXXXXXXXXXXXXXo..XXXXXXXXXXoo .  oXXXXXXXXXXXX",
"..XXXXXXXXXXX..XXXXXXXXXoo .  ooXXXXXXXXXXXXXXXXo....XXXXXXXXXXX..XXXXXXXXXXX..XXXXXXXXXoo .  ooXXXXXXXXXXXXXXXXo....XXXXXXXXXXX..XXXXXXXXXXX..XXXXXXXXXoo .  ooXXXXXXXXXXXXXXXXo....XXXXXXXXXXX..XXXXXXXXXXX..XXXXXXXXXoo .  ooXXXXXXXXXXXXXXXXo....XXXXXXXXXXX..XXXXXXXXXXX..XXXXXXXXXoo .  ooXXXXXXXXXXXXXXXXo....XXXXXXXXXXX..XXXXXXXXXXX..XXXXXXXXXoo .  ooXXXXXXXXXXXXXXXXo....XXXXXXXXXXX..XXXXXXXXXXX..XXXXXXXXXoo .  ooXXXXXXXXXXXXXXXXo....XXXXXXXXXXX..XXXXXXXXXXX..XXXXXXXXXoo .  ooXXXXXXXXXXX",
"XXXXXXXXXXXXXo..XXXXXXXXXo    ooXXXXXXX...XXXXXXXXXXXXXXXXXXXXXXXXXXXXXXXXXXXo..XXXXXXXXXo    ooXXXXXXX...XXXXXXXXXXXXXXXXXXXXXXXXXXXXXXXXXXXo..XXXXXXXXXo    ooXXXXXXX...XXXXXXXXXXXXXXXXXXXXXXXXXXXXXXXXXXXo..XXXXXXXXXo    ooXXXXXXX...XXXXXXXXXXXXXXXXXXXXXXXXXXXXXXXXXXXo..XXXXXXXXXo    ooXXXXXXX...XXXXXXXXXXXXXXXXXXXXXXXXXXXXXXXXXXXo..XXXXXXXXXo    ooXXXXXXX...XXXXXXXXXXXXXXXXXXXXXXXXXXXXXXXXXXXo..XXXXXXXXXo    ooXXXXXXX...XXXXXXXXXXXXXXXXXXXXXXXXXXXXXXXXXXXo..XXXXXXXXXo    ooXXXXXXX...X",
"XXXXXXXXXXXXXXX.XXXXXXXXoo X  XoXXXXXXXo...XXXXXXXXXXXXXXXXXXXXXXXXXXXXXXXXXXXX.XXXXXXXXoo X  XoXXXXXXXo...XXXXXXXXXXXXXXXXXXXXXXXXXXXXXXXXXXXX.XXXXXXXXoo X  XoXXXXXXXo...XXXXXXXXXXXXXXXXXXXXXXXXXXXXXXXXXXXX.XXXXXXXXoo X  XoXXXXXXXo...XXXXXXXXXXXXXXXXXXXXXXXXXXXXXXXXXXXX.XXXXXXXXoo X  XoXXXXXXXo...XXXXXXXXXXXXXXXXXXXXXXXXXXXXXXXXXXXX.XXXXXXXXoo X  XoXXXXXXXo...XXXXXXXXXXXXXXXXXXXXXXXXXXXXXXXXXXXX.XXXXXXXXoo X  XoXXXXXXXo...XXXXXXXXXXXXXXXXXXXXXXXXXXXXXXXXXXXX.XXXXXXXXoo X  XoXXXXXXXo...",
"XXXXXXXXXXXXXo..XXXXXXXXXo .  ooXXXXXXXXooo.XXXXXXXXXXXX.XXXXXXXXXXXXXXXXXXXXo..XXXXXXXXXo .  ooXXXXXXXXooo.XXXXXXXXXXXX.XXXXXXXXXXXXXXXXXXXXo..XXXXXXXXXo .  ooXXXXXXXXooo.XXXXXXXXXXXX.XXXXXXXXXXXXXXXXXXXXo..XXXXXXXXXo .  ooXXXXXXXXooo.XXXXXXXXXXXX.XXXXXXXXXXXXXXXXXXXXo..XXXXXXXXXo .  ooXXXXXXXXooo.XXXXXXXXXXXX.XXXXXXXXXXXXXXXXXXXXo..XXXXXXXXXo .  ooXXXXXXXXooo.XXXXXXXXXXXX.XXXXXXXXXXXXXXXXXXXXo..XXXXXXXXXo .  ooXXXXXXXXooo.XXXXXXXXXXXX.XXXXXXXXXXXXXXXXXXXXo..XXXXXXXXXo .  ooXXXXXXXXooo",
"XXXXXXXXXXXXXXXoXXXXXXXXXo .  oXXXXXXXXXXXXXXXXXX. XXXXXX.XXXXXXXXXXXXXXXXXXXXXoXXXXXXXXXo .  oXXXXXXXXXXXXXXXXXX. XXXXXX.XXXXXXXXXXXXXXXXXXXXXoXXXXXXXXXo .  oXXXXXXXXXXXXXXXXXX. XXXXXX.XXXXXXXXXXXXXXXXXXXXXoXXXXXXXXXo .  oXXXXXXXXXXXXXXXXXX. XXXXXX.XXXXXXXXXXXXXXXXXXXXXoXXXXXXXXXo .  oXXXXXXXXXXXXXXXXXX. XXXXXX.XXXXXXXXXXXXXXXXXXXXXoXXXXXXXXXo .  oXXXXXXXXXXXXXXXXXX. XXXXXX.XXXXXXXXXXXXXXXXXXXXXoXXXXXXXXXo .  oXXXXXXXXXXXXXXXXXX. XXXXXX.XXXXXXXXXXXXXXXXXXXXXoXXXXXXXXXo .  oXXXXXXXXXXXX",
"XXXXXXXXXXXXXXXXXXXXXXXXoo .  ooXXXXXXXXXXXXXXXXXXXXXXXXXXXXXXXXXXXXXXXXXXXXXXXXXXXXXXXXoo .  ooXXXXXXXXXXXXXXXXXXXXXXXXXXXXXXXXXXXXXXXXXXXXXXXXXXXXXXXXoo .  ooXXXXXXXXXXXXXXXXXXXXXXXXXXXXXXXXXXXXXXXXXXXXXXXXXXXXXXXXoo .  ooXXXXXXXXXXXXXXXXXXXXXXXXXXXXXXXXXXXXXXXXXXXXXXXXXXXXXXXXoo .  ooXXXXXXXXXXXXXXXXXXXXXXXXXXXXXXXXXXXXXXXXXXXXXXXXXXXXXXXXoo .  ooXXXXXXXXXXXXXXXXXXXXXXXXXXXXXXXXXXXXXXXXXXXXXXXXXXXXXXXXoo .  ooXXXXXXXXXXXXXXXXXXXXXXXXXXXXXXXXXXXXXXXXXXXXXXXXXXXXXXXXoo .  ooXXXXXXXXXXX",
"XXXXXXXXXXXXXXXXXXXX..XXoo    ooXX.XXXXXXXXXXXXXXXXXXXXXXXXXXXXXXXXXXXXXXXXXXXXXXXXX..XXoo    ooXX.XXXXXXXXXXXXXXXXXXXXXXXXXXXXXXXXXXXXXXXXXXXXXXXXX..XXoo    ooXX.XXXXXXXXXXXXXXXXXXXXXXXXXXXXXXXXXXXXXXXXXXXXXXXXX..XXoo    ooXX.XXXXXXXXXXXXXXXXXXXXXXXXXXXXXXXXXXXXXXXXXXXXXXXXX..XXoo    ooXX.XXXXXXXXXXXXXXXXXXXXXXXXXXXXXXXXXXXXXXXXXXXXXXXXX..XXoo    ooXX.XXXXXXXXXXXXXXXXXXXXXXXXXXXXXXXXXXXXXXXXXXXXXXXXX..XXoo    ooXX.XXXXXXXXXXXXXXXXXXXXXXXXXXXXXXXXXXXXXXXXXXXXXXXXX..XXoo    ooXX.XXXXXXXX",
"XX..X...XXXXXXXXXX.......o    o....XXXXXXXXXXX....XXXXXX....XXXXXX..X...XXXXXXXXXX.......o    o....XXXXXXXXXXX....XXXXXX....XXXXXX..X...XXXXXXXXXX.......o    o....XXXXXXXXXXX....XXXXXX....XXXXXX..X...XXXXXXXXXX.......o    o....XXXXXXXXXXX....XXXXXX....XXXXXX..X...XXXXXXXXXX.......o    o....XXXXXXXXXXX....XXXXXX....XXXXXX..X...XXXXXXXXXX.......o    o....XXXXXXXXXXX....XXXXXX....XXXXXX..X...XXXXXXXXXX.......o    o....XXXXXXXXXXX....XXXXXX....XXXXXX..X...XXXXXXXXXX.......o    o....XXXXXXXX",
".........X......X........  .  ...............XXX....X....................X......X........  .  ...............XXX....X....................X......X........  .  ...............XXX....X....................X......X........  .  ...............XXX....X....................X......X........  .  ...............XXX....X....................X......X........  .  ...............XXX....X....................X......X........  .  ...............XXX....X....................X......X........  .  .............",
".... ...................  ..      .....  ...............        .... ...................  ..      .....  ...............        .... ...................  ..      .....  ...............        .... ...................  ..      .....  ...............        .... ...................  ..      .....  ...............        .... ...................  ..      .....  ...............        .... ...................  ..      .....  ...............        .... ...................  ..      .....  ..",
"                          .                                                               .                                                               .                                                               .                                                               .                                                               .                                                               .                                                               .                ",
"                        ....                                .                           ....                                .                           ....                                .                           ....                                .                           ....                                .                           ....                                .                           ....                                .                           ....               ",
"... ..        ....  ...  . ..           ...X  ....     ..  .    ... ..        ....  ...  . ..           ...X  ....     ..  .    ... ..        ....  ...  . ..           ...X  ....     ..  .    ... ..        ....  ...  . ..           ...X  ....     ..  .    ... ..        ....  ...  . ..           ...X  ....     ..  .    ... ..        ....  ...  . ..           ...X  ....     ..  .    ... ..        ....  ...  . ..           ...X  ....     ..  .    ... ..        ....  ...  . ..           ...",
"      . .                                  .X                         . .                                  .X                         . .                                  .X                         . .                                  .X                         . .                                  .X                         . .                                  .X                         . .                                  .X                         . .                                  ",
" .Xoooooooooo.oX..Xoo..ooooo. .ooooooXXX..  .   .XX.. .   .Xooo. .Xoooooooooo.oX..Xoo..ooooo. .ooooooXXX..  .   .XX.. .   .Xooo. .Xoooooooooo.oX..Xoo..ooooo. .ooooooXXX..  .   .XX.. .   .Xooo. .Xoooooooooo.oX..Xoo..ooooo. .ooooooXXX..  .   .XX.. .   .Xooo. .Xoooooooooo.oX..Xoo..ooooo. .ooooooXXX..  .   .XX.. .   .Xooo. .Xoooooooooo.oX..Xoo..ooooo. .ooooooXXX..  .   .XX.. .   .Xooo. .Xoooooooooo.oX..Xoo..ooooo. .ooooooXXX..  .   .XX.. .   .Xooo. .Xoooooooooo.oX..Xoo..ooooo. .ooooooXXX.. ",
"ooooooooXooooXooooooooooooooooooXooooooooo. .   ooooooooooooooooooooooooXooooXooooooooooooooooooXooooooooo. .   ooooooooooooooooooooooooXooooXooooooooooooooooooXooooooooo. .   ooooooooooooooooooooooooXooooXooooooooooooooooooXooooooooo. .   ooooooooooooooooooooooooXooooXooooooooooooooooooXooooooooo. .   ooooooooooooooooooooooooXooooXooooooooooooooooooXooooooooo. .   ooooooooooooooooooooooooXooooXooooooooooooooooooXooooooooo. .   ooooooooooooooooooooooooXooooXooooooooooooooooooXooooooooo.",
"oooXXXoXXXXXXXXXXXoooXXoooooXoooXXXXoooooo. .   ooooooXXoXoooXoooooXXXoXXXXXXXXXXXoooXXoooooXoooXXXXoooooo. .   ooooooXXoXoooXoooooXXXoXXXXXXXXXXXoooXXoooooXoooXXXXoooooo. .   ooooooXXoXoooXoooooXXXoXXXXXXXXXXXoooXXoooooXoooXXXXoooooo. .   ooooooXXoXoooXoooooXXXoXXXXXXXXXXXoooXXoooooXoooXXXXoooooo. .   ooooooXXoXoooXoooooXXXoXXXXXXXXXXXoooXXoooooXoooXXXXoooooo. .   ooooooXXoXoooXoooooXXXoXXXXXXXXXXXoooXXoooooXoooXXXXoooooo. .   ooooooXXoXoooXoooooXXXoXXXXXXXXXXXoooXXoooooXoooXXXXoooooo.",
"XXXXXX.XXXXXXXXXXXXXXXXXXXXXXXXXXXXXXXXXXoX .  .oXXXXXXXXXXXXXXXXXXXXX.XXXXXXXXXXXXXXXXXXXXXXXXXXXXXXXXXXoX .  .oXXXXXXXXXXXXXXXXXXXXX.XXXXXXXXXXXXXXXXXXXXXXXXXXXXXXXXXXoX .  .oXXXXXXXXXXXXXXXXXXXXX.XXXXXXXXXXXXXXXXXXXXXXXXXXXXXXXXXXoX .  .oXXXXXXXXXXXXXXXXXXXXX.XXXXXXXXXXXXXXXXXXXXXXXXXXXXXXXXXXoX .  .oXXXXXXXXXXXXXXXXXXXXX.XXXXXXXXXXXXXXXXXXXXXXXXXXXXXXXXXXoX .  .oXXXXXXXXXXXXXXXXXXXXX.XXXXXXXXXXXXXXXXXXXXXXXXXXXXXXXXXXoX .  .oXXXXXXXXXXXXXXXXXXXXX.XXXXXXXXXXXXXXXXXXXXXXXXXXXXXXXXXXoX",
"XXXXXXXXXXXXXXXXXXXXXXXXXXXXXXXXXXXXXXXXXoX .  .XXXXXXXXXXXXXXXXXXXXXXXXXXXXXXXXXXXXXXXXXXXXXXXXXXXXXXXXXoX .  .XXXXXXXXXXXXXXXXXXXXXXXXXXXXXXXXXXXXXXXXXXXXXXXXXXXXXXXXXoX .  .XXXXXXXXXXXXXXXXXXXXXXXXXXXXXXXXXXXXXXXXXXXXXXXXXXXXXXXXXoX .  .XXXXXXXXXXXXXXXXXXXXXXXXXXXXXXXXXXXXXXXXXXXXXXXXXXXXXXXXXoX .  .XXXXXXXXXXXXXXXXXXXXXXXXXXXXXXXXXXXXXXXXXXXXXXXXXXXXXXXXXoX .  .XXXXXXXXXXXXXXXXXXXXXXXXXXXXXXXXXXXXXXXXXXXXXXXXXXXXXXXXXoX .  .XXXXXXXXXXXXXXXXXXXXXXXXXXXXXXXXXXXXXXXXXXXXXXXXXXXXXXXXXoX",
"XXXXXXXXXXXXXXXXXXXXXXXXXXXXXXXXXXXXX.XXXoo .  XoXXXXXXXXXXXXXXXXXXXXXXXXXXXXXXXXXXXXXXXXXXXXXXXXXXXX.XXXoo .  XoXXXXXXXXXXXXXXXXXXXXXXXXXXXXXXXXXXXXXXXXXXXXXXXXXXXX.XXXoo .  XoXXXXXXXXXXXXXXXXXXXXXXXXXXXXXXXXXXXXXXXXXXXXXXXXXXXX.XXXoo .  XoXXXXXXXXXXXXXXXXXXXXXXXXXXXXXXXXXXXXXXXXXXXXXXXXXXXX.XXXoo .  XoXXXXXXXXXXXXXXXXXXXXXXXXXXXXXXXXXXXXXXXXXXXXXXXXXXXX.XXXoo .  XoXXXXXXXXXXXXXXXXXXXXXXXXXXXXXXXXXXXXXXXXXXXXXXXXXXXX.XXXoo .  XoXXXXXXXXXXXXXXXXXXXXXXXXXXXXXXXXXXXXXXXXXXXXXXXXXXXX.XXXoo",
"XXXXXXXXXXXXXXXXX.XXXXXXXXXXXXXXXXXXX..XXXo  . XoXXXXXXXXXXXXXXXXXXXXXXXXXXXXXXXX.XXXXXXXXXXXXXXXXXXX..XXXo  . XoXXXXXXXXXXXXXXXXXXXXXXXXXXXXXXXX.XXXXXXXXXXXXXXXXXXX..XXXo  . XoXXXXXXXXXXXXXXXXXXXXXXXXXXXXXXXX.XXXXXXXXXXXXXXXXXXX..XXXo  . XoXXXXXXXXXXXXXXXXXXXXXXXXXXXXXXXX.XXXXXXXXXXXXXXXXXXX..XXXo  . XoXXXXXXXXXXXXXXXXXXXXXXXXXXXXXXXX.XXXXXXXXXXXXXXXXXXX..XXXo  . XoXXXXXXXXXXXXXXXXXXXXXXXXXXXXXXXX.XXXXXXXXXXXXXXXXXXX..XXXo  . XoXXXXXXXXXXXXXXXXXXXXXXXXXXXXXXXX.XXXXXXXXXXXXXXXXXXX..XXXo",
"XXXXXXXXXXXXXXXXXoXXXXXXXXXXXXXXXXXXXX.XXoo    ooXXXXX.XXXXXXXXXXXXXXXXXXXXXXXXXXoXXXXXXXXXXXXXXXXXXXX.XXoo    ooXXXXX.XXXXXXXXXXXXXXXXXXXXXXXXXXoXXXXXXXXXXXXXXXXXXXX.XXoo    ooXXXXX.XXXXXXXXXXXXXXXXXXXXXXXXXXoXXXXXXXXXXXXXXXXXXXX.XXoo    ooXXXXX.XXXXXXXXXXXXXXXXXXXXXXXXXXoXXXXXXXXXXXXXXXXXXXX.XXoo    ooXXXXX.XXXXXXXXXXXXXXXXXXXXXXXXXXoXXXXXXXXXXXXXXXXXXXX.XXoo    ooXXXXX.XXXXXXXXXXXXXXXXXXXXXXXXXXoXXXXXXXXXXXXXXXXXXXX.XXoo    ooXXXXX.XXXXXXXXXXXXXXXXXXXXXXXXXXoXXXXXXXXXXXXXXXXXXXX.XXoo",
"XXXXX....XXXXXXXXXXXXXXXXXXXXXX  XXXXXXXXXo    oXXXXXX.XXXXXXXXXXXXXX....XXXXXXXXXXXXXXXXXXXXXX  XXXXXXXXXo    oXXXXXX.XXXXXXXXXXXXXX....XXXXXXXXXXXXXXXXXXXXXX  XXXXXXXXXo    oXXXXXX.XXXXXXXXXXXXXX....XXXXXXXXXXXXXXXXXXXXXX  XXXXXXXXXo    oXXXXXX.XXXXXXXXXXXXXX....XXXXXXXXXXXXXXXXXXXXXX  XXXXXXXXXo    oXXXXXX.XXXXXXXXXXXXXX....XXXXXXXXXXXXXXXXXXXXXX  XXXXXXXXXo    oXXXXXX.XXXXXXXXXXXXXX....XXXXXXXXXXXXXXXXXXXXXX  XXXXXXXXXo    oXXXXXX.XXXXXXXXXXXXXX....XXXXXXXXXXXXXXXXXXXXXX  XXXXXXXXXo",
"XXXXXX.  .XXXXXXXXXXXXXXXXXXXX. .XXXXXXXXXX .  oXXXXXXXXXXXXXXXXXXXXXX.  .XXXXXXXXXXXXXXXXXXXX. .XXXXXXXXXX .  oXXXXXXXXXXXXXXXXXXXXXX.  .XXXXXXXXXXXXXXXXXXXX. .XXXXXXXXXX .  oXXXXXXXXXXXXXXXXXXXXXX.  .XXXXXXXXXXXXXXXXXXXX. .XXXXXXXXXX .  oXXXXXXXXXXXXXXXXXXXXXX.  .XXXXXXXXXXXXXXXXXXXX. .XXXXXXXXXX .  oXXXXXXXXXXXXXXXXXXXXXX.  .XXXXXXXXXXXXXXXXXXXX. .XXXXXXXXXX .  oXXXXXXXXXXXXXXXXXXXXXX.  .XXXXXXXXXXXXXXXXXXXX. .XXXXXXXXXX .  oXXXXXXXXXXXXXXXXXXXXXX.  .XXXXXXXXXXXXXXXXXXXX. .XXXXXXXXXX",
"XXXX.X.oo..XXXXXXXXXXXXXXXXXX. XXXXXXXXXXXo .  ooXXXXXXXXXXXXXXXXXXX.X.oo..XXXXXXXXXXXXXXXXXX. XXXXXXXXXXXo .  ooXXXXXXXXXXXXXXXXXXX.X.oo..XXXXXXXXXXXXXXXXXX. XXXXXXXXXXXo .  ooXXXXXXXXXXXXXXXXXXX.X.oo..XXXXXXXXXXXXXXXXXX. XXXXXXXXXXXo .  ooXXXXXXXXXXXXXXXXXXX.X.oo..XXXXXXXXXXXXXXXXXX. XXXXXXXXXXXo .  ooXXXXXXXXXXXXXXXXXXX.X.oo..XXXXXXXXXXXXXXXXXX. XXXXXXXXXXXo .  ooXXXXXXXXXXXXXXXXXXX.X.oo..XXXXXXXXXXXXXXXXXX. XXXXXXXXXXXo .  ooXXXXXXXXXXXXXXXXXXX.X.oo..XXXXXXXXXXXXXXXXXX. XXXXXXXXXXXo",
"XXXXoXX.XX.XXXXXXXXXXX  XXXXXooXXXXXXXXXXoo .  XoXXXXXXXXXXXXXXXXXXXoXX.XX.XXXXXXXXXXX  XXXXXooXXXXXXXXXXoo .  XoXXXXXXXXXXXXXXXXXXXoXX.XX.XXXXXXXXXXX  XXXXXooXXXXXXXXXXoo .  XoXXXXXXXXXXXXXXXXXXXoXX.XX.XXXXXXXXXXX  XXXXXooXXXXXXXXXXoo .  XoXXXXXXXXXXXXXXXXXXXoXX.XX.XXXXXXXXXXX  XXXXXooXXXXXXXXXXoo .  XoXXXXXXXXXXXXXXXXXXXoXX.XX.XXXXXXXXXXX  XXXXXooXXXXXXXXXXoo .  XoXXXXXXXXXXXXXXXXXXXoXX.XX.XXXXXXXXXXX  XXXXXooXXXXXXXXXXoo .  XoXXXXXXXXXXXXXXXXXXXoXX.XX.XXXXXXXXXXX  XXXXXooXXXXXXXXXXoo",
"XXXXXXXXXXXXXXXXXXXXX..XXXXXXXXXXX.XXXXXXoo .  ooXXXXXXXXXXXXXXXXXXXXXXXXXXXXXXXXXXXX..XXXXXXXXXXX.XXXXXXoo .  ooXXXXXXXXXXXXXXXXXXXXXXXXXXXXXXXXXXXX..XXXXXXXXXXX.XXXXXXoo .  ooXXXXXXXXXXXXXXXXXXXXXXXXXXXXXXXXXXXX..XXXXXXXXXXX.XXXXXXoo .  ooXXXXXXXXXXXXXXXXXXXXXXXXXXXXXXXXXXXX..XXXXXXXXXXX.XXXXXXoo .  ooXXXXXXXXXXXXXXXXXXXXXXXXXXXXXXXXXXXX..XXXXXXXXXXX.XXXXXXoo .  ooXXXXXXXXXXXXXXXXXXXXXXXXXXXXXXXXXXXX..XXXXXXXXXXX.XXXXXXoo .  ooXXXXXXXXXXXXXXXXXXXXXXXXXXXXXXXXXXXX..XXXXXXXXXXX.XXXXXXoo",
"XXXXXXXXXXXXXXXXXXXXXXXXXXXXXXXXXXX.XXXXXoo .  ooXXXXXXXXXXXXXXXXXXXXXXXXXXXXXXXXXXXXXXXXXXXXXXXXXX.XXXXXoo .  ooXXXXXXXXXXXXXXXXXXXXXXXXXXXXXXXXXXXXXXXXXXXXXXXXXX.XXXXXoo .  ooXXXXXXXXXXXXXXXXXXXXXXXXXXXXXXXXXXXXXXXXXXXXXXXXXX.XXXXXoo .  ooXXXXXXXXXXXXXXXXXXXXXXXXXXXXXXXXXXXXXXXXXXXXXXXXXX.XXXXXoo .  ooXXXXXXXXXXXXXXXXXXXXXXXXXXXXXXXXXXXXXXXXXXXXXXXXXX.XXXXXoo .  ooXXXXXXXXXXXXXXXXXXXXXXXXXXXXXXXXXXXXXXXXXXXXXXXXXX.XXXXXoo .  ooXXXXXXXXXXXXXXXXXXXXXXXXXXXXXXXXXXXXXXXXXXXXXXXXXX.XXXXXoo",
"XXXXXXXXXXXXX.XXXXXXXXXXXXXXXXXXXXXXXX.XXoo    ooXXXXXXXXXXXXXXXXXXXXXXXXXXXX.XXXXXXXXXXXXXXXXXXXXXXXX.XXoo    ooXXXXXXXXXXXXXXXXXXXXXXXXXXXX.XXXXXXXXXXXXXXXXXXXXXXXX.XXoo    ooXXXXXXXXXXXXXXXXXXXXXXXXXXXX.XXXXXXXXXXXXXXXXXXXXXXXX.XXoo    ooXXXXXXXXXXXXXXXXXXXXXXXXXXXX.XXXXXXXXXXXXXXXXXXXXXXXX.XXoo    ooXXXXXXXXXXXXXXXXXXXXXXXXXXXX.XXXXXXXXXXXXXXXXXXXXXXXX.XXoo    ooXXXXXXXXXXXXXXXXXXXXXXXXXXXX.XXXXXXXXXXXXXXXXXXXXXXXX.XXoo    ooXXXXXXXXXXXXXXXXXXXXXXXXXXXX.XXXXXXXXXXXXXXXXXXXXXXXX.XXoo",
"XXX...XXXXX.....XXX.XXX...X......X.......oo .  o..X..XX...X...XXXXX...XXXXX.....XXX.XXX...X......X.......oo .  o..X..XX...X...XXXXX...XXXXX.....XXX.XXX...X......X.......oo .  o..X..XX...X...XXXXX...XXXXX.....XXX.XXX...X......X.......oo .  o..X..XX...X...XXXXX...XXXXX.....XXX.XXX...X......X.......oo .  o..X..XX...X...XXXXX...XXXXX.....XXX.XXX...X......X.......oo .  o..X..XX...X...XXXXX...XXXXX.....XXX.XXX...X......X.......oo .  o..X..XX...X...XXXXX...XXXXX.....XXX.XXX...X......X.......oo",
"..................XX.......X..............o    ...................................XX.......X..............o    ...................................XX.......X..............o    ...................................XX.......X..............o    ...................................XX.......X..............o    ...................................XX.......X..............o    ...................................XX.......X..............o    ...................................XX.......X..............o",
"..   ..........   ..     ..... ..........        ........ ........   ..........   ..     ..... ..........        ........ ........   ..........   ..     ..... ..........        ........ ........   ..........   ..     ..... ..........        ........ ........   ..........   ..     ..... ..........        ........ ........   ..........   ..     ..... ..........        ........ ........   ..........   ..     ..... ..........        ........ ........   ..........   ..     ..... ..........  ",
"                                            .                                                               .                                                               .                                                               .                                                               .                                                               .                                                               .                                                              ",
"                                    .     ...       .                                               .     ...       .                                               .     ...       .                                               .     ...       .                                               .     ...       .                                               .     ...       .                                               .     ...       .                                               .     .",
" ..  ...... .   .     X.. .    ... .     ...X      .     ....    ..  ...... .   .     X.. .    ... .     ...X      .     ....    ..  ...... .   .     X.. .    ... .     ...X      .     ....    ..  ...... .   .     X.. .    ... .     ...X      .     ....    ..  ...... .   .     X.. .    ... .     ...X      .     ....    ..  ...... .   .     X.. .    ... .     ...X      .     ....    ..  ...... .   .     X.. .    ... .     ...X      .     ....    ..  ...... .   .     X.. .    ... .     ..",
"             XX           .          .....                                   XX           .          .....                                   XX           .          .....                                   XX           .          .....                                   XX           .          .....                                   XX           .          .....                                   XX           .          .....                                   XX           .          ..... ",
"ooooooooooo. .X  X.. .ooooooooo..   .oooooooooooo. .o.     .ooooooooooooooo. .X  X.. .ooooooooo..   .oooooooooooo. .o.     .ooooooooooooooo. .X  X.. .ooooooooo..   .oooooooooooo. .o.     .ooooooooooooooo. .X  X.. .ooooooooo..   .oooooooooooo. .o.     .ooooooooooooooo. .X  X.. .ooooooooo..   .oooooooooooo. .o.     .ooooooooooooooo. .X  X.. .ooooooooo..   .oooooooooooo. .o.     .ooooooooooooooo. .X  X.. .ooooooooo..   .oooooooooooo. .o.     .ooooooooooooooo. .X  X.. .ooooooooo..   .oooooo",
"oo.ooooooooo  .  .oooooooXoooooooooooooooooooooooooooooooooooooooo.ooooooooo  .  .oooooooXoooooooooooooooooooooooooooooooooooooooo.ooooooooo  .  .oooooooXoooooooooooooooooooooooooooooooooooooooo.ooooooooo  .  .oooooooXoooooooooooooooooooooooooooooooooooooooo.ooooooooo  .  .oooooooXoooooooooooooooooooooooooooooooooooooooo.ooooooooo  .  .oooooooXoooooooooooooooooooooooooooooooooooooooo.ooooooooo  .  .oooooooXoooooooooooooooooooooooooooooooooooooooo.ooooooooo  .  .oooooooXooooooooooooooooo",
"ooXXoooooooo  X  oooooooXXooXoooXXXXoooXXXXXXXooooXoooooooooooooooXXoooooooo  X  oooooooXXooXoooXXXXoooXXXXXXXooooXoooooooooooooooXXoooooooo  X  oooooooXXooXoooXXXXoooXXXXXXXooooXoooooooooooooooXXoooooooo  X  oooooooXXooXoooXXXXoooXXXXXXXooooXoooooooooooooooXXoooooooo  X  oooooooXXooXoooXXXXoooXXXXXXXooooXoooooooooooooooXXoooooooo  X  oooooooXXooXoooXXXXoooXXXXXXXooooXoooooooooooooooXXoooooooo  X  oooooooXXooXoooXXXXoooXXXXXXXooooXoooooooooooooooXXoooooooo  X  oooooooXXooXoooXXXXoooXXXX",
".XXXXXXXXXXo. .  oXXXXXXXXXXXXXXXXXXXXXXXXXXXXXXXXXXXXXXXXXXXXX..XXXXXXXXXXo. .  oXXXXXXXXXXXXXXXXXXXXXXXXXXXXXXXXXXXXXXXXXXXXX..XXXXXXXXXXo. .  oXXXXXXXXXXXXXXXXXXXXXXXXXXXXXXXXXXXXXXXXXXXXX..XXXXXXXXXXo. .  oXXXXXXXXXXXXXXXXXXXXXXXXXXXXXXXXXXXXXXXXXXXXX..XXXXXXXXXXo. .  oXXXXXXXXXXXXXXXXXXXXXXXXXXXXXXXXXXXXXXXXXXXXX..XXXXXXXXXXo. .  oXXXXXXXXXXXXXXXXXXXXXXXXXXXXXXXXXXXXXXXXXXXXX..XXXXXXXXXXo. .  oXXXXXXXXXXXXXXXXXXXXXXXXXXXXXXXXXXXXXXXXXXXXX..XXXXXXXXXXo. .  oXXXXXXXXXXXXXXXXXXXXXXXXX",
"XXXXXXXXXXXoo    oXXXX XXXXXXXXXXXXXXXXXXXXXXXXXXXXXXXXXXXXXXXXXXXXXXXXXXXXoo    oXXXX XXXXXXXXXXXXXXXXXXXXXXXXXXXXXXXXXXXXXXXXXXXXXXXXXXXXoo    oXXXX XXXXXXXXXXXXXXXXXXXXXXXXXXXXXXXXXXXXXXXXXXXXXXXXXXXXoo    oXXXX XXXXXXXXXXXXXXXXXXXXXXXXXXXXXXXXXXXXXXXXXXXXXXXXXXXXoo    oXXXX XXXXXXXXXXXXXXXXXXXXXXXXXXXXXXXXXXXXXXXXXXXXXXXXXXXXoo    oXXXX XXXXXXXXXXXXXXXXXXXXXXXXXXXXXXXXXXXXXXXXXXXXXXXXXXXXoo    oXXXX XXXXXXXXXXXXXXXXXXXXXXXXXXXXXXXXXXXXXXXXXXXXXXXXXXXXoo    oXXXX XXXXXXXXXXXXXXXXXXXX",
"XXXXXXXXXXXXo .  oXXXX.XXXXXXXXX.X.XXXXXXXXXXXXXXXXXXXXXXXXXXXXXXXXXXXXXXXXXo .  oXXXX.XXXXXXXXX.X.XXXXXXXXXXXXXXXXXXXXXXXXXXXXXXXXXXXXXXXXXo .  oXXXX.XXXXXXXXX.X.XXXXXXXXXXXXXXXXXXXXXXXXXXXXXXXXXXXXXXXXXo .  oXXXX.XXXXXXXXX.X.XXXXXXXXXXXXXXXXXXXXXXXXXXXXXXXXXXXXXXXXXo .  oXXXX.XXXXXXXXX.X.XXXXXXXXXXXXXXXXXXXXXXXXXXXXXXXXXXXXXXXXXo .  oXXXX.XXXXXXXXX.X.XXXXXXXXXXXXXXXXXXXXXXXXXXXXXXXXXXXXXXXXXo .  oXXXX.XXXXXXXXX.X.XXXXXXXXXXXXXXXXXXXXXXXXXXXXXXXXXXXXXXXXXo .  oXXXX.XXXXXXXXX.X.XXXXXXXX",
"XXXXXX XXXXXo .  oXXXXXXXXXXXXX..oXXXXXXXXXXXXXX.XXXXXXXXX.XXXXXXXXXXX XXXXXo .  oXXXXXXXXXXXXX..oXXXXXXXXXXXXXX.XXXXXXXXX.XXXXXXXXXXX XXXXXo .  oXXXXXXXXXXXXX..oXXXXXXXXXXXXXX.XXXXXXXXX.XXXXXXXXXXX XXXXXo .  oXXXXXXXXXXXXX..oXXXXXXXXXXXXXX.XXXXXXXXX.XXXXXXXXXXX XXXXXo .  oXXXXXXXXXXXXX..oXXXXXXXXXXXXXX.XXXXXXXXX.XXXXXXXXXXX XXXXXo .  oXXXXXXXXXXXXX..oXXXXXXXXXXXXXX.XXXXXXXXX.XXXXXXXXXXX XXXXXo .  oXXXXXXXXXXXXX..oXXXXXXXXXXXXXX.XXXXXXXXX.XXXXXXXXXXX XXXXXo .  oXXXXXXXXXXXXX..oXXXXXXXXX",
"XXXXXX.XXXXoo    ooXXXXXXXXXX.. .XXXXXXXXXXXXXXX.XXXXXXXX.XXXXXXXXXXXX.XXXXoo    ooXXXXXXXXXX.. .XXXXXXXXXXXXXXX.XXXXXXXX.XXXXXXXXXXXX.XXXXoo    ooXXXXXXXXXX.. .XXXXXXXXXXXXXXX.XXXXXXXX.XXXXXXXXXXXX.XXXXoo    ooXXXXXXXXXX.. .XXXXXXXXXXXXXXX.XXXXXXXX.XXXXXXXXXXXX.XXXXoo    ooXXXXXXXXXX.. .XXXXXXXXXXXXXXX.XXXXXXXX.XXXXXXXXXXXX.XXXXoo    ooXXXXXXXXXX.. .XXXXXXXXXXXXXXX.XXXXXXXX.XXXXXXXXXXXX.XXXXoo    ooXXXXXXXXXX.. .XXXXXXXXXXXXXXX.XXXXXXXX.XXXXXXXXXXXX.XXXXoo    ooXXXXXXXXXX.. .XXXXXXXXXX",
"XXXXXXXXXXXoo    ooXXXXXXXX.   .oXXXX XXXXXXXXXXoXXXXXXXX.oXXXXXXXXXXXXXXXXoo    ooXXXXXXXX.   .oXXXX XXXXXXXXXXoXXXXXXXX.oXXXXXXXXXXXXXXXXoo    ooXXXXXXXX.   .oXXXX XXXXXXXXXXoXXXXXXXX.oXXXXXXXXXXXXXXXXoo    ooXXXXXXXX.   .oXXXX XXXXXXXXXXoXXXXXXXX.oXXXXXXXXXXXXXXXXoo    ooXXXXXXXX.   .oXXXX XXXXXXXXXXoXXXXXXXX.oXXXXXXXXXXXXXXXXoo    ooXXXXXXXX.   .oXXXX XXXXXXXXXXoXXXXXXXX.oXXXXXXXXXXXXXXXXoo    ooXXXXXXXX.   .oXXXX XXXXXXXXXXoXXXXXXXX.oXXXXXXXXXXXXXXXXoo    ooXXXXXXXX.   .oXXXX XXXXX",
"XXXXXXXXXXXXo    XoXXXXXXX.oooo.XXXXX.XXXXXXXXXXXXXXXXXXXXoXXXXXXXXXXXXXXXXXo    XoXXXXXXX.oooo.XXXXX.XXXXXXXXXXXXXXXXXXXXoXXXXXXXXXXXXXXXXXo    XoXXXXXXX.oooo.XXXXX.XXXXXXXXXXXXXXXXXXXXoXXXXXXXXXXXXXXXXXo    XoXXXXXXX.oooo.XXXXX.XXXXXXXXXXXXXXXXXXXXoXXXXXXXXXXXXXXXXXo    XoXXXXXXX.oooo.XXXXX.XXXXXXXXXXXXXXXXXXXXoXXXXXXXXXXXXXXXXXo    XoXXXXXXX.oooo.XXXXX.XXXXXXXXXXXXXXXXXXXXoXXXXXXXXXXXXXXXXXo    XoXXXXXXX.oooo.XXXXX.XXXXXXXXXXXXXXXXXXXXoXXXXXXXXXXXXXXXXXo    XoXXXXXXX.oooo.XXXXX.XXXXX",
"XXXXXXXXXXXXo    XoXXXXXXXXXXXXXXXXXXXXXXXXXXXXXXXXXXXXXXoXXXXXXXXXXXXXXXXXXo    XoXXXXXXXXXXXXXXXXXXXXXXXXXXXXXXXXXXXXXXoXXXXXXXXXXXXXXXXXXo    XoXXXXXXXXXXXXXXXXXXXXXXXXXXXXXXXXXXXXXXoXXXXXXXXXXXXXXXXXXo    XoXXXXXXXXXXXXXXXXXXXXXXXXXXXXXXXXXXXXXXoXXXXXXXXXXXXXXXXXXo    XoXXXXXXXXXXXXXXXXXXXXXXXXXXXXXXXXXXXXXXoXXXXXXXXXXXXXXXXXXo    XoXXXXXXXXXXXXXXXXXXXXXXXXXXXXXXXXXXXXXXoXXXXXXXXXXXXXXXXXXo    XoXXXXXXXXXXXXXXXXXXXXXXXXXXXXXXXXXXXXXXoXXXXXXXXXXXXXXXXXXo    XoXXXXXXXXXXXXXXXXXXXXXXXX",
"XXXXXXXXXXXoo  . ooXXXXXXXXXXXXXXXXXXXXXXXXXXXXXXXXXXXXXXXXXXXXXXXXXXXXXXXXoo  . ooXXXXXXXXXXXXXXXXXXXXXXXXXXXXXXXXXXXXXXXXXXXXXXXXXXXXXXXXoo  . ooXXXXXXXXXXXXXXXXXXXXXXXXXXXXXXXXXXXXXXXXXXXXXXXXXXXXXXXXoo  . ooXXXXXXXXXXXXXXXXXXXXXXXXXXXXXXXXXXXXXXXXXXXXXXXXXXXXXXXXoo  . ooXXXXXXXXXXXXXXXXXXXXXXXXXXXXXXXXXXXXXXXXXXXXXXXXXXXXXXXXoo  . ooXXXXXXXXXXXXXXXXXXXXXXXXXXXXXXXXXXXXXXXXXXXXXXXXXXXXXXXXoo  . ooXXXXXXXXXXXXXXXXXXXXXXXXXXXXXXXXXXXXXXXXXXXXXXXXXXXXXXXXoo  . ooXXXXXXXXXXXXXXXXXXXXXXXX",
"XXXXXXXXXXXoo    ooXX.XXXXXXXXXXXXXXXXXXXX..XXXXXXXXXXXXXXXXXXXXXXXXXXXXXXXoo    ooXX.XXXXXXXXXXXXXXXXXXXX..XXXXXXXXXXXXXXXXXXXXXXXXXXXXXXXoo    ooXX.XXXXXXXXXXXXXXXXXXXX..XXXXXXXXXXXXXXXXXXXXXXXXXXXXXXXoo    ooXX.XXXXXXXXXXXXXXXXXXXX..XXXXXXXXXXXXXXXXXXXXXXXXXXXXXXXoo    ooXX.XXXXXXXXXXXXXXXXXXXX..XXXXXXXXXXXXXXXXXXXXXXXXXXXXXXXoo    ooXX.XXXXXXXXXXXXXXXXXXXX..XXXXXXXXXXXXXXXXXXXXXXXXXXXXXXXoo    ooXX.XXXXXXXXXXXXXXXXXXXX..XXXXXXXXXXXXXXXXXXXXXXXXXXXXXXXoo    ooXX.XXXXXXXXXXXXXXXXXXXX.",
"XXXX..XXXXXoo    ooXXX.XXXXXXXXXXXXXXXXXXXXXXXXXXXXXXXXXXXXXXXXXXXXX..XXXXXoo    ooXXX.XXXXXXXXXXXXXXXXXXXXXXXXXXXXXXXXXXXXXXXXXXXXX..XXXXXoo    ooXXX.XXXXXXXXXXXXXXXXXXXXXXXXXXXXXXXXXXXXXXXXXXXXX..XXXXXoo    ooXXX.XXXXXXXXXXXXXXXXXXXXXXXXXXXXXXXXXXXXXXXXXXXXX..XXXXXoo    ooXXX.XXXXXXXXXXXXXXXXXXXXXXXXXXXXXXXXXXXXXXXXXXXXX..XXXXXoo    ooXXX.XXXXXXXXXXXXXXXXXXXXXXXXXXXXXXXXXXXXXXXXXXXXX..XXXXXoo    ooXXX.XXXXXXXXXXXXXXXXXXXXXXXXXXXXXXXXXXXXXXXXXXXXX..XXXXXoo    ooXXX.XXXXXXXXXXXXXXXXXXXX",
"XXXXXX....oo. .  o.......XXXXX.......XXXXXXXXXXXX....XXX..XXX.XXXXXXXX....oo. .  o.......XXXXX.......XXXXXXXXXXXX....XXX..XXX.XXXXXXXX....oo. .  o.......XXXXX.......XXXXXXXXXXXX....XXX..XXX.XXXXXXXX....oo. .  o.......XXXXX.......XXXXXXXXXXXX....XXX..XXX.XXXXXXXX....oo. .  o.......XXXXX.......XXXXXXXXXXXX....XXX..XXX.XXXXXXXX....oo. .  o.......XXXXX.......XXXXXXXXXXXX....XXX..XXX.XXXXXXXX....oo. .  o.......XXXXX.......XXXXXXXXXXXX....XXX..XXX.XXXXXXXX....oo. .  o.......XXXXX.......XXXXXX",
".X.........o  .   ......X................XX......................X.........o  .   ......X................XX......................X.........o  .   ......X................XX......................X.........o  .   ......X................XX......................X.........o  .   ......X................XX......................X.........o  .   ......X................XX......................X.........o  .   ......X................XX......................X.........o  .   ......X................XX",
".........         ..  .... ....  . .............   . ....................         ..  .... ....  . .............   . ....................         ..  .... ....  . .............   . ....................         ..  .... ....  . .............   . ....................         ..  .... ....  . .............   . ....................         ..  .... ....  . .............   . ....................         ..  .... ....  . .............   . ....................         ..  .... ....  . ........",
"            .                                                               .                                                               .                                                               .                                                               .                                                               .                                                               .                                                               .                              ",
"           ...                                                             ...                                                             ...                                                             ...                                                             ...                                                             ...                                                             ...                                                             ...                             ",
"   ...    ...... .......X .X   ..  ...  .....           ..         ...    ...... .......X .X   ..  ...  .....           ..         ...    ...... .......X .X   ..  ...  .....           ..         ...    ...... .......X .X   ..  ...  .....           ..         ...    ...... .......X .X   ..  ...  .....           ..         ...    ...... .......X .X   ..  ...  .....           ..         ...    ...... .......X .X   ..  ...  .....           ..         ...    ...... .......X .X   ..  ...  ...",
"     ....    ..    .       ..       ...                              ....    ..    .       ..       ...                              ....    ..    .       ..       ...                              ....    ..    .       ..       ...                              ....    ..    .       ..       ...                              ....    ..    .       ..       ...                              ....    ..    .       ..       ...                              ....    ..    .       ..       ...    ",
"oooooooooooooooooooooooo.  X.  .Xooooooooooo. .oooo..        .oooooooooooooooooooooooooo.  X.  .Xooooooooooo. .oooo..        .oooooooooooooooooooooooooo.  X.  .Xooooooooooo. .oooo..        .oooooooooooooooooooooooooo.  X.  .Xooooooooooo. .oooo..        .oooooooooooooooooooooooooo.  X.  .Xooooooooooo. .oooo..        .oooooooooooooooooooooooooo.  X.  .Xooooooooooo. .oooo..        .oooooooooooooooooooooooooo.  X.  .Xooooooooooo. .oooo..        .oooooooooooooooooooooooooo.  X.  .Xoooooooooo",
"ooooooo.  ooXoXooXooooooo.  . .XoooooXoooXooo.ooooooo. .ooooooooooooooo.  ooXoXooXooooooo.  . .XoooooXoooXooo.ooooooo. .ooooooooooooooo.  ooXoXooXooooooo.  . .XoooooXoooXooo.ooooooo. .ooooooooooooooo.  ooXoXooXooooooo.  . .XoooooXoooXooo.ooooooo. .ooooooooooooooo.  ooXoXooXooooooo.  . .XoooooXoooXooo.ooooooo. .ooooooooooooooo.  ooXoXooXooooooo.  . .XoooooXoooXooo.ooooooo. .ooooooooooooooo.  ooXoXooXooooooo.  . .XoooooXoooXooo.ooooooo. .ooooooooooooooo.  ooXoXooXooooooo.  . .XoooooXoooXo",
"oooXXXXo   XXXXXXXXXoXoooo X  XoXooXXXXXXXXXXXXooXXXoooooXXoXooooooXXXXo   XXXXXXXXXoXoooo X  XoXooXXXXXXXXXXXXooXXXoooooXXoXooooooXXXXo   XXXXXXXXXoXoooo X  XoXooXXXXXXXXXXXXooXXXoooooXXoXooooooXXXXo   XXXXXXXXXoXoooo X  XoXooXXXXXXXXXXXXooXXXoooooXXoXooooooXXXXo   XXXXXXXXXoXoooo X  XoXooXXXXXXXXXXXXooXXXoooooXXoXooooooXXXXo   XXXXXXXXXoXoooo X  XoXooXXXXXXXXXXXXooXXXoooooXXoXooooooXXXXo   XXXXXXXXXoXoooo X  XoXooXXXXXXXXXXXXooXXXoooooXXoXooooooXXXXo   XXXXXXXXXoXoooo X  XoXooXXXXXXXX",
"XXXoXXXXo.  XXXXXXXXXXXXoX X  XoXXXXXXXXXXXXXXXXXXXXXXXXXXXXXXXXXXXoXXXXo.  XXXXXXXXXXXXoX X  XoXXXXXXXXXXXXXXXXXXXXXXXXXXXXXXXXXXXoXXXXo.  XXXXXXXXXXXXoX X  XoXXXXXXXXXXXXXXXXXXXXXXXXXXXXXXXXXXXoXXXXo.  XXXXXXXXXXXXoX X  XoXXXXXXXXXXXXXXXXXXXXXXXXXXXXXXXXXXXoXXXXo.  XXXXXXXXXXXXoX X  XoXXXXXXXXXXXXXXXXXXXXXXXXXXXXXXXXXXXoXXXXo.  XXXXXXXXXXXXoX X  XoXXXXXXXXXXXXXXXXXXXXXXXXXXXXXXXXXXXoXXXXo.  XXXXXXXXXXXXoX X  XoXXXXXXXXXXXXXXXXXXXXXXXXXXXXXXXXXXXoXXXXo.  XXXXXXXXXXXXoX X  XoXXXXXXXXXXX",
"XXXXXXXXXo. .XXXXXXXXXXXXo    oXXXXXXXXXXXXXXXXXXXXXXXXXXXXXXXXXXXXXXXXXXo. .XXXXXXXXXXXXo    oXXXXXXXXXXXXXXXXXXXXXXXXXXXXXXXXXXXXXXXXXXo. .XXXXXXXXXXXXo    oXXXXXXXXXXXXXXXXXXXXXXXXXXXXXXXXXXXXXXXXXXo. .XXXXXXXXXXXXo    oXXXXXXXXXXXXXXXXXXXXXXXXXXXXXXXXXXXXXXXXXXo. .XXXXXXXXXXXXo    oXXXXXXXXXXXXXXXXXXXXXXXXXXXXXXXXXXXXXXXXXXo. .XXXXXXXXXXXXo    oXXXXXXXXXXXXXXXXXXXXXXXXXXXXXXXXXXXXXXXXXXo. .XXXXXXXXXXXXo    oXXXXXXXXXXXXXXXXXXXXXXXXXXXXXXXXXXXXXXXXXXo. .XXXXXXXXXXXXo    oXXXXXXXXXXXX",
"XXXXXXXXXXo.. XXXXXXXXXXXo .  oXXXXXXXXXXXXXXXX  XXXXXXXXXXXXXXXXXXXXXXXXXo.. XXXXXXXXXXXo .  oXXXXXXXXXXXXXXXX  XXXXXXXXXXXXXXXXXXXXXXXXXo.. XXXXXXXXXXXo .  oXXXXXXXXXXXXXXXX  XXXXXXXXXXXXXXXXXXXXXXXXXo.. XXXXXXXXXXXo .  oXXXXXXXXXXXXXXXX  XXXXXXXXXXXXXXXXXXXXXXXXXo.. XXXXXXXXXXXo .  oXXXXXXXXXXXXXXXX  XXXXXXXXXXXXXXXXXXXXXXXXXo.. XXXXXXXXXXXo .  oXXXXXXXXXXXXXXXX  XXXXXXXXXXXXXXXXXXXXXXXXXo.. XXXXXXXXXXXo .  oXXXXXXXXXXXXXXXX  XXXXXXXXXXXXXXXXXXXXXXXXXo.. XXXXXXXXXXXo .  oXXXXXXXXXXXX",
"XXXXXXXXXXXo..XXXXXXXXXXoo .  oXXXXXXXXXXXXXXXX..   XXXXXXXXXXXXXXXXXXXXXXXo..XXXXXXXXXXoo .  oXXXXXXXXXXXXXXXX..   XXXXXXXXXXXXXXXXXXXXXXXo..XXXXXXXXXXoo .  oXXXXXXXXXXXXXXXX..   XXXXXXXXXXXXXXXXXXXXXXXo..XXXXXXXXXXoo .  oXXXXXXXXXXXXXXXX..   XXXXXXXXXXXXXXXXXXXXXXXo..XXXXXXXXXXoo .  oXXXXXXXXXXXXXXXX..   XXXXXXXXXXXXXXXXXXXXXXXo..XXXXXXXXXXoo .  oXXXXXXXXXXXXXXXX..   XXXXXXXXXXXXXXXXXXXXXXXo..XXXXXXXXXXoo .  oXXXXXXXXXXXXXXXX..   XXXXXXXXXXXXXXXXXXXXXXXo..XXXXXXXXXXoo .  oXXXXXXXXXXXX",
"..XXXXXXXXXXX..XXXXXXXXXoo .  ooXXXXXXXXXXXXXXXXo....XXXXXXXXXXX..XXXXXXXXXXX..XXXXXXXXXoo .  ooXXXXXXXXXXXXXXXXo....XXXXXXXXXXX..XXXXXXXXXXX..XXXXXXXXXoo .  ooXXXXXXXXXXXXXXXXo....XXXXXXXXXXX..XXXXXXXXXXX..XXXXXXXXXoo .  ooXXXXXXXXXXXXXXXXo....XXXXXXXXXXX..XXXXXXXXXXX..XXXXXXXXXoo .  ooXXXXXXXXXXXXXXXXo....XXXXXXXXXXX..XXXXXXXXXXX..XXXXXXXXXoo .  ooXXXXXXXXXXXXXXXXo....XXXXXXXXXXX..XXXXXXXXXXX..XXXXXXXXXoo .  ooXXXXXXXXXXXXXXXXo....XXXXXXXXXXX..XXXXXXXXXXX..XXXXXXXXXoo .  ooXXXXXXXXXXX",
"XXXXXXXXXXXXXo..XXXXXXXXXo    ooXXXXXXX...XXXXXXXXXXXXXXXXXXXXXXXXXXXXXXXXXXXo..XXXXXXXXXo    ooXXXXXXX...XXXXXXXXXXXXXXXXXXXXXXXXXXXXXXXXXXXo..XXXXXXXXXo    ooXXXXXXX...XXXXXXXXXXXXXXXXXXXXXXXXXXXXXXXXXXXo..XXXXXXXXXo    ooXXXXXXX...XXXXXXXXXXXXXXXXXXXXXXXXXXXXXXXXXXXo..XXXXXXXXXo    ooXXXXXXX...XXXXXXXXXXXXXXXXXXXXXXXXXXXXXXXXXXXo..XXXXXXXXXo    ooXXXXXXX...XXXXXXXXXXXXXXXXXXXXXXXXXXXXXXXXXXXo..XXXXXXXXXo    ooXXXXXXX...XXXXXXXXXXXXXXXXXXXXXXXXXXXXXXXXXXXo..XXXXXXXXXo    ooXXXXXXX...X",
"XXXXXXXXXXXXXXX.XXXXXXXXoo X  XoXXXXXXXo...XXXXXXXXXXXXXXXXXXXXXXXXXXXXXXXXXXXX.XXXXXXXXoo X  XoXXXXXXXo...XXXXXXXXXXXXXXXXXXXXXXXXXXXXXXXXXXXX.XXXXXXXXoo X  XoXXXXXXXo...XXXXXXXXXXXXXXXXXXXXXXXXXXXXXXXXXXXX.XXXXXXXXoo X  XoXXXXXXXo...XXXXXXXXXXXXXXXXXXXXXXXXXXXXXXXXXXXX.XXXXXXXXoo X  XoXXXXXXXo...XXXXXXXXXXXXXXXXXXXXXXXXXXXXXXXXXXXX.XXXXXXXXoo X  XoXXXXXXXo...XXXXXXXXXXXXXXXXXXXXXXXXXXXXXXXXXXXX.XXXXXXXXoo X  XoXXXXXXXo...XXXXXXXXXXXXXXXXXXXXXXXXXXXXXXXXXXXX.XXXXXXXXoo X  XoXXXXXXXo...",
"XXXXXXXXXXXXXo..XXXXXXXXXo .  ooXXXXXXXXooo.XXXXXXXXXXXX.XXXXXXXXXXXXXXXXXXXXo..XXXXXXXXXo .  ooXXXXXXXXooo.XXXXXXXXXXXX.XXXXXXXXXXXXXXXXXXXXo..XXXXXXXXXo .  ooXXXXXXXXooo.XXXXXXXXXXXX.XXXXXXXXXXXXXXXXXXXXo..XXXXXXXXXo .  ooXXXXXXXXooo.XXXXXXXXXXXX.XXXXXXXXXXXXXXXXXXXXo..XXXXXXXXXo .  ooXXXXXXXXooo.XXXXXXXXXXXX.XXXXXXXXXXXXXXXXXXXXo..XXXXXXXXXo .  ooXXXXXXXXooo.XXXXXXXXXXXX.XXXXXXXXXXXXXXXXXXXXo..XXXXXXXXXo .  ooXXXXXXXXooo.XXXXXXXXXXXX.XXXXXXXXXXXXXXXXXXXXo..XXXXXXXXXo .  ooXXXXXXXXooo",
"XXXXXXXXXXXXXXXoXXXXXXXXXo .  oXXXXXXXXXXXXXXXXXX. XXXXXX.XXXXXXXXXXXXXXXXXXXXXoXXXXXXXXXo .  oXXXXXXXXXXXXXXXXXX. XXXXXX.XXXXXXXXXXXXXXXXXXXXXoXXXXXXXXXo .  oXXXXXXXXXXXXXXXXXX. XXXXXX.XXXXXXXXXXXXXXXXXXXXXoXXXXXXXXXo .  oXXXXXXXXXXXXXXXXXX. XXXXXX.XXXXXXXXXXXXXXXXXXXXXoXXXXXXXXXo .  oXXXXXXXXXXXXXXXXXX. XXXXXX.XXXXXXXXXXXXXXXXXXXXXoXXXXXXXXXo .  oXXXXXXXXXXXXXXXXXX. XXXXXX.XXXXXXXXXXXXXXXXXXXXXoXXXXXXXXXo .  oXXXXXXXXXXXXXXXXXX. XXXXXX.XXXXXXXXXXXXXXXXXXXXXoXXXXXXXXXo .  oXXXXXXXXXXXX",
"XXXXXXXXXXXXXXXXXXXXXXXXoo .  ooXXXXXXXXXXXXXXXXXXXXXXXXXXXXXXXXXXXXXXXXXXXXXXXXXXXXXXXXoo .  ooXXXXXXXXXXXXXXXXXXXXXXXXXXXXXXXXXXXXXXXXXXXXXXXXXXXXXXXXoo .  ooXXXXXXXXXXXXXXXXXXXXXXXXXXXXXXXXXXXXXXXXXXXXXXXXXXXXXXXXoo .  ooXXXXXXXXXXXXXXXXXXXXXXXXXXXXXXXXXXXXXXXXXXXXXXXXXXXXXXXXoo .  ooXXXXXXXXXXXXXXXXXXXXXXXXXXXXXXXXXXXXXXXXXXXXXXXXXXXXXXXXoo .  ooXXXXXXXXXXXXXXXXXXXXXXXXXXXXXXXXXXXXXXXXXXXXXXXXXXXXXXXXoo .  ooXXXXXXXXXXXXXXXXXXXXXXXXXXXXXXXXXXXXXXXXXXXXXXXXXXXXXXXXoo .  ooXXXXXXXXXXX",
"XXXXXXXXXXXXXXXXXXXX..XXoo    ooXX.XXXXXXXXXXXXXXXXXXXXXXXXXXXXXXXXXXXXXXXXXXXXXXXXX..XXoo    ooXX.XXXXXXXXXXXXXXXXXXXXXXXXXXXXXXXXXXXXXXXXXXXXXXXXX..XXoo    ooXX.XXXXXXXXXXXXXXXXXXXXXXXXXXXXXXXXXXXXXXXXXXXXXXXXX..XXoo    ooXX.XXXXXXXXXXXXXXXXXXXXXXXXXXXXXXXXXXXXXXXXXXXXXXXXX..XXoo    ooXX.XXXXXXXXXXXXXXXXXXXXXXXXXXXXXXXXXXXXXXXXXXXXXXXXX..XXoo    ooXX.XXXXXXXXXXXXXXXXXXXXXXXXXXXXXXXXXXXXXXXXXXXXXXXXX..XXoo    ooXX.XXXXXXXXXXXXXXXXXXXXXXXXXXXXXXXXXXXXXXXXXXXXXXXXX..XXoo    ooXX.XXXXXXXX",
"XX..X...XXXXXXXXXX.......o    o....XXXXXXXXXXX....XXXXXX....XXXXXX..X...XXXXXXXXXX.......o    o....XXXXXXXXXXX....XXXXXX....XXXXXX..X...XXXXXXXXXX.......o    o....XXXXXXXXXXX....XXXXXX....XXXXXX..X...XXXXXXXXXX.......o    o....XXXXXXXXXXX....XXXXXX....XXXXXX..X...XXXXXXXXXX.......o    o....XXXXXXXXXXX....XXXXXX....XXXXXX..X...XXXXXXXXXX.......o    o....XXXXXXXXXXX....XXXXXX....XXXXXX..X...XXXXXXXXXX.......o    o....XXXXXXXXXXX....XXXXXX....XXXXXX..X...XXXXXXXXXX.......o    o....XXXXXXXX",
".........X......X........  .  ...............XXX....X....................X......X........  .  ...............XXX....X....................X......X........  .  ...............XXX....X....................X......X........  .  ...............XXX....X....................X......X........  .  ...............XXX....X....................X......X........  .  ...............XXX....X....................X......X........  .  ...............XXX....X....................X......X........  .  .............",
".... ...................  ..      .....  ...............        .... ...................  ..      .....  ...............        .... ...................  ..      .....  ...............        .... ...................  ..      .....  ...............        .... ...................  ..      .....  ...............        .... ...................  ..      .....  ...............        .... ...................  ..      .....  ...............        .... ...................  ..      .....  ..",
"                          .                                                               .                                                               .                                                               .                                                               .                                                               .                                                               .                                                               .                ",
"                        ....                                .                           ....                                .                           ....                                .                           ....                                .                           ....                                .                           ....                                .                           ....                                .                           ....               ",
"... ..        ....  ...  . ..           ...X  ....     ..  .    ... ..        ....  ...  . ..           ...X  ....     ..  .    ... ..        ....  ...  . ..           ...X  ....     ..  .    ... ..        ....  ...  . ..           ...X  ....     ..  .    ... ..        ....  ...  . ..           ...X  ....     ..  .    ... ..        ....  ...  . ..           ...X  ....     ..  .    ... ..        ....  ...  . ..           ...X  ....     ..  .    ... ..        ....  ...  . ..           ...",
"      . .                                  .X                         . .                                  .X                         . .                                  .X                         . .                                  .X                         . .                                  .X                         . .                                  .X                         . .                                  .X                         . .                                  ",
" .Xoooooooooo.oX..Xoo..ooooo. .ooooooXXX..  .   .XX.. .   .Xooo. .Xoooooooooo.oX..Xoo..ooooo. .ooooooXXX..  .   .XX.. .   .Xooo. .Xoooooooooo.oX..Xoo..ooooo. .ooooooXXX..  .   .XX.. .   .Xooo. .Xoooooooooo.oX..Xoo..ooooo. .ooooooXXX..  .   .XX.. .   .Xooo. .Xoooooooooo.oX..Xoo..ooooo. .ooooooXXX..  .   .XX.. .   .Xooo. .Xoooooooooo.oX..Xoo..ooooo. .ooooooXXX..  .   .XX.. .   .Xooo. .Xoooooooooo.oX..Xoo..ooooo. .ooooooXXX..  .   .XX.. .   .Xooo. .Xoooooooooo.oX..Xoo..ooooo. .ooooooXXX.. ",
"ooooooooXooooXooooooooooooooooooXooooooooo. .   ooooooooooooooooooooooooXooooXooooooooooooooooooXooooooooo. .   ooooooooooooooooooooooooXooooXooooooooooooooooooXooooooooo. .   ooooooooooooooooooooooooXooooXooooooooooooooooooXooooooooo. .   ooooooooooooooooooooooooXooooXooooooooooooooooooXooooooooo. .   ooooooooooooooooooooooooXooooXooooooooooooooooooXooooooooo. .   ooooooooooooooooooooooooXooooXooooooooooooooooooXooooooooo. .   ooooooooooooooooooooooooXooooXooooooooooooooooooXooooooooo.",
"oooXXXoXXXXXXXXXXXoooXXoooooXoooXXXXoooooo. .   ooooooXXoXoooXoooooXXXoXXXXXXXXXXXoooXXoooooXoooXXXXoooooo. .   ooooooXXoXoooXoooooXXXoXXXXXXXXXXXoooXXoooooXoooXXXXoooooo. .   ooooooXXoXoooXoooooXXXoXXXXXXXXXXXoooXXoooooXoooXXXXoooooo. .   ooooooXXoXoooXoooooXXXoXXXXXXXXXXXoooXXoooooXoooXXXXoooooo. .   ooooooXXoXoooXoooooXXXoXXXXXXXXXXXoooXXoooooXoooXXXXoooooo. .   ooooooXXoXoooXoooooXXXoXXXXXXXXXXXoooXXoooooXoooXXXXoooooo. .   ooooooXXoXoooXoooooXXXoXXXXXXXXXXXoooXXoooooXoooXXXXoooooo.",
"XXXXXX.XXXXXXXXXXXXXXXXXXXXXXXXXXXXXXXXXXoX .  .oXXXXXXXXXXXXXXXXXXXXX.XXXXXXXXXXXXXXXXXXXXXXXXXXXXXXXXXXoX .  .oXXXXXXXXXXXXXXXXXXXXX.XXXXXXXXXXXXXXXXXXXXXXXXXXXXXXXXXXoX .  .oXXXXXXXXXXXXXXXXXXXXX.XXXXXXXXXXXXXXXXXXXXXXXXXXXXXXXXXXoX .  .oXXXXXXXXXXXXXXXXXXXXX.XXXXXXXXXXXXXXXXXXXXXXXXXXXXXXXXXXoX .  .oXXXXXXXXXXXXXXXXXXXXX.XXXXXXXXXXXXXXXXXXXXXXXXXXXXXXXXXXoX .  .oXXXXXXXXXXXXXXXXXXXXX.XXXXXXXXXXXXXXXXXXXXXXXXXXXXXXXXXXoX .  .oXXXXXXXXXXXXXXXXXXXXX.XXXXXXXXXXXXXXXXXXXXXXXXXXXXXXXXXXoX",
"XXXXXXXXXXXXXXXXXXXXXXXXXXXXXXXXXXXXXXXXXoX .  .XXXXXXXXXXXXXXXXXXXXXXXXXXXXXXXXXXXXXXXXXXXXXXXXXXXXXXXXXoX .  .XXXXXXXXXXXXXXXXXXXXXXXXXXXXXXXXXXXXXXXXXXXXXXXXXXXXXXXXXoX .  .XXXXXXXXXXXXXXXXXXXXXXXXXXXXXXXXXXXXXXXXXXXXXXXXXXXXXXXXXoX .  .XXXXXXXXXXXXXXXXXXXXXXXXXXXXXXXXXXXXXXXXXXXXXXXXXXXXXXXXXoX .  .XXXXXXXXXXXXXXXXXXXXXXXXXXXXXXXXXXXXXXXXXXXXXXXXXXXXXXXXXoX .  .XXXXXXXXXXXXXXXXXXXXXXXXXXXXXXXXXXXXXXXXXXXXXXXXXXXXXXXXXoX .  .XXXXXXXXXXXXXXXXXXXXXXXXXXXXXXXXXXXXXXXXXXXXXXXXXXXXXXXXXoX",
"XXXXXXXXXXXXXXXXXXXXXXXXXXXXXXXXXXXXX.XXXoo .  XoXXXXXXXXXXXXXXXXXXXXXXXXXXXXXXXXXXXXXXXXXXXXXXXXXXXX.XXXoo .  XoXXXXXXXXXXXXXXXXXXXXXXXXXXXXXXXXXXXXXXXXXXXXXXXXXXXX.XXXoo .  XoXXXXXXXXXXXXXXXXXXXXXXXXXXXXXXXXXXXXXXXXXXXXXXXXXXXX.XXXoo .  XoXXXXXXXXXXXXXXXXXXXXXXXXXXXXXXXXXXXXXXXXXXXXXXXXXXXX.XXXoo .  XoXXXXXXXXXXXXXXXXXXXXXXXXXXXXXXXXXXXXXXXXXXXXXXXXXXXX.XXXoo .  XoXXXXXXXXXXXXXXXXXXXXXXXXXXXXXXXXXXXXXXXXXXXXXXXXXXXX.XXXoo .  XoXXXXXXXXXXXXXXXXXXXXXXXXXXXXXXXXXXXXXXXXXXXXXXXXXXXX.XXXoo",
"XXXXXXXXXXXXXXXXX.XXXXXXXXXXXXXXXXXXX..XXXo  . XoXXXXXXXXXXXXXXXXXXXXXXXXXXXXXXXX.XXXXXXXXXXXXXXXXXXX..XXXo  . XoXXXXXXXXXXXXXXXXXXXXXXXXXXXXXXXX.XXXXXXXXXXXXXXXXXXX..XXXo  . XoXXXXXXXXXXXXXXXXXXXXXXXXXXXXXXXX.XXXXXXXXXXXXXXXXXXX..XXXo  . XoXXXXXXXXXXXXXXXXXXXXXXXXXXXXXXXX.XXXXXXXXXXXXXXXXXXX..XXXo  . XoXXXXXXXXXXXXXXXXXXXXXXXXXXXXXXXX.XXXXXXXXXXXXXXXXXXX..XXXo  . XoXXXXXXXXXXXXXXXXXXXXXXXXXXXXXXXX.XXXXXXXXXXXXXXXXXXX..XXXo  . XoXXXXXXXXXXXXXXXXXXXXXXXXXXXXXXXX.XXXXXXXXXXXXXXXXXXX..XXXo",
"XXXXXXXXXXXXXXXXXoXXXXXXXXXXXXXXXXXXXX.XXoo    ooXXXXX.XXXXXXXXXXXXXXXXXXXXXXXXXXoXXXXXXXXXXXXXXXXXXXX.XXoo    ooXXXXX.XXXXXXXXXXXXXXXXXXXXXXXXXXoXXXXXXXXXXXXXXXXXXXX.XXoo    ooXXXXX.XXXXXXXXXXXXXXXXXXXXXXXXXXoXXXXXXXXXXXXXXXXXXXX.XXoo    ooXXXXX.XXXXXXXXXXXXXXXXXXXXXXXXXXoXXXXXXXXXXXXXXXXXXXX.XXoo    ooXXXXX.XXXXXXXXXXXXXXXXXXXXXXXXXXoXXXXXXXXXXXXXXXXXXXX.XXoo    ooXXXXX.XXXXXXXXXXXXXXXXXXXXXXXXXXoXXXXXXXXXXXXXXXXXXXX.XXoo    ooXXXXX.XXXXXXXXXXXXXXXXXXXXXXXXXXoXXXXXXXXXXXXXXXXXXXX.XXoo",
"XXXXX....XXXXXXXXXXXXXXXXXXXXXX  XXXXXXXXXo    oXXXXXX.XXXXXXXXXXXXXX....XXXXXXXXXXXXXXXXXXXXXX  XXXXXXXXXo    oXXXXXX.XXXXXXXXXXXXXX....XXXXXXXXXXXXXXXXXXXXXX  XXXXXXXXXo    oXXXXXX.XXXXXXXXXXXXXX....XXXXXXXXXXXXXXXXXXXXXX  XXXXXXXXXo    oXXXXXX.XXXXXXXXXXXXXX....XXXXXXXXXXXXXXXXXXXXXX  XXXXXXXXXo    oXXXXXX.XXXXXXXXXXXXXX....XXXXXXXXXXXXXXXXXXXXXX  XXXXXXXXXo    oXXXXXX.XXXXXXXXXXXXXX....XXXXXXXXXXXXXXXXXXXXXX  XXXXXXXXXo    oXXXXXX.XXXXXXXXXXXXXX....XXXXXXXXXXXXXXXXXXXXXX  XXXXXXXXXo",
"XXXXXX.  .XXXXXXXXXXXXXXXXXXXX. .XXXXXXXXXX .  oXXXXXXXXXXXXXXXXXXXXXX.  .XXXXXXXXXXXXXXXXXXXX. .XXXXXXXXXX .  oXXXXXXXXXXXXXXXXXXXXXX.  .XXXXXXXXXXXXXXXXXXXX. .XXXXXXXXXX .  oXXXXXXXXXXXXXXXXXXXXXX.  .XXXXXXXXXXXXXXXXXXXX. .XXXXXXXXXX .  oXXXXXXXXXXXXXXXXXXXXXX.  .XXXXXXXXXXXXXXXXXXXX. .XXXXXXXXXX .  oXXXXXXXXXXXXXXXXXXXXXX.  .XXXXXXXXXXXXXXXXXXXX. .XXXXXXXXXX .  oXXXXXXXXXXXXXXXXXXXXXX.  .XXXXXXXXXXXXXXXXXXXX. .XXXXXXXXXX .  oXXXXXXXXXXXXXXXXXXXXXX.  .XXXXXXXXXXXXXXXXXXXX. .XXXXXXXXXX",
"XXXX.X.oo..XXXXXXXXXXXXXXXXXX. XXXXXXXXXXXo .  ooXXXXXXXXXXXXXXXXXXX.X.oo..XXXXXXXXXXXXXXXXXX. XXXXXXXXXXXo .  ooXXXXXXXXXXXXXXXXXXX.X.oo..XXXXXXXXXXXXXXXXXX. XXXXXXXXXXXo .  ooXXXXXXXXXXXXXXXXXXX.X.oo..XXXXXXXXXXXXXXXXXX. XXXXXXXXXXXo .  ooXXXXXXXXXXXXXXXXXXX.X.oo..XXXXXXXXXXXXXXXXXX. XXXXXXXXXXXo .  ooXXXXXXXXXXXXXXXXXXX.X.oo..XXXXXXXXXXXXXXXXXX. XXXXXXXXXXXo .  ooXXXXXXXXXXXXXXXXXXX.X.oo..XXXXXXXXXXXXXXXXXX. XXXXXXXXXXXo .  ooXXXXXXXXXXXXXXXXXXX.X.oo..XXXXXXXXXXXXXXXXXX. XXXXXXXXXXXo",
"XXXXoXX.XX.XXXXXXXXXXX  XXXXXooXXXXXXXXXXoo .  XoXXXXXXXXXXXXXXXXXXXoXX.XX.XXXXXXXXXXX  XXXXXooXXXXXXXXXXoo .  XoXXXXXXXXXXXXXXXXXXXoXX.XX.XXXXXXXXXXX  XXXXXooXXXXXXXXXXoo .  XoXXXXXXXXXXXXXXXXXXXoXX.XX.XXXXXXXXXXX  XXXXXooXXXXXXXXXXoo .  XoXXXXXXXXXXXXXXXXXXXoXX.XX.XXXXXXXXXXX  XXXXXooXXXXXXXXXXoo .  XoXXXXXXXXXXXXXXXXXXXoXX.XX.XXXXXXXXXXX  XXXXXooXXXXXXXXXXoo .  XoXXXXXXXXXXXXXXXXXXXoXX.XX.XXXXXXXXXXX  XXXXXooXXXXXXXXXXoo .  XoXXXXXXXXXXXXXXXXXXXoXX.XX.XXXXXXXXXXX  XXXXXooXXXXXXXXXXoo",
"XXXXXXXXXXXXXXXXXXXXX..XXXXXXXXXXX.XXXXXXoo .  ooXXXXXXXXXXXXXXXXXXXXXXXXXXXXXXXXXXXX..XXXXXXXXXXX.XXXXXXoo .  ooXXXXXXXXXXXXXXXXXXXXXXXXXXXXXXXXXXXX..XXXXXXXXXXX.XXXXXXoo .  ooXXXXXXXXXXXXXXXXXXXXXXXXXXXXXXXXXXXX..XXXXXXXXXXX.XXXXXXoo .  ooXXXXXXXXXXXXXXXXXXXXXXXXXXXXXXXXXXXX..XXXXXXXXXXX.XXXXXXoo .  ooXXXXXXXXXXXXXXXXXXXXXXXXXXXXXXXXXXXX..XXXXXXXXXXX.XXXXXXoo .  ooXXXXXXXXXXXXXXXXXXXXXXXXXXXXXXXXXXXX..XXXXXXXXXXX.XXXXXXoo .  ooXXXXXXXXXXXXXXXXXXXXXXXXXXXXXXXXXXXX..XXXXXXXXXXX.XXXXXXoo",
"XXXXXXXXXXXXXXXXXXXXXXXXXXXXXXXXXXX.XXXXXoo .  ooXXXXXXXXXXXXXXXXXXXXXXXXXXXXXXXXXXXXXXXXXXXXXXXXXX.XXXXXoo .  ooXXXXXXXXXXXXXXXXXXXXXXXXXXXXXXXXXXXXXXXXXXXXXXXXXX.XXXXXoo .  ooXXXXXXXXXXXXXXXXXXXXXXXXXXXXXXXXXXXXXXXXXXXXXXXXXX.XXXXXoo .  ooXXXXXXXXXXXXXXXXXXXXXXXXXXXXXXXXXXXXXXXXXXXXXXXXXX.XXXXXoo .  ooXXXXXXXXXXXXXXXXXXXXXXXXXXXXXXXXXXXXXXXXXXXXXXXXXX.XXXXXoo .  ooXXXXXXXXXXXXXXXXXXXXXXXXXXXXXXXXXXXXXXXXXXXXXXXXXX.XXXXXoo .  ooXXXXXXXXXXXXXXXXXXXXXXXXXXXXXXXXXXXXXXXXXXXXXXXXXX.XXXXXoo",
"XXXXXXXXXXXXX.XXXXXXXXXXXXXXXXXXXXXXXX.XXoo    ooXXXXXXXXXXXXXXXXXXXXXXXXXXXX.XXXXXXXXXXXXXXXXXXXXXXXX.XXoo    ooXXXXXXXXXXXXXXXXXXXXXXXXXXXX.XXXXXXXXXXXXXXXXXXXXXXXX.XXoo    ooXXXXXXXXXXXXXXXXXXXXXXXXXXXX.XXXXXXXXXXXXXXXXXXXXXXXX.XXoo    ooXXXXXXXXXXXXXXXXXXXXXXXXXXXX.XXXXXXXXXXXXXXXXXXXXXXXX.XXoo    ooXXXXXXXXXXXXXXXXXXXXXXXXXXXX.XXXXXXXXXXXXXXXXXXXXXXXX.XXoo    ooXXXXXXXXXXXXXXXXXXXXXXXXXXXX.XXXXXXXXXXXXXXXXXXXXXXXX.XXoo    ooXXXXXXXXXXXXXXXXXXXXXXXXXXXX.XXXXXXXXXXXXXXXXXXXXXXXX.XXoo",
"XXX...XXXXX.....XXX.XXX...X......X.......oo .  o..X..XX...X...XXXXX...XXXXX.....XXX.XXX...X......X.......oo .  o..X..XX...X...XXXXX...XXXXX.....XXX.XXX...X......X.......oo .  o..X..XX...X...XXXXX...XXXXX.....XXX.XXX...X......X.......oo .  o..X..XX...X...XXXXX...XXXXX.....XXX.XXX...X......X.......oo .  o..X..XX...X...XXXXX...XXXXX.....XXX.XXX...X......X.......oo .  o..X..XX...X...XXXXX...XXXXX.....XXX.XXX...X......X.......oo .  o..X..XX...X...XXXXX...XXXXX.....XXX.XXX...X......X.......oo",
"..................XX.......X..............o    ...................................XX.......X..............o    ...................................XX.......X..............o    ...................................XX.......X..............o    ...................................XX.......X..............o    ...................................XX.......X..............o    ...................................XX.......X..............o    ...................................XX.......X..............o",
"..   ..........   ..     ..... ..........        ........ ........   ..........   ..     ..... ..........        ........ ........   ..........   ..     ..... ..........        ........ ........   ..........   ..     ..... ..........        ........ ........   ..........   ..     ..... ..........        ........ ........   ..........   ..     ..... ..........        ........ ........   ..........   ..     ..... ..........        ........ ........   ..........   ..     ..... ..........  ",
"                                            .                                                               .                                                               .                                                               .                                                               .                                                               .                                                               .                                                              ",
"                                    .     ...       .                                               .     ...       .                                               .     ...       .                                               .     ...       .                                               .     ...       .                                               .     ...       .                                               .     ...       .                                               .     .",
" ..  ...... .   .     X.. .    ... .     ...X      .     ....    ..  ...... .   .     X.. .    ... .     ...X      .     ....    ..  ...... .   .     X.. .    ... .     ...X      .     ....    ..  ...... .   .     X.. .    ... .     ...X      .     ....    ..  ...... .   .     X.. .    ... .     ...X      .     ....    ..  ...... .   .     X.. .    ... .     ...X      .     ....    ..  ...... .   .     X.. .    ... .     ...X      .     ....    ..  ...... .   .     X.. .    ... .     ..",
"             XX           .          .....                                   XX           .          .....                                   XX           .          .....                                   XX           .          .....                                   XX           .          .....                                   XX           .          .....                                   XX           .          .....                                   XX           .          ..... ",
"ooooooooooo. .X  X.. .ooooooooo..   .oooooooooooo. .o.     .ooooooooooooooo. .X  X.. .ooooooooo..   .oooooooooooo. .o.     .ooooooooooooooo. .X  X.. .ooooooooo..   .oooooooooooo. .o.     .ooooooooooooooo. .X  X.. .ooooooooo..   .oooooooooooo. .o.     .ooooooooooooooo. .X  X.. .ooooooooo..   .oooooooooooo. .o.     .ooooooooooooooo. .X  X.. .ooooooooo..   .oooooooooooo. .o.     .ooooooooooooooo. .X  X.. .ooooooooo..   .oooooooooooo. .o.     .ooooooooooooooo. .X  X.. .ooooooooo..   .oooooo",
"oo.ooooooooo  .  .oooooooXoooooooooooooooooooooooooooooooooooooooo.ooooooooo  .  .oooooooXoooooooooooooooooooooooooooooooooooooooo.ooooooooo  .  .oooooooXoooooooooooooooooooooooooooooooooooooooo.ooooooooo  .  .oooooooXoooooooooooooooooooooooooooooooooooooooo.ooooooooo  .  .oooooooXoooooooooooooooooooooooooooooooooooooooo.ooooooooo  .  .oooooooXoooooooooooooooooooooooooooooooooooooooo.ooooooooo  .  .oooooooXoooooooooooooooooooooooooooooooooooooooo.ooooooooo  .  .oooooooXooooooooooooooooo",
"ooXXoooooooo  X  oooooooXXooXoooXXXXoooXXXXXXXooooXoooooooooooooooXXoooooooo  X  oooooooXXooXoooXXXXoooXXXXXXXooooXoooooooooooooooXXoooooooo  X  oooooooXXooXoooXXXXoooXXXXXXXooooXoooooooooooooooXXoooooooo  X  oooooooXXooXoooXXXXoooXXXXXXXooooXoooooooooooooooXXoooooooo  X  oooooooXXooXoooXXXXoooXXXXXXXooooXoooooooooooooooXXoooooooo  X  oooooooXXooXoooXXXXoooXXXXXXXooooXoooooooooooooooXXoooooooo  X  oooooooXXooXoooXXXXoooXXXXXXXooooXoooooooooooooooXXoooooooo  X  oooooooXXooXoooXXXXoooXXXX",
".XXXXXXXXXXo. .  oXXXXXXXXXXXXXXXXXXXXXXXXXXXXXXXXXXXXXXXXXXXXX..XXXXXXXXXXo. .  oXXXXXXXXXXXXXXXXXXXXXXXXXXXXXXXXXXXXXXXXXXXXX..XXXXXXXXXXo. .  oXXXXXXXXXXXXXXXXXXXXXXXXXXXXXXXXXXXXXXXXXXXXX..XXXXXXXXXXo. .  oXXXXXXXXXXXXXXXXXXXXXXXXXXXXXXXXXXXXXXXXXXXXX..XXXXXXXXXXo. .  oXXXXXXXXXXXXXXXXXXXXXXXXXXXXXXXXXXXXXXXXXXXXX..XXXXXXXXXXo. .  oXXXXXXXXXXXXXXXXXXXXXXXXXXXXXXXXXXXXXXXXXXXXX..XXXXXXXXXXo. .  oXXXXXXXXXXXXXXXXXXXXXXXXXXXXXXXXXXXXXXXXXXXXX..XXXXXXXXXXo. .  oXXXXXXXXXXXXXXXXXXXXXXXXX",
"XXXXXXXXXXXoo    oXXXX XXXXXXXXXXXXXXXXXXXXXXXXXXXXXXXXXXXXXXXXXXXXXXXXXXXXoo    oXXXX XXXXXXXXXXXXXXXXXXXXXXXXXXXXXXXXXXXXXXXXXXXXXXXXXXXXoo    oXXXX XXXXXXXXXXXXXXXXXXXXXXXXXXXXXXXXXXXXXXXXXXXXXXXXXXXXoo    oXXXX XXXXXXXXXXXXXXXXXXXXXXXXXXXXXXXXXXXXXXXXXXXXXXXXXXXXoo    oXXXX XXXXXXXXXXXXXXXXXXXXXXXXXXXXXXXXXXXXXXXXXXXXXXXXXXXXoo    oXXXX XXXXXXXXXXXXXXXXXXXXXXXXXXXXXXXXXXXXXXXXXXXXXXXXXXXXoo    oXXXX XXXXXXXXXXXXXXXXXXXXXXXXXXXXXXXXXXXXXXXXXXXXXXXXXXXXoo    oXXXX XXXXXXXXXXXXXXXXXXXX",
"XXXXXXXXXXXXo .  oXXXX.XXXXXXXXX.X.XXXXXXXXXXXXXXXXXXXXXXXXXXXXXXXXXXXXXXXXXo .  oXXXX.XXXXXXXXX.X.XXXXXXXXXXXXXXXXXXXXXXXXXXXXXXXXXXXXXXXXXo .  oXXXX.XXXXXXXXX.X.XXXXXXXXXXXXXXXXXXXXXXXXXXXXXXXXXXXXXXXXXo .  oXXXX.XXXXXXXXX.X.XXXXXXXXXXXXXXXXXXXXXXXXXXXXXXXXXXXXXXXXXo .  oXXXX.XXXXXXXXX.X.XXXXXXXXXXXXXXXXXXXXXXXXXXXXXXXXXXXXXXXXXo .  oXXXX.XXXXXXXXX.X.XXXXXXXXXXXXXXXXXXXXXXXXXXXXXXXXXXXXXXXXXo .  oXXXX.XXXXXXXXX.X.XXXXXXXXXXXXXXXXXXXXXXXXXXXXXXXXXXXXXXXXXo .  oXXXX.XXXXXXXXX.X.XXXXXXXX",
"XXXXXX XXXXXo .  oXXXXXXXXXXXXX..oXXXXXXXXXXXXXX.XXXXXXXXX.XXXXXXXXXXX XXXXXo .  oXXXXXXXXXXXXX..oXXXXXXXXXXXXXX.XXXXXXXXX.XXXXXXXXXXX XXXXXo .  oXXXXXXXXXXXXX..oXXXXXXXXXXXXXX.XXXXXXXXX.XXXXXXXXXXX XXXXXo .  oXXXXXXXXXXXXX..oXXXXXXXXXXXXXX.XXXXXXXXX.XXXXXXXXXXX XXXXXo .  oXXXXXXXXXXXXX..oXXXXXXXXXXXXXX.XXXXXXXXX.XXXXXXXXXXX XXXXXo .  oXXXXXXXXXXXXX..oXXXXXXXXXXXXXX.XXXXXXXXX.XXXXXXXXXXX XXXXXo .  oXXXXXXXXXXXXX..oXXXXXXXXXXXXXX.XXXXXXXXX.XXXXXXXXXXX XXXXXo .  oXXXXXXXXXXXXX..oXXXXXXXXX",
"XXXXXX.XXXXoo    ooXXXXXXXXXX.. .XXXXXXXXXXXXXXX.XXXXXXXX.XXXXXXXXXXXX.XXXXoo    ooXXXXXXXXXX.. .XXXXXXXXXXXXXXX.XXXXXXXX.XXXXXXXXXXXX.XXXXoo    ooXXXXXXXXXX.. .XXXXXXXXXXXXXXX.XXXXXXXX.XXXXXXXXXXXX.XXXXoo    ooXXXXXXXXXX.. .XXXXXXXXXXXXXXX.XXXXXXXX.XXXXXXXXXXXX.XXXXoo    ooXXXXXXXXXX.. .XXXXXXXXXXXXXXX.XXXXXXXX.XXXXXXXXXXXX.XXXXoo    ooXXXXXXXXXX.. .XXXXXXXXXXXXXXX.XXXXXXXX.XXXXXXXXXXXX.XXXXoo    ooXXXXXXXXXX.. .XXXXXXXXXXXXXXX.XXXXXXXX.XXXXXXXXXXXX.XXXXoo    ooXXXXXXXXXX.. .XXXXXXXXXX",
"XXXXXXXXXXXoo    ooXXXXXXXX.   .oXXXX XXXXXXXXXXoXXXXXXXX.oXXXXXXXXXXXXXXXXoo    ooXXXXXXXX.   .oXXXX XXXXXXXXXXoXXXXXXXX.oXXXXXXXXXXXXXXXXoo    ooXXXXXXXX.   .oXXXX XXXXXXXXXXoXXXXXXXX.oXXXXXXXXXXXXXXXXoo    ooXXXXXXXX.   .oXXXX XXXXXXXXXXoXXXXXXXX.oXXXXXXXXXXXXXXXXoo    ooXXXXXXXX.   .oXXXX XXXXXXXXXXoXXXXXXXX.oXXXXXXXXXXXXXXXXoo    ooXXXXXXXX.   .oXXXX XXXXXXXXXXoXXXXXXXX.oXXXXXXXXXXXXXXXXoo    ooXXXXXXXX.   .oXXXX XXXXXXXXXXoXXXXXXXX.oXXXXXXXXXXXXXXXXoo    ooXXXXXXXX.   .oXXXX XXXXX",
"XXXXXXXXXXXXo    XoXXXXXXX.oooo.XXXXX.XXXXXXXXXXXXXXXXXXXXoXXXXXXXXXXXXXXXXXo    XoXXXXXXX.oooo.XXXXX.XXXXXXXXXXXXXXXXXXXXoXXXXXXXXXXXXXXXXXo    XoXXXXXXX.oooo.XXXXX.XXXXXXXXXXXXXXXXXXXXoXXXXXXXXXXXXXXXXXo    XoXXXXXXX.oooo.XXXXX.XXXXXXXXXXXXXXXXXXXXoXXXXXXXXXXXXXXXXXo    XoXXXXXXX.oooo.XXXXX.XXXXXXXXXXXXXXXXXXXXoXXXXXXXXXXXXXXXXXo    XoXXXXXXX.oooo.XXXXX.XXXXXXXXXXXXXXXXXXXXoXXXXXXXXXXXXXXXXXo    XoXXXXXXX.oooo.XXXXX.XXXXXXXXXXXXXXXXXXXXoXXXXXXXXXXXXXXXXXo    XoXXXXXXX.oooo.XXXXX.XXXXX",
"XXXXXXXXXXXXo    XoXXXXXXXXXXXXXXXXXXXXXXXXXXXXXXXXXXXXXXoXXXXXXXXXXXXXXXXXXo    XoXXXXXXXXXXXXXXXXXXXXXXXXXXXXXXXXXXXXXXoXXXXXXXXXXXXXXXXXXo    XoXXXXXXXXXXXXXXXXXXXXXXXXXXXXXXXXXXXXXXoXXXXXXXXXXXXXXXXXXo    XoXXXXXXXXXXXXXXXXXXXXXXXXXXXXXXXXXXXXXXoXXXXXXXXXXXXXXXXXXo    XoXXXXXXXXXXXXXXXXXXXXXXXXXXXXXXXXXXXXXXoXXXXXXXXXXXXXXXXXXo    XoXXXXXXXXXXXXXXXXXXXXXXXXXXXXXXXXXXXXXXoXXXXXXXXXXXXXXXXXXo    XoXXXXXXXXXXXXXXXXXXXXXXXXXXXXXXXXXXXXXXoXXXXXXXXXXXXXXXXXXo    XoXXXXXXXXXXXXXXXXXXXXXXXX",
"XXXXXXXXXXXoo  . ooXXXXXXXXXXXXXXXXXXXXXXXXXXXXXXXXXXXXXXXXXXXXXXXXXXXXXXXXoo  . ooXXXXXXXXXXXXXXXXXXXXXXXXXXXXXXXXXXXXXXXXXXXXXXXXXXXXXXXXoo  . ooXXXXXXXXXXXXXXXXXXXXXXXXXXXXXXXXXXXXXXXXXXXXXXXXXXXXXXXXoo  . ooXXXXXXXXXXXXXXXXXXXXXXXXXXXXXXXXXXXXXXXXXXXXXXXXXXXXXXXXoo  . ooXXXXXXXXXXXXXXXXXXXXXXXXXXXXXXXXXXXXXXXXXXXXXXXXXXXXXXXXoo  . ooXXXXXXXXXXXXXXXXXXXXXXXXXXXXXXXXXXXXXXXXXXXXXXXXXXXXXXXXoo  . ooXXXXXXXXXXXXXXXXXXXXXXXXXXXXXXXXXXXXXXXXXXXXXXXXXXXXXXXXoo  . ooXXXXXXXXXXXXXXXXXXXXXXXX",
"XXXXXXXXXXXoo    ooXX.XXXXXXXXXXXXXXXXXXXX..XXXXXXXXXXXXXXXXXXXXXXXXXXXXXXXoo    ooXX.XXXXXXXXXXXXXXXXXXXX..XXXXXXXXXXXXXXXXXXXXXXXXXXXXXXXoo    ooXX.XXXXXXXXXXXXXXXXXXXX..XXXXXXXXXXXXXXXXXXXXXXXXXXXXXXXoo    ooXX.XXXXXXXXXXXXXXXXXXXX..XXXXXXXXXXXXXXXXXXXXXXXXXXXXXXXoo    ooXX.XXXXXXXXXXXXXXXXXXXX..XXXXXXXXXXXXXXXXXXXXXXXXXXXXXXXoo    ooXX.XXXXXXXXXXXXXXXXXXXX..XXXXXXXXXXXXXXXXXXXXXXXXXXXXXXXoo    ooXX.XXXXXXXXXXXXXXXXXXXX..XXXXXXXXXXXXXXXXXXXXXXXXXXXXXXXoo    ooXX.XXXXXXXXXXXXXXXXXXXX.",
"XXXX..XXXXXoo    ooXXX.XXXXXXXXXXXXXXXXXXXXXXXXXXXXXXXXXXXXXXXXXXXXX..XXXXXoo    ooXXX.XXXXXXXXXXXXXXXXXXXXXXXXXXXXXXXXXXXXXXXXXXXXX..XXXXXoo    ooXXX.XXXXXXXXXXXXXXXXXXXXXXXXXXXXXXXXXXXXXXXXXXXXX..XXXXXoo    ooXXX.XXXXXXXXXXXXXXXXXXXXXXXXXXXXXXXXXXXXXXXXXXXXX..XXXXXoo    ooXXX.XXXXXXXXXXXXXXXXXXXXXXXXXXXXXXXXXXXXXXXXXXXXX..XXXXXoo    ooXXX.XXXXXXXXXXXXXXXXXXXXXXXXXXXXXXXXXXXXXXXXXXXXX..XXXXXoo    ooXXX.XXXXXXXXXXXXXXXXXXXXXXXXXXXXXXXXXXXXXXXXXXXXX..XXXXXoo    ooXXX.XXXXXXXXXXXXXXXXXXXX",
"XXXXXX....oo. .  o.......XXXXX.......XXXXXXXXXXXX....XXX..XXX.XXXXXXXX....oo. .  o.......XXXXX.......XXXXXXXXXXXX....XXX..XXX.XXXXXXXX....oo. .  o.......XXXXX.......XXXXXXXXXXXX....XXX..XXX.XXXXXXXX....oo. .  o.......XXXXX.......XXXXXXXXXXXX....XXX..XXX.XXXXXXXX....oo. .  o.......XXXXX.......XXXXXXXXXXXX....XXX..XXX.XXXXXXXX....oo. .  o.......XXXXX.......XXXXXXXXXXXX....XXX..XXX.XXXXXXXX....oo. .  o.......XXXXX.......XXXXXXXXXXXX....XXX..XXX.XXXXXXXX....oo. .  o.......XXXXX.......XXXXXX",
".X.........o  .   ......X................XX......................X.........o  .   ......X................XX......................X.........o  .   ......X................XX......................X.........o  .   ......X................XX......................X.........o  .   ......X................XX......................X.........o  .   ......X................XX......................X.........o  .   ......X................XX......................X.........o  .   ......X................XX",
".........         ..  .... ....  . .............   . ....................         ..  .... ....  . .............   . ....................         ..  .... ....  . .............   . ....................         ..  .... ....  . .............   . ....................         ..  .... ....  . .............   . ....................         ..  .... ....  . .............   . ....................         ..  .... ....  . .............   . ....................         ..  .... ....  . ........",
"            .                                                               .                                                               .                                                               .                                                               .                                                               .                                                               .                                                               .                              ",
"           ...                                                             ...                                                             ...                                                             ...                                                             ...                                                             ...                                                             ...                                                             ...                             ",
"   ...    ...... .......X .X   ..  ...  .....           ..         ...    ...... .......X .X   ..  ...  .....           ..         ...    ...... .......X .X   ..  ...  .....           ..         ...    ...... .......X .X   ..  ...  .....           ..         ...    ...... .......X .X   ..  ...  .....           ..         ...    ...... .......X .X   ..  ...  .....           ..         ...    ...... .......X .X   ..  ...  .....           ..         ...    ...... .......X .X   ..  ...  ...",
"     ....    ..    .       ..       ...                              ....    ..    .       ..       ...                              ....    ..    .       ..       ...                              ....    ..    .       ..       ...                              ....    ..    .       ..       ...                              ....    ..    .       ..       ...                              ....    ..    .       ..       ...                              ....    ..    .       ..       ...    ",
"oooooooooooooooooooooooo.  X.  .Xooooooooooo. .oooo..        .oooooooooooooooooooooooooo.  X.  .Xooooooooooo. .oooo..        .oooooooooooooooooooooooooo.  X.  .Xooooooooooo. .oooo..        .oooooooooooooooooooooooooo.  X.  .Xooooooooooo. .oooo..        .oooooooooooooooooooooooooo.  X.  .Xooooooooooo. .oooo..        .oooooooooooooooooooooooooo.  X.  .Xooooooooooo. .oooo..        .oooooooooooooooooooooooooo.  X.  .Xooooooooooo. .oooo..        .oooooooooooooooooooooooooo.  X.  .Xoooooooooo",
"ooooooo.  ooXoXooXooooooo.  . .XoooooXoooXooo.ooooooo. .ooooooooooooooo.  ooXoXooXooooooo.  . .XoooooXoooXooo.ooooooo. .ooooooooooooooo.  ooXoXooXooooooo.  . .XoooooXoooXooo.ooooooo. .ooooooooooooooo.  ooXoXooXooooooo.  . .XoooooXoooXooo.ooooooo. .ooooooooooooooo.  ooXoXooXooooooo.  . .XoooooXoooXooo.ooooooo. .ooooooooooooooo.  ooXoXooXooooooo.  . .XoooooXoooXooo.ooooooo. .ooooooooooooooo.  ooXoXooXooooooo.  . .XoooooXoooXooo.ooooooo. .ooooooooooooooo.  ooXoXooXooooooo.  . .XoooooXoooXo",
"oooXXXXo   XXXXXXXXXoXoooo X  XoXooXXXXXXXXXXXXooXXXoooooXXoXooooooXXXXo   XXXXXXXXXoXoooo X  XoXooXXXXXXXXXXXXooXXXoooooXXoXooooooXXXXo   XXXXXXXXXoXoooo X  XoXooXXXXXXXXXXXXooXXXoooooXXoXooooooXXXXo   XXXXXXXXXoXoooo X  XoXooXXXXXXXXXXXXooXXXoooooXXoXooooooXXXXo   XXXXXXXXXoXoooo X  XoXooXXXXXXXXXXXXooXXXoooooXXoXooooooXXXXo   XXXXXXXXXoXoooo X  XoXooXXXXXXXXXXXXooXXXoooooXXoXooooooXXXXo   XXXXXXXXXoXoooo X  XoXooXXXXXXXXXXXXooXXXoooooXXoXooooooXXXXo   XXXXXXXXXoXoooo X  XoXooXXXXXXXX",
"XXXoXXXXo.  XXXXXXXXXXXXoX X  XoXXXXXXXXXXXXXXXXXXXXXXXXXXXXXXXXXXXoXXXXo.  XXXXXXXXXXXXoX X  XoXXXXXXXXXXXXXXXXXXXXXXXXXXXXXXXXXXXoXXXXo.  XXXXXXXXXXXXoX X  XoXXXXXXXXXXXXXXXXXXXXXXXXXXXXXXXXXXXoXXXXo.  XXXXXXXXXXXXoX X  XoXXXXXXXXXXXXXXXXXXXXXXXXXXXXXXXXXXXoXXXXo.  XXXXXXXXXXXXoX X  XoXXXXXXXXXXXXXXXXXXXXXXXXXXXXXXXXXXXoXXXXo.  XXXXXXXXXXXXoX X  XoXXXXXXXXXXXXXXXXXXXXXXXXXXXXXXXXXXXoXXXXo.  XXXXXXXXXXXXoX X  XoXXXXXXXXXXXXXXXXXXXXXXXXXXXXXXXXXXXoXXXXo.  XXXXXXXXXXXXoX X  XoXXXXXXXXXXX",
"XXXXXXXXXo. .XXXXXXXXXXXXo    oXXXXXXXXXXXXXXXXXXXXXXXXXXXXXXXXXXXXXXXXXXo. .XXXXXXXXXXXXo    oXXXXXXXXXXXXXXXXXXXXXXXXXXXXXXXXXXXXXXXXXXo. .XXXXXXXXXXXXo    oXXXXXXXXXXXXXXXXXXXXXXXXXXXXXXXXXXXXXXXXXXo. .XXXXXXXXXXXXo    oXXXXXXXXXXXXXXXXXXXXXXXXXXXXXXXXXXXXXXXXXXo. .XXXXXXXXXXXXo    oXXXXXXXXXXXXXXXXXXXXXXXXXXXXXXXXXXXXXXXXXXo. .XXXXXXXXXXXXo    oXXXXXXXXXXXXXXXXXXXXXXXXXXXXXXXXXXXXXXXXXXo. .XXXXXXXXXXXXo    oXXXXXXXXXXXXXXXXXXXXXXXXXXXXXXXXXXXXXXXXXXo. .XXXXXXXXXXXXo    oXXXXXXXXXXXX",
"XXXXXXXXXXo.. XXXXXXXXXXXo .  oXXXXXXXXXXXXXXXX  XXXXXXXXXXXXXXXXXXXXXXXXXo.. XXXXXXXXXXXo .  oXXXXXXXXXXXXXXXX  XXXXXXXXXXXXXXXXXXXXXXXXXo.. XXXXXXXXXXXo .  oXXXXXXXXXXXXXXXX  XXXXXXXXXXXXXXXXXXXXXXXXXo.. XXXXXXXXXXXo .  oXXXXXXXXXXXXXXXX  XXXXXXXXXXXXXXXXXXXXXXXXXo.. XXXXXXXXXXXo .  oXXXXXXXXXXXXXXXX  XXXXXXXXXXXXXXXXXXXXXXXXXo.. XXXXXXXXXXXo .  oXXXXXXXXXXXXXXXX  XXXXXXXXXXXXXXXXXXXXXXXXXo.. XXXXXXXXXXXo .  oXXXXXXXXXXXXXXXX  XXXXXXXXXXXXXXXXXXXXXXXXXo.. XXXXXXXXXXXo .  oXXXXXXXXXXXX",
"XXXXXXXXXXXo..XXXXXXXXXXoo .  oXXXXXXXXXXXXXXXX..   XXXXXXXXXXXXXXXXXXXXXXXo..XXXXXXXXXXoo .  oXXXXXXXXXXXXXXXX..   XXXXXXXXXXXXXXXXXXXXXXXo..XXXXXXXXXXoo .  oXXXXXXXXXXXXXXXX..   XXXXXXXXXXXXXXXXXXXXXXXo..XXXXXXXXXXoo .  oXXXXXXXXXXXXXXXX..   XXXXXXXXXXXXXXXXXXXXXXXo..XXXXXXXXXXoo .  oXXXXXXXXXXXXXXXX..   XXXXXXXXXXXXXXXXXXXXXXXo..XXXXXXXXXXoo .  oXXXXXXXXXXXXXXXX..   XXXXXXXXXXXXXXXXXXXXXXXo..XXXXXXXXXXoo .  oXXXXXXXXXXXXXXXX..   XXXXXXXXXXXXXXXXXXXXXXXo..XXXXXXXXXXoo .  oXXXXXXXXXXXX",
"..XXXXXXXXXXX..XXXXXXXXXoo .  ooXXXXXXXXXXXXXXXXo....XXXXXXXXXXX..XXXXXXXXXXX..XXXXXXXXXoo .  ooXXXXXXXXXXXXXXXXo....XXXXXXXXXXX..XXXXXXXXXXX..XXXXXXXXXoo .  ooXXXXXXXXXXXXXXXXo....XXXXXXXXXXX..XXXXXXXXXXX..XXXXXXXXXoo .  ooXXXXXXXXXXXXXXXXo....XXXXXXXXXXX..XXXXXXXXXXX..XXXXXXXXXoo .  ooXXXXXXXXXXXXXXXXo....XXXXXXXXXXX..XXXXXXXXXXX..XXXXXXXXXoo .  ooXXXXXXXXXXXXXXXXo....XXXXXXXXXXX..XXXXXXXXXXX..XXXXXXXXXoo .  ooXXXXXXXXXXXXXXXXo....XXXXXXXXXXX..XXXXXXXXXXX..XXXXXXXXXoo .  ooXXXXXXXXXXX",
"XXXXXXXXXXXXXo..XXXXXXXXXo    ooXXXXXXX...XXXXXXXXXXXXXXXXXXXXXXXXXXXXXXXXXXXo..XXXXXXXXXo    ooXXXXXXX...XXXXXXXXXXXXXXXXXXXXXXXXXXXXXXXXXXXo..XXXXXXXXXo    ooXXXXXXX...XXXXXXXXXXXXXXXXXXXXXXXXXXXXXXXXXXXo..XXXXXXXXXo    ooXXXXXXX...XXXXXXXXXXXXXXXXXXXXXXXXXXXXXXXXXXXo..XXXXXXXXXo    ooXXXXXXX...XXXXXXXXXXXXXXXXXXXXXXXXXXXXXXXXXXXo..XXXXXXXXXo    ooXXXXXXX...XXXXXXXXXXXXXXXXXXXXXXXXXXXXXXXXXXXo..XXXXXXXXXo    ooXXXXXXX...XXXXXXXXXXXXXXXXXXXXXXXXXXXXXXXXXXXo..XXXXXXXXXo    ooXXXXXXX...X",
"XXXXXXXXXXXXXXX.XXXXXXXXoo X  XoXXXXXXXo...XXXXXXXXXXXXXXXXXXXXXXXXXXXXXXXXXXXX.XXXXXXXXoo X  XoXXXXXXXo...XXXXXXXXXXXXXXXXXXXXXXXXXXXXXXXXXXXX.XXXXXXXXoo X  XoXXXXXXXo...XXXXXXXXXXXXXXXXXXXXXXXXXXXXXXXXXXXX.XXXXXXXXoo X  XoXXXXXXXo...XXXXXXXXXXXXXXXXXXXXXXXXXXXXXXXXXXXX.XXXXXXXXoo X  XoXXXXXXXo...XXXXXXXXXXXXXXXXXXXXXXXXXXXXXXXXXXXX.XXXXXXXXoo X  XoXXXXXXXo...XXXXXXXXXXXXXXXXXXXXXXXXXXXXXXXXXXXX.XXXXXXXXoo X  XoXXXXXXXo...XXXXXXXXXXXXXXXXXXXXXXXXXXXXXXXXXXXX.XXXXXXXXoo X  XoXXXXXXXo...",
"XXXXXXXXXXXXXo..XXXXXXXXXo .  ooXXXXXXXXooo.XXXXXXXXXXXX.XXXXXXXXXXXXXXXXXXXXo..XXXXXXXXXo .  ooXXXXXXXXooo.XXXXXXXXXXXX.XXXXXXXXXXXXXXXXXXXXo..XXXXXXXXXo .  ooXXXXXXXXooo.XXXXXXXXXXXX.XXXXXXXXXXXXXXXXXXXXo..XXXXXXXXXo .  ooXXXXXXXXooo.XXXXXXXXXXXX.XXXXXXXXXXXXXXXXXXXXo..XXXXXXXXXo .  ooXXXXXXXXooo.XXXXXXXXXXXX.XXXXXXXXXXXXXXXXXXXXo..XXXXXXXXXo .  ooXXXXXXXXooo.XXXXXXXXXXXX.XXXXXXXXXXXXXXXXXXXXo..XXXXXXXXXo .  ooXXXXXXXXooo.XXXXXXXXXXXX.XXXXXXXXXXXXXXXXXXXXo..XXXXXXXXXo .  ooXXXXXXXXooo",
"XXXXXXXXXXXXXXXoXXXXXXXXXo .  oXXXXXXXXXXXXXXXXXX. XXXXXX.XXXXXXXXXXXXXXXXXXXXXoXXXXXXXXXo .  oXXXXXXXXXXXXXXXXXX. XXXXXX.XXXXXXXXXXXXXXXXXXXXXoXXXXXXXXXo .  oXXXXXXXXXXXXXXXXXX. XXXXXX.XXXXXXXXXXXXXXXXXXXXXoXXXXXXXXXo .  oXXXXXXXXXXXXXXXXXX. XXXXXX.XXXXXXXXXXXXXXXXXXXXXoXXXXXXXXXo .  oXXXXXXXXXXXXXXXXXX. XXXXXX.XXXXXXXXXXXXXXXXXXXXXoXXXXXXXXXo .  oXXXXXXXXXXXXXXXXXX. XXXXXX.XXXXXXXXXXXXXXXXXXXXXoXXXXXXXXXo .  oXXXXXXXXXXXXXXXXXX. XXXXXX.XXXXXXXXXXXXXXXXXXXXXoXXXXXXXXXo .  oXXXXXXXXXXXX",
"XXXXXXXXXXXXXXXXXXXXXXXXoo .  ooXXXXXXXXXXXXXXXXXXXXXXXXXXXXXXXXXXXXXXXXXXXXXXXXXXXXXXXXoo .  ooXXXXXXXXXXXXXXXXXXXXXXXXXXXXXXXXXXXXXXXXXXXXXXXXXXXXXXXXoo .  ooXXXXXXXXXXXXXXXXXXXXXXXXXXXXXXXXXXXXXXXXXXXXXXXXXXXXXXXXoo .  ooXXXXXXXXXXXXXXXXXXXXXXXXXXXXXXXXXXXXXXXXXXXXXXXXXXXXXXXXoo .  ooXXXXXXXXXXXXXXXXXXXXXXXXXXXXXXXXXXXXXXXXXXXXXXXXXXXXXXXXoo .  ooXXXXXXXXXXXXXXXXXXXXXXXXXXXXXXXXXXXXXXXXXXXXXXXXXXXXXXXXoo .  ooXXXXXXXXXXXXXXXXXXXXXXXXXXXXXXXXXXXXXXXXXXXXXXXXXXXXXXXXoo .  ooXXXXXXXXXXX",
"XXXXXXXXXXXXXXXXXXXX..XXoo    ooXX.XXXXXXXXXXXXXXXXXXXXXXXXXXXXXXXXXXXXXXXXXXXXXXXXX..XXoo    ooXX.XXXXXXXXXXXXXXXXXXXXXXXXXXXXXXXXXXXXXXXXXXXXXXXXX..XXoo    ooXX.XXXXXXXXXXXXXXXXXXXXXXXXXXXXXXXXXXXXXXXXXXXXXXXXX..XXoo    ooXX.XXXXXXXXXXXXXXXXXXXXXXXXXXXXXXXXXXXXXXXXXXXXXXXXX..XXoo    ooXX.XXXXXXXXXXXXXXXXXXXXXXXXXXXXXXXXXXXXXXXXXXXXXXXXX..XXoo    ooXX.XXXXXXXXXXXXXXXXXXXXXXXXXXXXXXXXXXXXXXXXXXXXXXXXX..XXoo    ooXX.XXXXXXXXXXXXXXXXXXXXXXXXXXXXXXXXXXXXXXXXXXXXXXXXX..XXoo    ooXX.XXXXXXXX",
"XX..X...XXXXXXXXXX.......o    o....XXXXXXXXXXX....XXXXXX....XXXXXX..X...XXXXXXXXXX.......o    o....XXXXXXXXXXX....XXXXXX....XXXXXX..X...XXXXXXXXXX.......o    o....XXXXXXXXXXX....XXXXXX....XXXXXX..X...XXXXXXXXXX.......o    o....XXXXXXXXXXX....XXXXXX....XXXXXX..X...XXXXXXXXXX.......o    o....XXXXXXXXXXX....XXXXXX....XXXXXX..X...XXXXXXXXXX.......o    o....XXXXXXXXXXX....XXXXXX....XXXXXX..X...XXXXXXXXXX.......o    o....XXXXXXXXXXX....XXXXXX....XXXXXX..X...XXXXXXXXXX.......o    o....XXXXXXXX",
".........X......X........  .  ...............XXX....X....................X......X........  .  ...............XXX....X....................X......X........  .  ...............XXX....X....................X......X........  .  ...............XXX....X....................X......X........  .  ...............XXX....X....................X......X........  .  ...............XXX....X....................X......X........  .  ...............XXX....X....................X......X........  .  .............",
".... ...................  ..      .....  ...............        .... ...................  ..      .....  ...............        .... ...................  ..      .....  ...............        .... ...................  ..      .....  ...............        .... ...................  ..      .....  ...............        .... ...................  ..      .....  ...............        .... ...................  ..      .....  ...............        .... ...................  ..      .....  ..",
"                          .                                                               .                                                               .                                                               .                                                               .                                                               .                                                               .                                                               .                ",
"                        ....                                .                           ....                                .                           ....                                .                           ....                                .                           ....                                .                           ....                                .                           ....                                .                           ....               ",
"... ..        ....  ...  . ..           ...X  ....     ..  .    ... ..        ....  ...  . ..           ...X  ....     ..  .    ... ..        ....  ...  . ..           ...X  ....     ..  .    ... ..        ....  ...  . ..           ...X  ....     ..  .    ... ..        ....  ...  . ..           ...X  ....     ..  .    ... ..        ....  ...  . ..           ...X  ....     ..  .    ... ..        ....  ...  . ..           ...X  ....     ..  .    ... ..        ....  ...  . ..           ...",
"      . .                                  .X                         . .                                  .X                         . .                                  .X                         . .                                  .X                         . .                                  .X                         . .                                  .X                         . .                                  .X                         . .                                  ",
" .Xoooooooooo.oX..Xoo..ooooo. .ooooooXXX..  .   .XX.. .   .Xooo. .Xoooooooooo.oX..Xoo..ooooo. .ooooooXXX..  .   .XX.. .   .Xooo. .Xoooooooooo.oX..Xoo..ooooo. .ooooooXXX..  .   .XX.. .   .Xooo. .Xoooooooooo.oX..Xoo..ooooo. .ooooooXXX..  .   .XX.. .   .Xooo. .Xoooooooooo.oX..Xoo..ooooo. .ooooooXXX..  .   .XX.. .   .Xooo. .Xoooooooooo.oX..Xoo..ooooo. .ooooooXXX..  .   .XX.. .   .Xooo. .Xoooooooooo.oX..Xoo..ooooo. .ooooooXXX..  .   .XX.. .   .Xooo. .Xoooooooooo.oX..Xoo..ooooo. .ooooooXXX.. ",
"ooooooooXooooXooooooooooooooooooXooooooooo. .   ooooooooooooooooooooooooXooooXooooooooooooooooooXooooooooo. .   ooooooooooooooooooooooooXooooXooooooooooooooooooXooooooooo. .   ooooooooooooooooooooooooXooooXooooooooooooooooooXooooooooo. .   ooooooooooooooooooooooooXooooXooooooooooooooooooXooooooooo. .   ooooooooooooooooooooooooXooooXooooooooooooooooooXooooooooo. .   ooooooooooooooooooooooooXooooXooooooooooooooooooXooooooooo. .   ooooooooooooooooooooooooXooooXooooooooooooooooooXooooooooo.",
"oooXXXoXXXXXXXXXXXoooXXoooooXoooXXXXoooooo. .   ooooooXXoXoooXoooooXXXoXXXXXXXXXXXoooXXoooooXoooXXXXoooooo. .   ooooooXXoXoooXoooooXXXoXXXXXXXXXXXoooXXoooooXoooXXXXoooooo. .   ooooooXXoXoooXoooooXXXoXXXXXXXXXXXoooXXoooooXoooXXXXoooooo. .   ooooooXXoXoooXoooooXXXoXXXXXXXXXXXoooXXoooooXoooXXXXoooooo. .   ooooooXXoXoooXoooooXXXoXXXXXXXXXXXoooXXoooooXoooXXXXoooooo. .   ooooooXXoXoooXoooooXXXoXXXXXXXXXXXoooXXoooooXoooXXXXoooooo. .   ooooooXXoXoooXoooooXXXoXXXXXXXXXXXoooXXoooooXoooXXXXoooooo.",
"XXXXXX.XXXXXXXXXXXXXXXXXXXXXXXXXXXXXXXXXXoX .  .oXXXXXXXXXXXXXXXXXXXXX.XXXXXXXXXXXXXXXXXXXXXXXXXXXXXXXXXXoX .  .oXXXXXXXXXXXXXXXXXXXXX.XXXXXXXXXXXXXXXXXXXXXXXXXXXXXXXXXXoX .  .oXXXXXXXXXXXXXXXXXXXXX.XXXXXXXXXXXXXXXXXXXXXXXXXXXXXXXXXXoX .  .oXXXXXXXXXXXXXXXXXXXXX.XXXXXXXXXXXXXXXXXXXXXXXXXXXXXXXXXXoX .  .oXXXXXXXXXXXXXXXXXXXXX.XXXXXXXXXXXXXXXXXXXXXXXXXXXXXXXXXXoX .  .oXXXXXXXXXXXXXXXXXXXXX.XXXXXXXXXXXXXXXXXXXXXXXXXXXXXXXXXXoX .  .oXXXXXXXXXXXXXXXXXXXXX.XXXXXXXXXXXXXXXXXXXXXXXXXXXXXXXXXXoX",
"XXXXXXXXXXXXXXXXXXXXXXXXXXXXXXXXXXXXXXXXXoX .  .XXXXXXXXXXXXXXXXXXXXXXXXXXXXXXXXXXXXXXXXXXXXXXXXXXXXXXXXXoX .  .XXXXXXXXXXXXXXXXXXXXXXXXXXXXXXXXXXXXXXXXXXXXXXXXXXXXXXXXXoX .  .XXXXXXXXXXXXXXXXXXXXXXXXXXXXXXXXXXXXXXXXXXXXXXXXXXXXXXXXXoX .  .XXXXXXXXXXXXXXXXXXXXXXXXXXXXXXXXXXXXXXXXXXXXXXXXXXXXXXXXXoX .  .XXXXXXXXXXXXXXXXXXXXXXXXXXXXXXXXXXXXXXXXXXXXXXXXXXXXXXXXXoX .  .XXXXXXXXXXXXXXXXXXXXXXXXXXXXXXXXXXXXXXXXXXXXXXXXXXXXXXXXXoX .  .XXXXXXXXXXXXXXXXXXXXXXXXXXXXXXXXXXXXXXXXXXXXXXXXXXXXXXXXXoX",
"XXXXXXXXXXXXXXXXXXXXXXXXXXXXXXXXXXXXX.XXXoo .  XoXXXXXXXXXXXXXXXXXXXXXXXXXXXXXXXXXXXXXXXXXXXXXXXXXXXX.XXXoo .  XoXXXXXXXXXXXXXXXXXXXXXXXXXXXXXXXXXXXXXXXXXXXXXXXXXXXX.XXXoo .  XoXXXXXXXXXXXXXXXXXXXXXXXXXXXXXXXXXXXXXXXXXXXXXXXXXXXX.XXXoo .  XoXXXXXXXXXXXXXXXXXXXXXXXXXXXXXXXXXXXXXXXXXXXXXXXXXXXX.XXXoo .  XoXXXXXXXXXXXXXXXXXXXXXXXXXXXXXXXXXXXXXXXXXXXXXXXXXXXX.XXXoo .  XoXXXXXXXXXXXXXXXXXXXXXXXXXXXXXXXXXXXXXXXXXXXXXXXXXXXX.XXXoo .  XoXXXXXXXXXXXXXXXXXXXXXXXXXXXXXXXXXXXXXXXXXXXXXXXXXXXX.XXXoo",
"XXXXXXXXXXXXXXXXX.XXXXXXXXXXXXXXXXXXX..XXXo  . XoXXXXXXXXXXXXXXXXXXXXXXXXXXXXXXXX.XXXXXXXXXXXXXXXXXXX..XXXo  . XoXXXXXXXXXXXXXXXXXXXXXXXXXXXXXXXX.XXXXXXXXXXXXXXXXXXX..XXXo  . XoXXXXXXXXXXXXXXXXXXXXXXXXXXXXXXXX.XXXXXXXXXXXXXXXXXXX..XXXo  . XoXXXXXXXXXXXXXXXXXXXXXXXXXXXXXXXX.XXXXXXXXXXXXXXXXXXX..XXXo  . XoXXXXXXXXXXXXXXXXXXXXXXXXXXXXXXXX.XXXXXXXXXXXXXXXXXXX..XXXo  . XoXXXXXXXXXXXXXXXXXXXXXXXXXXXXXXXX.XXXXXXXXXXXXXXXXXXX..XXXo  . XoXXXXXXXXXXXXXXXXXXXXXXXXXXXXXXXX.XXXXXXXXXXXXXXXXXXX..XXXo",
"XXXXXXXXXXXXXXXXXoXXXXXXXXXXXXXXXXXXXX.XXoo    ooXXXXX.XXXXXXXXXXXXXXXXXXXXXXXXXXoXXXXXXXXXXXXXXXXXXXX.XXoo    ooXXXXX.XXXXXXXXXXXXXXXXXXXXXXXXXXoXXXXXXXXXXXXXXXXXXXX.XXoo    ooXXXXX.XXXXXXXXXXXXXXXXXXXXXXXXXXoXXXXXXXXXXXXXXXXXXXX.XXoo    ooXXXXX.XXXXXXXXXXXXXXXXXXXXXXXXXXoXXXXXXXXXXXXXXXXXXXX.XXoo    ooXXXXX.XXXXXXXXXXXXXXXXXXXXXXXXXXoXXXXXXXXXXXXXXXXXXXX.XXoo    ooXXXXX.XXXXXXXXXXXXXXXXXXXXXXXXXXoXXXXXXXXXXXXXXXXXXXX.XXoo    ooXXXXX.XXXXXXXXXXXXXXXXXXXXXXXXXXoXXXXXXXXXXXXXXXXXXXX.XXoo",
"XXXXX....XXXXXXXXXXXXXXXXXXXXXX  XXXXXXXXXo    oXXXXXX.XXXXXXXXXXXXXX....XXXXXXXXXXXXXXXXXXXXXX  XXXXXXXXXo    oXXXXXX.XXXXXXXXXXXXXX....XXXXXXXXXXXXXXXXXXXXXX  XXXXXXXXXo    oXXXXXX.XXXXXXXXXXXXXX....XXXXXXXXXXXXXXXXXXXXXX  XXXXXXXXXo    oXXXXXX.XXXXXXXXXXXXXX....XXXXXXXXXXXXXXXXXXXXXX  XXXXXXXXXo    oXXXXXX.XXXXXXXXXXXXXX....XXXXXXXXXXXXXXXXXXXXXX  XXXXXXXXXo    oXXXXXX.XXXXXXXXXXXXXX....XXXXXXXXXXXXXXXXXXXXXX  XXXXXXXXXo    oXXXXXX.XXXXXXXXXXXXXX....XXXXXXXXXXXXXXXXXXXXXX  XXXXXXXXXo",
"XXXXXX.  .XXXXXXXXXXXXXXXXXXXX. .XXXXXXXXXX .  oXXXXXXXXXXXXXXXXXXXXXX.  .XXXXXXXXXXXXXXXXXXXX. .XXXXXXXXXX .  oXXXXXXXXXXXXXXXXXXXXXX.  .XXXXXXXXXXXXXXXXXXXX. .XXXXXXXXXX .  oXXXXXXXXXXXXXXXXXXXXXX.  .XXXXXXXXXXXXXXXXXXXX. .XXXXXXXXXX .  oXXXXXXXXXXXXXXXXXXXXXX.  .XXXXXXXXXXXXXXXXXXXX. .XXXXXXXXXX .  oXXXXXXXXXXXXXXXXXXXXXX.  .XXXXXXXXXXXXXXXXXXXX. .XXXXXXXXXX .  oXXXXXXXXXXXXXXXXXXXXXX.  .XXXXXXXXXXXXXXXXXXXX. .XXXXXXXXXX .  oXXXXXXXXXXXXXXXXXXXXXX.  .XXXXXXXXXXXXXXXXXXXX. .XXXXXXXXXX",
"XXXX.X.oo..XXXXXXXXXXXXXXXXXX. XXXXXXXXXXXo .  ooXXXXXXXXXXXXXXXXXXX.X.oo..XXXXXXXXXXXXXXXXXX. XXXXXXXXXXXo .  ooXXXXXXXXXXXXXXXXXXX.X.oo..XXXXXXXXXXXXXXXXXX. XXXXXXXXXXXo .  ooXXXXXXXXXXXXXXXXXXX.X.oo..XXXXXXXXXXXXXXXXXX. XXXXXXXXXXXo .  ooXXXXXXXXXXXXXXXXXXX.X.oo..XXXXXXXXXXXXXXXXXX. XXXXXXXXXXXo .  ooXXXXXXXXXXXXXXXXXXX.X.oo..XXXXXXXXXXXXXXXXXX. XXXXXXXXXXXo .  ooXXXXXXXXXXXXXXXXXXX.X.oo..XXXXXXXXXXXXXXXXXX. XXXXXXXXXXXo .  ooXXXXXXXXXXXXXXXXXXX.X.oo..XXXXXXXXXXXXXXXXXX. XXXXXXXXXXXo",
"XXXXoXX.XX.XXXXXXXXXXX  XXXXXooXXXXXXXXXXoo .  XoXXXXXXXXXXXXXXXXXXXoXX.XX.XXXXXXXXXXX  XXXXXooXXXXXXXXXXoo .  XoXXXXXXXXXXXXXXXXXXXoXX.XX.XXXXXXXXXXX  XXXXXooXXXXXXXXXXoo .  XoXXXXXXXXXXXXXXXXXXXoXX.XX.XXXXXXXXXXX  XXXXXooXXXXXXXXXXoo .  XoXXXXXXXXXXXXXXXXXXXoXX.XX.XXXXXXXXXXX  XXXXXooXXXXXXXXXXoo .  XoXXXXXXXXXXXXXXXXXXXoXX.XX.XXXXXXXXXXX  XXXXXooXXXXXXXXXXoo .  XoXXXXXXXXXXXXXXXXXXXoXX.XX.XXXXXXXXXXX  XXXXXooXXXXXXXXXXoo .  XoXXXXXXXXXXXXXXXXXXXoXX.XX.XXXXXXXXXXX  XXXXXooXXXXXXXXXXoo",
"XXXXXXXXXXXXXXXXXXXXX..XXXXXXXXXXX.XXXXXXoo .  ooXXXXXXXXXXXXXXXXXXXXXXXXXXXXXXXXXXXX..XXXXXXXXXXX.XXXXXXoo .  ooXXXXXXXXXXXXXXXXXXXXXXXXXXXXXXXXXXXX..XXXXXXXXXXX.XXXXXXoo .  ooXXXXXXXXXXXXXXXXXXXXXXXXXXXXXXXXXXXX..XXXXXXXXXXX.XXXXXXoo .  ooXXXXXXXXXXXXXXXXXXXXXXXXXXXXXXXXXXXX..XXXXXXXXXXX.XXXXXXoo .  ooXXXXXXXXXXXXXXXXXXXXXXXXXXXXXXXXXXXX..XXXXXXXXXXX.XXXXXXoo .  ooXXXXXXXXXXXXXXXXXXXXXXXXXXXXXXXXXXXX..XXXXXXXXXXX.XXXXXXoo .  ooXXXXXXXXXXXXXXXXXXXXXXXXXXXXXXXXXXXX..XXXXXXXXXXX.XXXXXXoo",
"XXXXXXXXXXXXXXXXXXXXXXXXXXXXXXXXXXX.XXXXXoo .  ooXXXXXXXXXXXXXXXXXXXXXXXXXXXXXXXXXXXXXXXXXXXXXXXXXX.XXXXXoo .  ooXXXXXXXXXXXXXXXXXXXXXXXXXXXXXXXXXXXXXXXXXXXXXXXXXX.XXXXXoo .  ooXXXXXXXXXXXXXXXXXXXXXXXXXXXXXXXXXXXXXXXXXXXXXXXXXX.XXXXXoo .  ooXXXXXXXXXXXXXXXXXXXXXXXXXXXXXXXXXXXXXXXXXXXXXXXXXX.XXXXXoo .  ooXXXXXXXXXXXXXXXXXXXXXXXXXXXXXXXXXXXXXXXXXXXXXXXXXX.XXXXXoo .  ooXXXXXXXXXXXXXXXXXXXXXXXXXXXXXXXXXXXXXXXXXXXXXXXXXX.XXXXXoo .  ooXXXXXXXXXXXXXXXXXXXXXXXXXXXXXXXXXXXXXXXXXXXXXXXXXX.XXXXXoo",
"XXXXXXXXXXXXX.XXXXXXXXXXXXXXXXXXXXXXXX.XXoo    ooXXXXXXXXXXXXXXXXXXXXXXXXXXXX.XXXXXXXXXXXXXXXXXXXXXXXX.XXoo    ooXXXXXXXXXXXXXXXXXXXXXXXXXXXX.XXXXXXXXXXXXXXXXXXXXXXXX.XXoo    ooXXXXXXXXXXXXXXXXXXXXXXXXXXXX.XXXXXXXXXXXXXXXXXXXXXXXX.XXoo    ooXXXXXXXXXXXXXXXXXXXXXXXXXXXX.XXXXXXXXXXXXXXXXXXXXXXXX.XXoo    ooXXXXXXXXXXXXXXXXXXXXXXXXXXXX.XXXXXXXXXXXXXXXXXXXXXXXX.XXoo    ooXXXXXXXXXXXXXXXXXXXXXXXXXXXX.XXXXXXXXXXXXXXXXXXXXXXXX.XXoo    ooXXXXXXXXXXXXXXXXXXXXXXXXXXXX.XXXXXXXXXXXXXXXXXXXXXXXX.XXoo",
"XXX...XXXXX.....XXX.XXX...X......X.......oo .  o..X..XX...X...XXXXX...XXXXX.....XXX.XXX...X......X.......oo .  o..X..XX...X...XXXXX...XXXXX.....XXX.XXX...X......X.......oo .  o..X..XX...X...XXXXX...XXXXX.....XXX.XXX...X......X.......oo .  o..X..XX...X...XXXXX...XXXXX.....XXX.XXX...X......X.......oo .  o..X..XX...X...XXXXX...XXXXX.....XXX.XXX...X......X.......oo .  o..X..XX...X...XXXXX...XXXXX.....XXX.XXX...X......X.......oo .  o..X..XX...X...XXXXX...XXXXX.....XXX.XXX...X......X.......oo",
"..................XX.......X..............o    ...................................XX.......X..............o    ...................................XX.......X..............o    ...................................XX.......X..............o    ...................................XX.......X..............o    ...................................XX.......X..............o    ...................................XX.......X..............o    ...................................XX.......X..............o",
"..   ..........   ..     ..... ..........        ........ ........   ..........   ..     ..... ..........        ........ ........   ..........   ..     ..... ..........        ........ ........   ..........   ..     ..... ..........        ........ ........   ..........   ..     ..... ..........        ........ ........   ..........   ..     ..... ..........        ........ ........   ..........   ..     ..... ..........        ........ ........   ..........   ..     ..... ..........  ",
"                                            .                                                               .                                                               .                                                               .                                                               .                                                               .                                                               .                                                              ",
"                                    .     ...       .                                               .     ...       .                                               .     ...       .                                               .     ...       .                                               .     ...       .                                               .     ...       .                                               .     ...       .                                               .     .",
" ..  ...... .   .     X.. .    ... .     ...X      .     ....    ..  ...... .   .     X.. .    ... .     ...X      .     ....    ..  ...... .   .     X.. .    ... .     ...X      .     ....    ..  ...... .   .     X.. .    ... .     ...X      .     ....    ..  ...... .   .     X.. .    ... .     ...X      .     ....    ..  ...... .   .     X.. .    ... .     ...X      .     ....    ..  ...... .   .     X.. .    ... .     ...X      .     ....    ..  ...... .   .     X.. .    ... .     ..",
"             XX           .          .....                                   XX           .          .....                                   XX           .          .....                                   XX           .          .....                                   XX           .          .....                                   XX           .          .....                                   XX           .          .....                                   XX           .          ..... ",
"ooooooooooo. .X  X.. .ooooooooo..   .oooooooooooo. .o.     .ooooooooooooooo. .X  X.. .ooooooooo..   .oooooooooooo. .o.     .ooooooooooooooo. .X  X.. .ooooooooo..   .oooooooooooo. .o.     .ooooooooooooooo. .X  X.. .ooooooooo..   .oooooooooooo. .o.     .ooooooooooooooo. .X  X.. .ooooooooo..   .oooooooooooo. .o.     .ooooooooooooooo. .X  X.. .ooooooooo..   .oooooooooooo. .o.     .ooooooooooooooo. .X  X.. .ooooooooo..   .oooooooooooo. .o.     .ooooooooooooooo. .X  X.. .ooooooooo..   .oooooo",
"oo.ooooooooo  .  .oooooooXoooooooooooooooooooooooooooooooooooooooo.ooooooooo  .  .oooooooXoooooooooooooooooooooooooooooooooooooooo.ooooooooo  .  .oooooooXoooooooooooooooooooooooooooooooooooooooo.ooooooooo  .  .oooooooXoooooooooooooooooooooooooooooooooooooooo.ooooooooo  .  .oooooooXoooooooooooooooooooooooooooooooooooooooo.ooooooooo  .  .oooooooXoooooooooooooooooooooooooooooooooooooooo.ooooooooo  .  .oooooooXoooooooooooooooooooooooooooooooooooooooo.ooooooooo  .  .oooooooXooooooooooooooooo",
"ooXXoooooooo  X  oooooooXXooXoooXXXXoooXXXXXXXooooXoooooooooooooooXXoooooooo  X  oooooooXXooXoooXXXXoooXXXXXXXooooXoooooooooooooooXXoooooooo  X  oooooooXXooXoooXXXXoooXXXXXXXooooXoooooooooooooooXXoooooooo  X  oooooooXXooXoooXXXXoooXXXXXXXooooXoooooooooooooooXXoooooooo  X  oooooooXXooXoooXXXXoooXXXXXXXooooXoooooooooooooooXXoooooooo  X  oooooooXXooXoooXXXXoooXXXXXXXooooXoooooooooooooooXXoooooooo  X  oooooooXXooXoooXXXXoooXXXXXXXooooXoooooooooooooooXXoooooooo  X  oooooooXXooXoooXXXXoooXXXX",
".XXXXXXXXXXo. .  oXXXXXXXXXXXXXXXXXXXXXXXXXXXXXXXXXXXXXXXXXXXXX..XXXXXXXXXXo. .  oXXXXXXXXXXXXXXXXXXXXXXXXXXXXXXXXXXXXXXXXXXXXX..XXXXXXXXXXo. .  oXXXXXXXXXXXXXXXXXXXXXXXXXXXXXXXXXXXXXXXXXXXXX..XXXXXXXXXXo. .  oXXXXXXXXXXXXXXXXXXXXXXXXXXXXXXXXXXXXXXXXXXXXX..XXXXXXXXXXo. .  oXXXXXXXXXXXXXXXXXXXXXXXXXXXXXXXXXXXXXXXXXXXXX..XXXXXXXXXXo. .  oXXXXXXXXXXXXXXXXXXXXXXXXXXXXXXXXXXXXXXXXXXXXX..XXXXXXXXXXo. .  oXXXXXXXXXXXXXXXXXXXXXXXXXXXXXXXXXXXXXXXXXXXXX..XXXXXXXXXXo. .  oXXXXXXXXXXXXXXXXXXXXXXXXX",
"XXXXXXXXXXXoo    oXXXX XXXXXXXXXXXXXXXXXXXXXXXXXXXXXXXXXXXXXXXXXXXXXXXXXXXXoo    oXXXX XXXXXXXXXXXXXXXXXXXXXXXXXXXXXXXXXXXXXXXXXXXXXXXXXXXXoo    oXXXX XXXXXXXXXXXXXXXXXXXXXXXXXXXXXXXXXXXXXXXXXXXXXXXXXXXXoo    oXXXX XXXXXXXXXXXXXXXXXXXXXXXXXXXXXXXXXXXXXXXXXXXXXXXXXXXXoo    oXXXX XXXXXXXXXXXXXXXXXXXXXXXXXXXXXXXXXXXXXXXXXXXXXXXXXXXXoo    oXXXX XXXXXXXXXXXXXXXXXXXXXXXXXXXXXXXXXXXXXXXXXXXXXXXXXXXXoo    oXXXX XXXXXXXXXXXXXXXXXXXXXXXXXXXXXXXXXXXXXXXXXXXXXXXXXXXXoo    oXXXX XXXXXXXXXXXXXXXXXXXX",
"XXXXXXXXXXXXo .  oXXXX.XXXXXXXXX.X.XXXXXXXXXXXXXXXXXXXXXXXXXXXXXXXXXXXXXXXXXo .  oXXXX.XXXXXXXXX.X.XXXXXXXXXXXXXXXXXXXXXXXXXXXXXXXXXXXXXXXXXo .  oXXXX.XXXXXXXXX.X.XXXXXXXXXXXXXXXXXXXXXXXXXXXXXXXXXXXXXXXXXo .  oXXXX.XXXXXXXXX.X.XXXXXXXXXXXXXXXXXXXXXXXXXXXXXXXXXXXXXXXXXo .  oXXXX.XXXXXXXXX.X.XXXXXXXXXXXXXXXXXXXXXXXXXXXXXXXXXXXXXXXXXo .  oXXXX.XXXXXXXXX.X.XXXXXXXXXXXXXXXXXXXXXXXXXXXXXXXXXXXXXXXXXo .  oXXXX.XXXXXXXXX.X.XXXXXXXXXXXXXXXXXXXXXXXXXXXXXXXXXXXXXXXXXo .  oXXXX.XXXXXXXXX.X.XXXXXXXX",
"XXXXXX XXXXXo .  oXXXXXXXXXXXXX..oXXXXXXXXXXXXXX.XXXXXXXXX.XXXXXXXXXXX XXXXXo .  oXXXXXXXXXXXXX..oXXXXXXXXXXXXXX.XXXXXXXXX.XXXXXXXXXXX XXXXXo .  oXXXXXXXXXXXXX..oXXXXXXXXXXXXXX.XXXXXXXXX.XXXXXXXXXXX XXXXXo .  oXXXXXXXXXXXXX..oXXXXXXXXXXXXXX.XXXXXXXXX.XXXXXXXXXXX XXXXXo .  oXXXXXXXXXXXXX..oXXXXXXXXXXXXXX.XXXXXXXXX.XXXXXXXXXXX XXXXXo .  oXXXXXXXXXXXXX..oXXXXXXXXXXXXXX.XXXXXXXXX.XXXXXXXXXXX XXXXXo .  oXXXXXXXXXXXXX..oXXXXXXXXXXXXXX.XXXXXXXXX.XXXXXXXXXXX XXXXXo .  oXXXXXXXXXXXXX..oXXXXXXXXX",
"XXXXXX.XXXXoo    ooXXXXXXXXXX.. .XXXXXXXXXXXXXXX.XXXXXXXX.XXXXXXXXXXXX.XXXXoo    ooXXXXXXXXXX.. .XXXXXXXXXXXXXXX.XXXXXXXX.XXXXXXXXXXXX.XXXXoo    ooXXXXXXXXXX.. .XXXXXXXXXXXXXXX.XXXXXXXX.XXXXXXXXXXXX.XXXXoo    ooXXXXXXXXXX.. .XXXXXXXXXXXXXXX.XXXXXXXX.XXXXXXXXXXXX.XXXXoo    ooXXXXXXXXXX.. .XXXXXXXXXXXXXXX.XXXXXXXX.XXXXXXXXXXXX.XXXXoo    ooXXXXXXXXXX.. .XXXXXXXXXXXXXXX.XXXXXXXX.XXXXXXXXXXXX.XXXXoo    ooXXXXXXXXXX.. .XXXXXXXXXXXXXXX.XXXXXXXX.XXXXXXXXXXXX.XXXXoo    ooXXXXXXXXXX.. .XXXXXXXXXX",
"XXXXXXXXXXXoo    ooXXXXXXXX.   .oXXXX XXXXXXXXXXoXXXXXXXX.oXXXXXXXXXXXXXXXXoo    ooXXXXXXXX.   .oXXXX XXXXXXXXXXoXXXXXXXX.oXXXXXXXXXXXXXXXXoo    ooXXXXXXXX.   .oXXXX XXXXXXXXXXoXXXXXXXX.oXXXXXXXXXXXXXXXXoo    ooXXXXXXXX.   .oXXXX XXXXXXXXXXoXXXXXXXX.oXXXXXXXXXXXXXXXXoo    ooXXXXXXXX.   .oXXXX XXXXXXXXXXoXXXXXXXX.oXXXXXXXXXXXXXXXXoo    ooXXXXXXXX.   .oXXXX XXXXXXXXXXoXXXXXXXX.oXXXXXXXXXXXXXXXXoo    ooXXXXXXXX.   .oXXXX XXXXXXXXXXoXXXXXXXX.oXXXXXXXXXXXXXXXXoo    ooXXXXXXXX.   .oXXXX XXXXX",
"XXXXXXXXXXXXo    XoXXXXXXX.oooo.XXXXX.XXXXXXXXXXXXXXXXXXXXoXXXXXXXXXXXXXXXXXo    XoXXXXXXX.oooo.XXXXX.XXXXXXXXXXXXXXXXXXXXoXXXXXXXXXXXXXXXXXo    XoXXXXXXX.oooo.XXXXX.XXXXXXXXXXXXXXXXXXXXoXXXXXXXXXXXXXXXXXo    XoXXXXXXX.oooo.XXXXX.XXXXXXXXXXXXXXXXXXXXoXXXXXXXXXXXXXXXXXo    XoXXXXXXX.oooo.XXXXX.XXXXXXXXXXXXXXXXXXXXoXXXXXXXXXXXXXXXXXo    XoXXXXXXX.oooo.XXXXX.XXXXXXXXXXXXXXXXXXXXoXXXXXXXXXXXXXXXXXo    XoXXXXXXX.oooo.XXXXX.XXXXXXXXXXXXXXXXXXXXoXXXXXXXXXXXXXXXXXo    XoXXXXXXX.oooo.XXXXX.XXXXX",
"XXXXXXXXXXXXo    XoXXXXXXXXXXXXXXXXXXXXXXXXXXXXXXXXXXXXXXoXXXXXXXXXXXXXXXXXXo    XoXXXXXXXXXXXXXXXXXXXXXXXXXXXXXXXXXXXXXXoXXXXXXXXXXXXXXXXXXo    XoXXXXXXXXXXXXXXXXXXXXXXXXXXXXXXXXXXXXXXoXXXXXXXXXXXXXXXXXXo    XoXXXXXXXXXXXXXXXXXXXXXXXXXXXXXXXXXXXXXXoXXXXXXXXXXXXXXXXXXo    XoXXXXXXXXXXXXXXXXXXXXXXXXXXXXXXXXXXXXXXoXXXXXXXXXXXXXXXXXXo    XoXXXXXXXXXXXXXXXXXXXXXXXXXXXXXXXXXXXXXXoXXXXXXXXXXXXXXXXXXo    XoXXXXXXXXXXXXXXXXXXXXXXXXXXXXXXXXXXXXXXoXXXXXXXXXXXXXXXXXXo    XoXXXXXXXXXXXXXXXXXXXXXXXX",
"XXXXXXXXXXXoo  . ooXXXXXXXXXXXXXXXXXXXXXXXXXXXXXXXXXXXXXXXXXXXXXXXXXXXXXXXXoo  . ooXXXXXXXXXXXXXXXXXXXXXXXXXXXXXXXXXXXXXXXXXXXXXXXXXXXXXXXXoo  . ooXXXXXXXXXXXXXXXXXXXXXXXXXXXXXXXXXXXXXXXXXXXXXXXXXXXXXXXXoo  . ooXXXXXXXXXXXXXXXXXXXXXXXXXXXXXXXXXXXXXXXXXXXXXXXXXXXXXXXXoo  . ooXXXXXXXXXXXXXXXXXXXXXXXXXXXXXXXXXXXXXXXXXXXXXXXXXXXXXXXXoo  . ooXXXXXXXXXXXXXXXXXXXXXXXXXXXXXXXXXXXXXXXXXXXXXXXXXXXXXXXXoo  . ooXXXXXXXXXXXXXXXXXXXXXXXXXXXXXXXXXXXXXXXXXXXXXXXXXXXXXXXXoo  . ooXXXXXXXXXXXXXXXXXXXXXXXX",
"XXXXXXXXXXXoo    ooXX.XXXXXXXXXXXXXXXXXXXX..XXXXXXXXXXXXXXXXXXXXXXXXXXXXXXXoo    ooXX.XXXXXXXXXXXXXXXXXXXX..XXXXXXXXXXXXXXXXXXXXXXXXXXXXXXXoo    ooXX.XXXXXXXXXXXXXXXXXXXX..XXXXXXXXXXXXXXXXXXXXXXXXXXXXXXXoo    ooXX.XXXXXXXXXXXXXXXXXXXX..XXXXXXXXXXXXXXXXXXXXXXXXXXXXXXXoo    ooXX.XXXXXXXXXXXXXXXXXXXX..XXXXXXXXXXXXXXXXXXXXXXXXXXXXXXXoo    ooXX.XXXXXXXXXXXXXXXXXXXX..XXXXXXXXXXXXXXXXXXXXXXXXXXXXXXXoo    ooXX.XXXXXXXXXXXXXXXXXXXX..XXXXXXXXXXXXXXXXXXXXXXXXXXXXXXXoo    ooXX.XXXXXXXXXXXXXXXXXXXX.",
"XXXX..XXXXXoo    ooXXX.XXXXXXXXXXXXXXXXXXXXXXXXXXXXXXXXXXXXXXXXXXXXX..XXXXXoo    ooXXX.XXXXXXXXXXXXXXXXXXXXXXXXXXXXXXXXXXXXXXXXXXXXX..XXXXXoo    ooXXX.XXXXXXXXXXXXXXXXXXXXXXXXXXXXXXXXXXXXXXXXXXXXX..XXXXXoo    ooXXX.XXXXXXXXXXXXXXXXXXXXXXXXXXXXXXXXXXXXXXXXXXXXX..XXXXXoo    ooXXX.XXXXXXXXXXXXXXXXXXXXXXXXXXXXXXXXXXXXXXXXXXXXX..XXXXXoo    ooXXX.XXXXXXXXXXXXXXXXXXXXXXXXXXXXXXXXXXXXXXXXXXXXX..XXXXXoo    ooXXX.XXXXXXXXXXXXXXXXXXXXXXXXXXXXXXXXXXXXXXXXXXXXX..XXXXXoo    ooXXX.XXXXXXXXXXXXXXXXXXXX",
"XXXXXX....oo. .  o.......XXXXX.......XXXXXXXXXXXX....XXX..XXX.XXXXXXXX....oo. .  o.......XXXXX.......XXXXXXXXXXXX....XXX..XXX.XXXXXXXX....oo. .  o.......XXXXX.......XXXXXXXXXXXX....XXX..XXX.XXXXXXXX....oo. .  o.......XXXXX.......XXXXXXXXXXXX....XXX..XXX.XXXXXXXX....oo. .  o.......XXXXX.......XXXXXXXXXXXX....XXX..XXX.XXXXXXXX....oo. .  o.......XXXXX.......XXXXXXXXXXXX....XXX..XXX.XXXXXXXX....oo. .  o.......XXXXX.......XXXXXXXXXXXX....XXX..XXX.XXXXXXXX....oo. .  o.......XXXXX.......XXXXXX",
".X.........o  .   ......X................XX......................X.........o  .   ......X................XX......................X.........o  .   ......X................XX......................X.........o  .   ......X................XX......................X.........o  .   ......X................XX......................X.........o  .   ......X................XX......................X.........o  .   ......X................XX......................X.........o  .   ......X................XX",
".........         ..  .... ....  . .............   . ....................         ..  .... ....  . .............   . ....................         ..  .... ....  . .............   . ....................         ..  .... ....  . .............   . ....................         ..  .... ....  . .............   . ....................         ..  .... ....  . .............   . ....................         ..  .... ....  . .............   . ....................         ..  .... ....  . ........",
"            .                                                               .                                                               .                                                               .                                                               .                                                               .                                                               .                                                               .                              ",
"           ...                                                             ...                                                             ...                                                             ...                                                             ...                                                             ...                                                             ...                                                             ...                             ",
"   ...    ...... .......X .X   ..  ...  .....           ..         ...    ...... .......X .X   ..  ...  .....           ..         ...    ...... .......X .X   ..  ...  .....           ..         ...    ...... .......X .X   ..  ...  .....           ..         ...    ...... .......X .X   ..  ...  .....           ..         ...    ...... .......X .X   ..  ...  .....           ..         ...    ...... .......X .X   ..  ...  .....           ..         ...    ...... .......X .X   ..  ...  ...",
"     ....    ..    .       ..       ...                              ....    ..    .       ..       ...                              ....    ..    .       ..       ...                              ....    ..    .       ..       ...                              ....    ..    .       ..       ...                              ....    ..    .       ..       ...                              ....    ..    .       ..       ...                              ....    ..    .       ..       ...    ",
"oooooooooooooooooooooooo.  X.  .Xooooooooooo. .oooo..        .oooooooooooooooooooooooooo.  X.  .Xooooooooooo. .oooo..        .oooooooooooooooooooooooooo.  X.  .Xooooooooooo. .oooo..        .oooooooooooooooooooooooooo.  X.  .Xooooooooooo. .oooo..        .oooooooooooooooooooooooooo.  X.  .Xooooooooooo. .oooo..        .oooooooooooooooooooooooooo.  X.  .Xooooooooooo. .oooo..        .oooooooooooooooooooooooooo.  X.  .Xooooooooooo. .oooo..        .oooooooooooooooooooooooooo.  X.  .Xoooooooooo"
};
