/* XPM */
static char * North_xpm[] = {
"250 125 17484 3",
"   	c #042748",
".  	c #082A48",
"+  	c #0F2945",
"@  	c #0E223D",
"#  	c #09132F",
"$  	c #0A1431",
"%  	c #0F1C35",
"&  	c #0E2F47",
"*  	c #113850",
"=  	c #103950",
"-  	c #0C2F48",
";  	c #0D2F48",
">  	c #0F3149",
",  	c #0F314A",
"'  	c #10304A",
")  	c #0B2E46",
"!  	c #052C43",
"~  	c #052B44",
"{  	c #052B45",
"]  	c #052C46",
"^  	c #063149",
"/  	c #062F47",
"(  	c #062E47",
"_  	c #04233F",
":  	c #041D3B",
"<  	c #041634",
"[  	c #031530",
"}  	c #041632",
"|  	c #041834",
"1  	c #051434",
"2  	c #041434",
"3  	c #031932",
"4  	c #073F4E",
"5  	c #053344",
"6  	c #040A2C",
"7  	c #040D31",
"8  	c #041433",
"9  	c #021C38",
"0  	c #030A27",
"a  	c #020727",
"b  	c #020E27",
"c  	c #063F4C",
"d  	c #064655",
"e  	c #074655",
"f  	c #074755",
"g  	c #084755",
"h  	c #084553",
"i  	c #094554",
"j  	c #0A4756",
"k  	c #0A4656",
"l  	c #083C50",
"m  	c #0A3950",
"n  	c #093A4F",
"o  	c #08354C",
"p  	c #06344B",
"q  	c #05334A",
"r  	c #05324A",
"s  	c #06334A",
"t  	c #05324B",
"u  	c #06364C",
"v  	c #06364E",
"w  	c #07364E",
"x  	c #05374D",
"y  	c #053349",
"z  	c #043249",
"A  	c #044554",
"B  	c #043B4A",
"C  	c #021432",
"D  	c #011533",
"E  	c #011433",
"F  	c #021132",
"G  	c #040A30",
"H  	c #030B30",
"I  	c #030C30",
"J  	c #030D2F",
"K  	c #09243F",
"L  	c #0F2D48",
"M  	c #102F49",
"N  	c #0E314A",
"O  	c #0B2D48",
"P  	c #082B45",
"Q  	c #052A43",
"R  	c #062A44",
"S  	c #103249",
"T  	c #0E354C",
"U  	c #10384F",
"V  	c #113950",
"W  	c #0E324A",
"X  	c #082842",
"Y  	c #052741",
"Z  	c #042641",
"`  	c #042540",
" . 	c #04243F",
".. 	c #042440",
"+. 	c #052441",
"@. 	c #052341",
"#. 	c #042341",
"$. 	c #031F3E",
"%. 	c #021D3A",
"&. 	c #021B38",
"*. 	c #031C39",
"=. 	c #041C3A",
"-. 	c #051D3C",
";. 	c #0C203D",
">. 	c #0E1A39",
",. 	c #0E1838",
"'. 	c #0D1535",
"). 	c #0E0C2A",
"!. 	c #080725",
"~. 	c #080A26",
"{. 	c #07183A",
"]. 	c #051231",
"^. 	c #030B2C",
"/. 	c #030E32",
"(. 	c #040F33",
"_. 	c #041133",
":. 	c #041032",
"<. 	c #030D30",
"[. 	c #030A2C",
"}. 	c #040A29",
"|. 	c #041334",
"1. 	c #0A0D2B",
"2. 	c #0E0A28",
"3. 	c #0E0B29",
"4. 	c #0E1231",
"5. 	c #0E1637",
"6. 	c #0E1938",
"7. 	c #0F1E3B",
"8. 	c #10203C",
"9. 	c #101F3C",
"0. 	c #0F1F3C",
"a. 	c #12213D",
"b. 	c #11213D",
"c. 	c #122340",
"d. 	c #132743",
"e. 	c #112642",
"f. 	c #122742",
"g. 	c #0F2541",
"h. 	c #0F2641",
"i. 	c #102D45",
"j. 	c #143147",
"k. 	c #0A223B",
"l. 	c #04213C",
"m. 	c #06203A",
"n. 	c #0A253C",
"o. 	c #0D2D44",
"p. 	c #0B2D44",
"q. 	c #0A2A41",
"r. 	c #0C283F",
"s. 	c #0D2840",
"t. 	c #0E2440",
"u. 	c #0F243E",
"v. 	c #112640",
"w. 	c #132641",
"x. 	c #102842",
"y. 	c #0F2740",
"z. 	c #0E263F",
"A. 	c #0B1F3A",
"B. 	c #091230",
"C. 	c #0C0F2F",
"D. 	c #090C2E",
"E. 	c #090C2D",
"F. 	c #080F2E",
"G. 	c #091432",
"H. 	c #0B1533",
"I. 	c #0B1534",
"J. 	c #0D1533",
"K. 	c #0D1431",
"L. 	c #0B273B",
"M. 	c #093949",
"N. 	c #072C41",
"O. 	c #05273D",
"P. 	c #052C41",
"Q. 	c #072840",
"R. 	c #072741",
"S. 	c #0F2841",
"T. 	c #112A3F",
"U. 	c #122A41",
"V. 	c #142A41",
"W. 	c #152B42",
"X. 	c #1A2E44",
"Y. 	c #1F2F45",
"Z. 	c #202F45",
"`. 	c #1F3045",
" + 	c #203A4A",
".+ 	c #1F3B4B",
"++ 	c #1F3A4A",
"@+ 	c #1D3949",
"#+ 	c #183948",
"$+ 	c #153A49",
"%+ 	c #143A48",
"&+ 	c #183947",
"*+ 	c #153846",
"=+ 	c #0D1329",
"-+ 	c #0C0925",
";+ 	c #090822",
">+ 	c #04142E",
",+ 	c #05112C",
"'+ 	c #07092B",
")+ 	c #090829",
"!+ 	c #0D1E34",
"~+ 	c #113847",
"{+ 	c #12162F",
"]+ 	c #0D0C2B",
"^+ 	c #0C0B2B",
"/+ 	c #090A29",
"(+ 	c #090928",
"_+ 	c #080826",
":+ 	c #0A0A29",
"<+ 	c #181532",
"[+ 	c #1B1936",
"}+ 	c #1E223B",
"|+ 	c #1E243C",
"1+ 	c #1E263E",
"2+ 	c #20293F",
"3+ 	c #22293E",
"4+ 	c #23283F",
"5+ 	c #20283D",
"6+ 	c #1F283D",
"7+ 	c #242A3F",
"8+ 	c #262D42",
"9+ 	c #252F44",
"0+ 	c #283045",
"a+ 	c #2C3244",
"b+ 	c #252D42",
"c+ 	c #263347",
"d+ 	c #2A3A4B",
"e+ 	c #273146",
"f+ 	c #221F36",
"g+ 	c #221C31",
"h+ 	c #242031",
"i+ 	c #242336",
"j+ 	c #24283E",
"k+ 	c #232A42",
"l+ 	c #202842",
"m+ 	c #1B203D",
"n+ 	c #031B3A",
"o+ 	c #031833",
"p+ 	c #06223C",
"q+ 	c #0D273F",
"r+ 	c #101635",
"s+ 	c #111535",
"t+ 	c #0B132E",
"u+ 	c #04233D",
"v+ 	c #072C45",
"w+ 	c #10354E",
"x+ 	c #092F48",
"y+ 	c #053048",
"z+ 	c #043147",
"A+ 	c #052E47",
"B+ 	c #052941",
"C+ 	c #04273F",
"D+ 	c #032B43",
"E+ 	c #031735",
"F+ 	c #031233",
"G+ 	c #031130",
"H+ 	c #043D4A",
"I+ 	c #054053",
"J+ 	c #05354F",
"K+ 	c #042343",
"L+ 	c #031D3E",
"M+ 	c #040C29",
"N+ 	c #042F41",
"O+ 	c #04273C",
"P+ 	c #04082C",
"Q+ 	c #021334",
"R+ 	c #021532",
"S+ 	c #042739",
"T+ 	c #032235",
"U+ 	c #020B23",
"V+ 	c #053D4B",
"W+ 	c #064554",
"X+ 	c #074553",
"Y+ 	c #064551",
"Z+ 	c #084453",
"`+ 	c #084B58",
" @ 	c #064C57",
".@ 	c #064A57",
"+@ 	c #063749",
"@@ 	c #053546",
"#@ 	c #043647",
"$@ 	c #043848",
"%@ 	c #053C4C",
"&@ 	c #064B54",
"*@ 	c #064A53",
"=@ 	c #074853",
"-@ 	c #064955",
";@ 	c #054A55",
">@ 	c #044A53",
",@ 	c #044956",
"'@ 	c #033E4C",
")@ 	c #021533",
"!@ 	c #011634",
"~@ 	c #011534",
"{@ 	c #03092C",
"]@ 	c #030C2D",
"^@ 	c #030D2C",
"/@ 	c #031C37",
"(@ 	c #0C2540",
"_@ 	c #102C46",
":@ 	c #0C2D45",
"<@ 	c #0A2C46",
"[@ 	c #10324C",
"}@ 	c #10324B",
"|@ 	c #0E304A",
"1@ 	c #0D2E49",
"2@ 	c #0D2F47",
"3@ 	c #0A3049",
"4@ 	c #0A324B",
"5@ 	c #07354C",
"6@ 	c #053147",
"7@ 	c #032A43",
"8@ 	c #032943",
"9@ 	c #032842",
"0@ 	c #032843",
"a@ 	c #032741",
"b@ 	c #02223F",
"c@ 	c #03203C",
"d@ 	c #031E3A",
"e@ 	c #021E3B",
"f@ 	c #031E3C",
"g@ 	c #031F3D",
"h@ 	c #03203E",
"i@ 	c #031E3B",
"j@ 	c #021735",
"k@ 	c #021433",
"l@ 	c #02122F",
"m@ 	c #030B2B",
"n@ 	c #020726",
"o@ 	c #010825",
"p@ 	c #021738",
"q@ 	c #021436",
"r@ 	c #021535",
"s@ 	c #021737",
"t@ 	c #021838",
"u@ 	c #021A38",
"v@ 	c #021636",
"w@ 	c #021234",
"x@ 	c #021233",
"y@ 	c #021231",
"z@ 	c #02183A",
"A@ 	c #020C29",
"B@ 	c #020622",
"C@ 	c #02092B",
"D@ 	c #031030",
"E@ 	c #031D3C",
"F@ 	c #021E3C",
"G@ 	c #021D3B",
"H@ 	c #021C39",
"I@ 	c #032340",
"J@ 	c #022440",
"K@ 	c #032440",
"L@ 	c #032540",
"M@ 	c #032541",
"N@ 	c #032641",
"O@ 	c #032742",
"P@ 	c #032841",
"Q@ 	c #052E45",
"R@ 	c #0B384F",
"S@ 	c #0E3951",
"T@ 	c #0E374F",
"U@ 	c #0C3048",
"V@ 	c #0B2E47",
"W@ 	c #0B2D47",
"X@ 	c #0F324B",
"Y@ 	c #0C2E47",
"Z@ 	c #102C45",
"`@ 	c #102A44",
" # 	c #07213C",
".# 	c #030F2D",
"+# 	c #030A2D",
"@# 	c #03092D",
"## 	c #040C30",
"$# 	c #021031",
"%# 	c #033243",
"&# 	c #044B58",
"*# 	c #043C4E",
"=# 	c #04374C",
"-# 	c #063A4F",
";# 	c #064553",
"># 	c #054A53",
",# 	c #074A52",
"'# 	c #053A4C",
")# 	c #043148",
"!# 	c #043045",
"~# 	c #042F45",
"{# 	c #052E44",
"]# 	c #062F45",
"^# 	c #074252",
"/# 	c #064856",
"(# 	c #074656",
"_# 	c #084A58",
":# 	c #094855",
"<# 	c #084351",
"[# 	c #074351",
"}# 	c #064451",
"|# 	c #064552",
"1# 	c #074453",
"2# 	c #031429",
"3# 	c #030C27",
"4# 	c #03112A",
"5# 	c #021431",
"6# 	c #031331",
"7# 	c #031334",
"8# 	c #04092D",
"9# 	c #052239",
"0# 	c #053E4E",
"a# 	c #04152D",
"b# 	c #031535",
"c# 	c #031D3D",
"d# 	c #032E41",
"e# 	c #030F2E",
"f# 	c #031436",
"g# 	c #031738",
"h# 	c #042841",
"i# 	c #052840",
"j# 	c #052D46",
"k# 	c #062D47",
"l# 	c #083048",
"m# 	c #093049",
"n# 	c #0A2F49",
"o# 	c #0A2E47",
"p# 	c #0F344D",
"q# 	c #123950",
"r# 	c #0E334C",
"s# 	c #092B44",
"t# 	c #0C1933",
"u# 	c #101432",
"v# 	c #0F1534",
"w# 	c #10223B",
"x# 	c #0A2943",
"y# 	c #05213D",
"z# 	c #021F3E",
"A# 	c #031C3B",
"B# 	c #061F3B",
"C# 	c #091F37",
"D# 	c #0A2640",
"E# 	c #0C243E",
"F# 	c #0A1333",
"G# 	c #0D1131",
"H# 	c #0F1632",
"I# 	c #0D2140",
"J# 	c #0F364E",
"K# 	c #0E364E",
"L# 	c #062F46",
"M# 	c #043047",
"N# 	c #04334A",
"O# 	c #05344B",
"P# 	c #06354A",
"Q# 	c #07364B",
"R# 	c #06364B",
"S# 	c #053248",
"T# 	c #043146",
"U# 	c #043046",
"V# 	c #042E46",
"W# 	c #032D45",
"X# 	c #032A40",
"Y# 	c #030E24",
"Z# 	c #020A26",
"`# 	c #052646",
" $ 	c #054656",
".$ 	c #064557",
"+$ 	c #05314F",
"@$ 	c #022141",
"#$ 	c #03132C",
"$$ 	c #03102E",
"%$ 	c #03072B",
"&$ 	c #020F2F",
"*$ 	c #02112F",
"=$ 	c #031B34",
"-$ 	c #054354",
";$ 	c #063C4B",
">$ 	c #030B21",
",$ 	c #053D4C",
"'$ 	c #084B59",
")$ 	c #065059",
"!$ 	c #074451",
"~$ 	c #074A57",
"{$ 	c #074B57",
"]$ 	c #074B59",
"^$ 	c #064C59",
"/$ 	c #064A56",
"($ 	c #064B55",
"_$ 	c #064B56",
":$ 	c #054352",
"<$ 	c #064454",
"[$ 	c #054452",
"}$ 	c #054152",
"|$ 	c #064252",
"1$ 	c #056C68",
"2$ 	c #056C67",
"3$ 	c #044F56",
"4$ 	c #043A49",
"5$ 	c #033244",
"6$ 	c #011633",
"7$ 	c #021835",
"8$ 	c #04213A",
"9$ 	c #020929",
"0$ 	c #020E2E",
"a$ 	c #02213C",
"b$ 	c #03233F",
"c$ 	c #0D2D48",
"d$ 	c #11314B",
"e$ 	c #11334D",
"f$ 	c #0C3049",
"g$ 	c #082D47",
"h$ 	c #0B2F48",
"i$ 	c #0A2D46",
"j$ 	c #052640",
"k$ 	c #042C44",
"l$ 	c #032E46",
"m$ 	c #042F47",
"n$ 	c #032C44",
"o$ 	c #042D46",
"p$ 	c #03223D",
"q$ 	c #02213D",
"r$ 	c #03213E",
"s$ 	c #02203E",
"t$ 	c #03223F",
"u$ 	c #04213D",
"v$ 	c #031C3A",
"w$ 	c #031B39",
"x$ 	c #041935",
"y$ 	c #030925",
"z$ 	c #030622",
"A$ 	c #020723",
"B$ 	c #031433",
"C$ 	c #031538",
"D$ 	c #021C3B",
"E$ 	c #021F3F",
"F$ 	c #021736",
"G$ 	c #02102F",
"H$ 	c #021635",
"I$ 	c #021739",
"J$ 	c #031435",
"K$ 	c #020928",
"L$ 	c #030726",
"M$ 	c #020623",
"N$ 	c #021937",
"O$ 	c #031A37",
"P$ 	c #04223E",
"Q$ 	c #022340",
"R$ 	c #02213E",
"S$ 	c #03203D",
"T$ 	c #042C45",
"U$ 	c #032C45",
"V$ 	c #032D46",
"W$ 	c #042943",
"X$ 	c #052742",
"Y$ 	c #0C2E49",
"Z$ 	c #0D304A",
"`$ 	c #0E2F49",
" % 	c #082943",
".% 	c #02223D",
"+% 	c #021734",
"@% 	c #020729",
"#% 	c #041C37",
"$% 	c #031D39",
"%% 	c #011432",
"&% 	c #022D40",
"*% 	c #043E4D",
"=% 	c #04565A",
"-% 	c #045F5F",
";% 	c #056A68",
">% 	c #084855",
",% 	c #074051",
"'% 	c #064152",
")% 	c #054451",
"!% 	c #054552",
"~% 	c #044551",
"{% 	c #054653",
"]% 	c #054752",
"^% 	c #064754",
"/% 	c #074C59",
"(% 	c #074C58",
"_% 	c #074A58",
":% 	c #084957",
"<% 	c #074855",
"[% 	c #031427",
"}% 	c #04303F",
"|% 	c #054453",
"1% 	c #032239",
"2% 	c #011130",
"3% 	c #041230",
"4% 	c #031F35",
"5% 	c #030B27",
"6% 	c #031836",
"7% 	c #032043",
"8% 	c #05324F",
"9% 	c #054457",
"0% 	c #065A60",
"a% 	c #042441",
"b% 	c #020E2B",
"c% 	c #030B22",
"d% 	c #03283F",
"e% 	c #052F47",
"f% 	c #052F46",
"g% 	c #053047",
"h% 	c #063148",
"i% 	c #063249",
"j% 	c #073249",
"k% 	c #05354A",
"l% 	c #05344A",
"m% 	c #042E45",
"n% 	c #10374F",
"o% 	c #062C45",
"p% 	c #082441",
"q% 	c #0E1A35",
"r% 	c #0C1434",
"s% 	c #091A34",
"t% 	c #07213B",
"u% 	c #05162E",
"v% 	c #041936",
"w% 	c #021938",
"x% 	c #0F1A35",
"y% 	c #0C1732",
"z% 	c #0A1731",
"A% 	c #0D1A35",
"B% 	c #101935",
"C% 	c #0D1330",
"D% 	c #070C27",
"E% 	c #0C1B38",
"F% 	c #0D233E",
"G% 	c #09233E",
"H% 	c #041E36",
"I% 	c #021D36",
"J% 	c #021E38",
"K% 	c #021F38",
"L% 	c #031F38",
"M% 	c #032039",
"N% 	c #031E38",
"O% 	c #031B36",
"P% 	c #021A35",
"Q% 	c #021933",
"R% 	c #03162E",
"S% 	c #03142C",
"T% 	c #021E35",
"U% 	c #030A23",
"V% 	c #020A25",
"W% 	c #042647",
"X% 	c #066660",
"Y% 	c #065F5D",
"Z% 	c #032A4A",
"`% 	c #03162F",
" & 	c #03122E",
".& 	c #041E3A",
"+& 	c #031832",
"@& 	c #040728",
"#& 	c #020C2D",
"$& 	c #02122D",
"%& 	c #03293E",
"&& 	c #054756",
"*& 	c #063E4B",
"=& 	c #02091F",
"-& 	c #032337",
";& 	c #032B3F",
">& 	c #032D3F",
",& 	c #041A2F",
"'& 	c #041C31",
")& 	c #052339",
"!& 	c #05414B",
"~& 	c #074651",
"{& 	c #064C55",
"]& 	c #074D57",
"^& 	c #084E59",
"/& 	c #075158",
"(& 	c #09685C",
"_& 	c #0C7A62",
":& 	c #13856A",
"<& 	c #093F4E",
"[& 	c #073C4E",
"}& 	c #063E4F",
"|& 	c #084854",
"1& 	c #095058",
"2& 	c #0A6D69",
"3& 	c #0C6765",
"4& 	c #06414E",
"5& 	c #053D4A",
"6& 	c #053243",
"7& 	c #031532",
"8& 	c #021633",
"9& 	c #041A36",
"0& 	c #041F3A",
"a& 	c #031B35",
"b& 	c #041631",
"c& 	c #030826",
"d& 	c #030A29",
"e& 	c #020F2D",
"f& 	c #02132F",
"g& 	c #031330",
"h& 	c #061934",
"i& 	c #0F2F45",
"j& 	c #14374D",
"k& 	c #113149",
"l& 	c #082B43",
"m& 	c #072A42",
"n& 	c #062941",
"o& 	c #04273E",
"p& 	c #03243C",
"q& 	c #03213B",
"r& 	c #021B36",
"s& 	c #021A34",
"t& 	c #02142F",
"u& 	c #03132F",
"v& 	c #031430",
"w& 	c #03112E",
"x& 	c #03122F",
"y& 	c #021330",
"z& 	c #02112E",
"A& 	c #02102D",
"B& 	c #03102C",
"C& 	c #030E2A",
"D& 	c #030C28",
"E& 	c #020B26",
"F& 	c #030623",
"G& 	c #020523",
"H& 	c #020522",
"I& 	c #020D2D",
"J& 	c #021333",
"K& 	c #021D39",
"L& 	c #031431",
"M& 	c #021836",
"N& 	c #021A3B",
"O& 	c #021435",
"P& 	c #020D2E",
"Q& 	c #020624",
"R& 	c #030524",
"S& 	c #04112B",
"T& 	c #031531",
"U& 	c #021631",
"V& 	c #021733",
"W& 	c #021936",
"X& 	c #031934",
"Y& 	c #031F39",
"Z& 	c #031F37",
"`& 	c #03223A",
" * 	c #03233B",
".* 	c #03243D",
"+* 	c #03253F",
"@* 	c #03253E",
"#* 	c #03273F",
"$* 	c #032941",
"%* 	c #062B45",
"&* 	c #062E46",
"** 	c #082F48",
"=* 	c #0E324B",
"-* 	c #143950",
";* 	c #12374E",
">* 	c #0A2540",
",* 	c #021332",
"'* 	c #021C37",
")* 	c #031E39",
"!* 	c #031B37",
"~* 	c #021534",
"{* 	c #03293D",
"]* 	c #043C4A",
"^* 	c #04414E",
"/* 	c #065559",
"(* 	c #087E74",
"_* 	c #07575E",
":* 	c #073F53",
"<* 	c #054253",
"[* 	c #054153",
"}* 	c #063E51",
"|* 	c #107766",
"1* 	c #0A7965",
"2* 	c #08665E",
"3* 	c #064F57",
"4* 	c #074B58",
"5* 	c #084A57",
"6* 	c #074A56",
"7* 	c #064852",
"8* 	c #063846",
"9* 	c #042F3F",
"0* 	c #062B3B",
"a* 	c #043E4A",
"b* 	c #043748",
"c* 	c #020F23",
"d* 	c #053242",
"e* 	c #054A58",
"f* 	c #032B40",
"g* 	c #02142E",
"h* 	c #030729",
"i* 	c #040F2C",
"j* 	c #031A35",
"k* 	c #031733",
"l* 	c #042C4B",
"m* 	c #044654",
"n* 	c #066461",
"o* 	c #042C4A",
"p* 	c #02112D",
"q* 	c #03081F",
"r* 	c #03243A",
"s* 	c #032037",
"t* 	c #032138",
"u* 	c #03243B",
"v* 	c #03253D",
"w* 	c #03273E",
"x* 	c #04283F",
"y* 	c #042B41",
"z* 	c #042D42",
"A* 	c #042D43",
"B* 	c #032940",
"C* 	c #032A41",
"D* 	c #03263E",
"E* 	c #05273F",
"F* 	c #102D46",
"G* 	c #102340",
"H* 	c #0B142F",
"I* 	c #0A0E2C",
"J* 	c #0D1837",
"K* 	c #10203A",
"L* 	c #0E233C",
"M* 	c #0E203A",
"N* 	c #0E1F3A",
"O* 	c #091835",
"P* 	c #101430",
"Q* 	c #0A0F2B",
"R* 	c #050925",
"S* 	c #040925",
"T* 	c #0C112C",
"U* 	c #0F132E",
"V* 	c #060926",
"W* 	c #030824",
"X* 	c #030F2A",
"Y* 	c #02102C",
"Z* 	c #020620",
"`* 	c #020621",
" = 	c #020626",
".= 	c #020627",
"+= 	c #030626",
"@= 	c #030625",
"#= 	c #020725",
"$= 	c #030B28",
"%= 	c #042546",
"&= 	c #09645C",
"*= 	c #0A5D5A",
"== 	c #032745",
"-= 	c #03132D",
";= 	c #03263D",
">= 	c #04454B",
",= 	c #05333C",
"'= 	c #040724",
")= 	c #031B31",
"!= 	c #03263A",
"~= 	c #043849",
"{= 	c #053E50",
"]= 	c #043545",
"^= 	c #020721",
"/= 	c #020C2A",
"(= 	c #020F2E",
"_= 	c #020E2D",
":= 	c #020D2C",
"<= 	c #030C2B",
"[= 	c #032838",
"}= 	c #043F44",
"|= 	c #053F48",
"1= 	c #064E4D",
"2= 	c #06584C",
"3= 	c #052532",
"4= 	c #031C2E",
"5= 	c #041E2E",
"6= 	c #03112C",
"7= 	c #03102B",
"8= 	c #02112C",
"9= 	c #03102D",
"0= 	c #04152E",
"a= 	c #03192F",
"b= 	c #041930",
"c= 	c #02132E",
"d= 	c #030C2A",
"e= 	c #020E2A",
"f= 	c #020D2B",
"g= 	c #030D2A",
"h= 	c #031831",
"i= 	c #031F34",
"j= 	c #031930",
"k= 	c #021830",
"l= 	c #03172F",
"m= 	c #041730",
"n= 	c #0B1D35",
"o= 	c #0A1A31",
"p= 	c #030C26",
"q= 	c #020B27",
"r= 	c #020B28",
"s= 	c #020B2C",
"t= 	c #02082B",
"u= 	c #02092A",
"v= 	c #02082A",
"w= 	c #020829",
"x= 	c #020728",
"y= 	c #020625",
"z= 	c #030926",
"A= 	c #020D29",
"B= 	c #020A27",
"C= 	c #020926",
"D= 	c #020A24",
"E= 	c #020722",
"F= 	c #020521",
"G= 	c #02051F",
"H= 	c #020922",
"I= 	c #020924",
"J= 	c #020826",
"K= 	c #020A28",
"L= 	c #020927",
"M= 	c #020827",
"N= 	c #020828",
"O= 	c #020A2B",
"P= 	c #020A2A",
"Q= 	c #020B2A",
"R= 	c #020C2B",
"S= 	c #020C2C",
"T= 	c #03142F",
"U= 	c #04142D",
"V= 	c #04142C",
"W= 	c #0B1C32",
"X= 	c #102237",
"Y= 	c #091B31",
"Z= 	c #04112A",
"`= 	c #030E28",
" - 	c #020E28",
".- 	c #020F28",
"+- 	c #030D28",
"@- 	c #030827",
"#- 	c #030B29",
"$- 	c #030E29",
"%- 	c #041931",
"&- 	c #03263B",
"*- 	c #04293E",
"=- 	c #072C3E",
"-- 	c #073B43",
";- 	c #072E3C",
">- 	c #052A3A",
",- 	c #061F37",
"'- 	c #042138",
")- 	c #052036",
"!- 	c #051E36",
"~- 	c #0B4141",
"{- 	c #06433F",
"]- 	c #083D3F",
"^- 	c #085C53",
"/- 	c #065F5A",
"(- 	c #054C51",
"_- 	c #043C46",
":- 	c #04233A",
"<- 	c #03152F",
"[- 	c #020E2C",
"}- 	c #02122E",
"|- 	c #04313F",
"1- 	c #043246",
"2- 	c #031C33",
"3- 	c #040726",
"4- 	c #041B30",
"5- 	c #043143",
"6- 	c #03203A",
"7- 	c #030D29",
"8- 	c #032345",
"9- 	c #09595A",
"0- 	c #0D836E",
"a- 	c #042E47",
"b- 	c #030621",
"c- 	c #030D27",
"d- 	c #020724",
"e- 	c #020A29",
"f- 	c #020B29",
"g- 	c #020C28",
"h- 	c #020C27",
"i- 	c #041532",
"j- 	c #040E2B",
"k- 	c #040825",
"l- 	c #0F142F",
"m- 	c #060C27",
"n- 	c #060A27",
"o- 	c #0F1330",
"p- 	c #0D1230",
"q- 	c #0B263E",
"r- 	c #0E2940",
"s- 	c #0F2940",
"t- 	c #10283E",
"u- 	c #0D2237",
"v- 	c #09182D",
"w- 	c #040923",
"x- 	c #030825",
"y- 	c #020D2A",
"z- 	c #041630",
"A- 	c #041D33",
"B- 	c #032038",
"C- 	c #032B46",
"D- 	c #04464E",
"E- 	c #03353F",
"F- 	c #041429",
"G- 	c #042C3F",
"H- 	c #032C40",
"I- 	c #041F32",
"J- 	c #041B2F",
"K- 	c #021731",
"L- 	c #032E42",
"M- 	c #033847",
"N- 	c #053E4B",
"O- 	c #053E4D",
"P- 	c #032339",
"Q- 	c #031A32",
"R- 	c #030927",
"S- 	c #030B26",
"T- 	c #030928",
"U- 	c #03142D",
"V- 	c #031E33",
"W- 	c #04283C",
"X- 	c #033242",
"Y- 	c #033042",
"Z- 	c #033143",
"`- 	c #033043",
" ; 	c #033041",
".; 	c #022F41",
"+; 	c #032F41",
"@; 	c #042D40",
"#; 	c #032D40",
"$; 	c #033C47",
"%; 	c #043E49",
"&; 	c #063A48",
"*; 	c #07394A",
"=; 	c #073849",
"-; 	c #063849",
";; 	c #073749",
">; 	c #073648",
",; 	c #063545",
"'; 	c #073544",
"); 	c #073343",
"!; 	c #030A2A",
"~; 	c #020A2C",
"{; 	c #010B2C",
"]; 	c #030829",
"^; 	c #040D2B",
"/; 	c #04102B",
"(; 	c #03233A",
"_; 	c #053548",
":; 	c #063C4D",
"<; 	c #063F4F",
"[; 	c #063F4E",
"}; 	c #073E50",
"|; 	c #02233B",
"1; 	c #031B32",
"2; 	c #030724",
"3; 	c #020520",
"4; 	c #021B33",
"5; 	c #053043",
"6; 	c #053144",
"7; 	c #053143",
"8; 	c #053245",
"9; 	c #052D42",
"0; 	c #031E36",
"a; 	c #030F2C",
"b; 	c #03082A",
"c; 	c #030728",
"d; 	c #010A29",
"e; 	c #010A2A",
"f; 	c #010A2B",
"g; 	c #030C2C",
"h; 	c #031632",
"i; 	c #052539",
"j; 	c #052639",
"k; 	c #052839",
"l; 	c #052739",
"m; 	c #062B3E",
"n; 	c #062F42",
"o; 	c #052E42",
"p; 	c #052F42",
"q; 	c #053044",
"r; 	c #053647",
"s; 	c #043445",
"t; 	c #032F3E",
"u; 	c #02253A",
"v; 	c #022038",
"w; 	c #022138",
"x; 	c #022037",
"y; 	c #031E35",
"z; 	c #021E37",
"A; 	c #032137",
"B; 	c #041D36",
"C; 	c #031328",
"D; 	c #041428",
"E; 	c #030F28",
"F; 	c #03102A",
"G; 	c #031A33",
"H; 	c #021C35",
"I; 	c #032E40",
"J; 	c #042D3E",
"K; 	c #032C3C",
"L; 	c #03273B",
"M; 	c #02132C",
"N; 	c #052B3E",
"O; 	c #033647",
"P; 	c #043348",
"Q; 	c #043244",
"R; 	c #040E28",
"S; 	c #043139",
"T; 	c #045A58",
"U; 	c #042E41",
"V; 	c #032139",
"W; 	c #032C46",
"X; 	c #052E41",
"Y; 	c #041F3B",
"Z; 	c #020524",
"`; 	c #0A112A",
" > 	c #0F1C34",
".> 	c #0D1E36",
"+> 	c #0C2038",
"@> 	c #0E223A",
"#> 	c #0E213A",
"$> 	c #081C36",
"%> 	c #164C59",
"&> 	c #124956",
"*> 	c #0B4451",
"=> 	c #0B4351",
"-> 	c #094351",
";> 	c #063B4A",
">> 	c #052B3C",
",> 	c #020822",
"'> 	c #032135",
")> 	c #032435",
"!> 	c #032636",
"~> 	c #042737",
"{> 	c #073841",
"]> 	c #074248",
"^> 	c #06454E",
"/> 	c #043F4B",
"(> 	c #043A48",
"_> 	c #042D41",
":> 	c #042F42",
"<> 	c #032F42",
"[> 	c #043041",
"}> 	c #03192D",
"|> 	c #03263C",
"1> 	c #0A6D6C",
"2> 	c #096E6C",
"3> 	c #042940",
"4> 	c #041932",
"5> 	c #04273A",
"6> 	c #064953",
"7> 	c #04283E",
"8> 	c #030E26",
"9> 	c #04243C",
"0> 	c #031C36",
"a> 	c #044752",
"b> 	c #075259",
"c> 	c #066164",
"d> 	c #065F62",
"e> 	c #05505A",
"f> 	c #044250",
"g> 	c #030A26",
"h> 	c #053C42",
"i> 	c #065D55",
"j> 	c #077466",
"k> 	c #07685E",
"l> 	c #057063",
"m> 	c #057D6B",
"n> 	c #057969",
"o> 	c #077E6D",
"p> 	c #08836F",
"q> 	c #08826F",
"r> 	c #098271",
"s> 	c #088270",
"t> 	c #07816F",
"u> 	c #077F6E",
"v> 	c #067E6D",
"w> 	c #077D6E",
"x> 	c #077268",
"y> 	c #066361",
"z> 	c #07595E",
"A> 	c #08595C",
"B> 	c #094A55",
"C> 	c #07404F",
"D> 	c #08404F",
"E> 	c #084050",
"F> 	c #084150",
"G> 	c #093F4F",
"H> 	c #0A3E4F",
"I> 	c #083C4E",
"J> 	c #063747",
"K> 	c #041C34",
"L> 	c #010B2B",
"M> 	c #010B2A",
"N> 	c #04182E",
"O> 	c #08353D",
"P> 	c #093E46",
"Q> 	c #07424E",
"R> 	c #053D4D",
"S> 	c #064956",
"T> 	c #064353",
"U> 	c #083B51",
"V> 	c #074456",
"W> 	c #064858",
"X> 	c #074758",
"Y> 	c #064658",
"Z> 	c #064456",
"`> 	c #064254",
" , 	c #053E51",
"., 	c #042E43",
"+, 	c #031D36",
"@, 	c #03122B",
"#, 	c #020824",
"$, 	c #04394C",
"%, 	c #043A4E",
"&, 	c #053D4F",
"*, 	c #074557",
"=, 	c #064757",
"-, 	c #064959",
";, 	c #064656",
">, 	c #073C51",
",, 	c #043C4F",
"', 	c #04414D",
"), 	c #053E4A",
"!, 	c #03273C",
"~, 	c #042339",
"{, 	c #052335",
"], 	c #04182B",
"^, 	c #010C2C",
"/, 	c #030E2D",
"(, 	c #062B3D",
"_, 	c #093E4E",
":, 	c #083F4E",
"<, 	c #083F4F",
"[, 	c #08414F",
"}, 	c #06575B",
"|, 	c #065A5C",
"1, 	c #056962",
"2, 	c #067669",
"3, 	c #057768",
"4, 	c #05796A",
"5, 	c #067B6B",
"6, 	c #067C6B",
"7, 	c #077C6C",
"8, 	c #077C6D",
"9, 	c #077C6B",
"0, 	c #067C6A",
"a, 	c #077869",
"b, 	c #047163",
"c, 	c #047666",
"d, 	c #047062",
"e, 	c #05605A",
"f, 	c #055B56",
"g, 	c #044A4A",
"h, 	c #032F45",
"i, 	c #054C57",
"j, 	c #065A61",
"k, 	c #074F58",
"l, 	c #054953",
"m, 	c #043D4E",
"n, 	c #042037",
"o, 	c #03172E",
"p, 	c #063E4A",
"q, 	c #053743",
"r, 	c #032839",
"s, 	c #041E39",
"t, 	c #065058",
"u, 	c #076766",
"v, 	c #033146",
"w, 	c #030C24",
"x, 	c #042134",
"y, 	c #032336",
"z, 	c #032237",
"A, 	c #032338",
"B, 	c #032438",
"C, 	c #032238",
"D, 	c #032539",
"E, 	c #032538",
"F, 	c #041F31",
"G, 	c #02192C",
"H, 	c #021129",
"I, 	c #021028",
"J, 	c #021027",
"K, 	c #030624",
"L, 	c #030521",
"M, 	c #04192B",
"N, 	c #052A3B",
"O, 	c #093948",
"P, 	c #0C3C4A",
"Q, 	c #0D3D4C",
"R, 	c #0D3F4D",
"S, 	c #114351",
"T, 	c #114452",
"U, 	c #144858",
"V, 	c #104857",
"W, 	c #0C4454",
"X, 	c #0B4956",
"Y, 	c #0A5D60",
"Z, 	c #085258",
"`, 	c #06404B",
" ' 	c #020B2E",
".' 	c #06132E",
"+' 	c #053F4D",
"@' 	c #084D55",
"#' 	c #075258",
"$' 	c #095158",
"%' 	c #0C6063",
"&' 	c #0C6968",
"*' 	c #096A69",
"=' 	c #075A5D",
"-' 	c #064F58",
";' 	c #053C4E",
">' 	c #053D4E",
",' 	c #053E4F",
"'' 	c #074050",
")' 	c #032832",
"!' 	c #0D887A",
"~' 	c #0F897E",
"{' 	c #053B52",
"]' 	c #031E34",
"^' 	c #043645",
"/' 	c #042139",
"(' 	c #02102E",
"_' 	c #020D26",
":' 	c #022039",
"<' 	c #0A575D",
"[' 	c #096666",
"}' 	c #0E7D70",
"|' 	c #159D83",
"1' 	c #075E5D",
"2' 	c #043F4A",
"3' 	c #031533",
"4' 	c #05353D",
"5' 	c #065552",
"6' 	c #077A69",
"7' 	c #09806C",
"8' 	c #0C8170",
"9' 	c #065D5D",
"0' 	c #045E5D",
"a' 	c #055D5D",
"b' 	c #055D5E",
"c' 	c #065C5E",
"d' 	c #06585B",
"e' 	c #065659",
"f' 	c #075659",
"g' 	c #065558",
"h' 	c #055359",
"i' 	c #055358",
"j' 	c #065259",
"k' 	c #06535B",
"l' 	c #064751",
"m' 	c #06424F",
"n' 	c #07424F",
"o' 	c #084051",
"p' 	c #0A3F50",
"q' 	c #093F50",
"r' 	c #093E50",
"s' 	c #0A3D50",
"t' 	c #093B4F",
"u' 	c #073A4C",
"v' 	c #053446",
"w' 	c #041D34",
"x' 	c #030B2A",
"y' 	c #04162F",
"z' 	c #083440",
"A' 	c #0B4B50",
"B' 	c #0B5D5F",
"C' 	c #0A575B",
"D' 	c #084C53",
"E' 	c #054751",
"F' 	c #054450",
"G' 	c #05414F",
"H' 	c #064050",
"I' 	c #05374B",
"J' 	c #063B4E",
"K' 	c #064051",
"L' 	c #053547",
"M' 	c #043344",
"N' 	c #043243",
"O' 	c #04253C",
"P' 	c #031D38",
"Q' 	c #042941",
"R' 	c #03223C",
"S' 	c #031732",
"T' 	c #043449",
"U' 	c #032B41",
"V' 	c #052C42",
"W' 	c #053B4C",
"X' 	c #053F4F",
"Y' 	c #063F50",
"Z' 	c #064253",
"`' 	c #074153",
" ) 	c #07384E",
".) 	c #08364C",
"+) 	c #073A4E",
"@) 	c #064A58",
"#) 	c #044C57",
"$) 	c #054F58",
"%) 	c #08555C",
"&) 	c #0C5D5F",
"*) 	c #0C6463",
"=) 	c #0A3F45",
"-) 	c #052836",
";) 	c #04122E",
">) 	c #04293D",
",) 	c #06384A",
"') 	c #083B4F",
")) 	c #0A3E50",
"!) 	c #094050",
"~) 	c #094051",
"{) 	c #094250",
"]) 	c #084550",
"^) 	c #064651",
"/) 	c #074952",
"() 	c #07575B",
"_) 	c #06575A",
":) 	c #05585A",
"<) 	c #06585A",
"[) 	c #07595A",
"}) 	c #085A5B",
"|) 	c #075A5B",
"1) 	c #065B5C",
"2) 	c #07605F",
"3) 	c #05615F",
"4) 	c #045F5D",
"5) 	c #04605C",
"6) 	c #055E5C",
"7) 	c #065B5A",
"8) 	c #0B816E",
"9) 	c #09846D",
"0) 	c #087164",
"a) 	c #043F42",
"b) 	c #042735",
"c) 	c #033845",
"d) 	c #05595D",
"e) 	c #0B756D",
"f) 	c #0A796F",
"g) 	c #0A6C6A",
"h) 	c #09585D",
"i) 	c #02213A",
"j) 	c #02243D",
"k) 	c #03122A",
"l) 	c #031835",
"m) 	c #053848",
"n) 	c #032C3E",
"o) 	c #05394D",
"p) 	c #0C6F70",
"q) 	c #0C8C7F",
"r) 	c #05333B",
"s) 	c #053849",
"t) 	c #043B4C",
"u) 	c #043A4B",
"v) 	c #05394B",
"w) 	c #054954",
"x) 	c #065A5E",
"y) 	c #0A6A69",
"z) 	c #0C6C6A",
"A) 	c #0C6766",
"B) 	c #084852",
"C) 	c #054951",
"D) 	c #074751",
"E) 	c #053C4A",
"F) 	c #062237",
"G) 	c #052F3E",
"H) 	c #084E58",
"I) 	c #0B4454",
"J) 	c #124857",
"K) 	c #174B5A",
"L) 	c #144A59",
"M) 	c #0A3F4F",
"N) 	c #0B4554",
"O) 	c #0C4655",
"P) 	c #0C4E58",
"Q) 	c #0A726C",
"R) 	c #086061",
"S) 	c #051733",
"T) 	c #074350",
"U) 	c #084752",
"V) 	c #094953",
"W) 	c #0A4953",
"X) 	c #094A53",
"Y) 	c #0A4C57",
"Z) 	c #065D62",
"`) 	c #075A5F",
" ! 	c #07565D",
".! 	c #084454",
"+! 	c #074352",
"@! 	c #074353",
"#! 	c #064354",
"$! 	c #074857",
"%! 	c #064755",
"&! 	c #053F50",
"*! 	c #042436",
"=! 	c #042533",
"-! 	c #0E776F",
";! 	c #0E7771",
">! 	c #064357",
",! 	c #042640",
"'! 	c #041A30",
")! 	c #031D37",
"!! 	c #02203B",
"~! 	c #053447",
"{! 	c #054A54",
"]! 	c #08535B",
"^! 	c #0A575F",
"/! 	c #096264",
"(! 	c #0C7C6E",
"_! 	c #13A385",
":! 	c #076A64",
"<! 	c #044A50",
"[! 	c #041E37",
"}! 	c #0E8066",
"|! 	c #15C291",
"1! 	c #11957A",
"2! 	c #0B7A6E",
"3! 	c #086465",
"4! 	c #065F61",
"5! 	c #065F60",
"6! 	c #085C60",
"7! 	c #075B5D",
"8! 	c #08575C",
"9! 	c #08555A",
"0! 	c #07555A",
"a! 	c #065459",
"b! 	c #07535B",
"c! 	c #083F51",
"d! 	c #073F51",
"e! 	c #073F50",
"f! 	c #0A3C50",
"g! 	c #08364A",
"h! 	c #042C42",
"i! 	c #031D34",
"j! 	c #031D33",
"k! 	c #063042",
"l! 	c #0A4552",
"m! 	c #0D4A57",
"n! 	c #0B4957",
"o! 	c #074354",
"p! 	c #063E4D",
"q! 	c #022840",
"r! 	c #053348",
"s! 	c #053148",
"t! 	c #042F44",
"u! 	c #020B2B",
"v! 	c #021030",
"w! 	c #021A37",
"x! 	c #02223C",
"y! 	c #031529",
"z! 	c #030A1F",
"A! 	c #03132E",
"B! 	c #021935",
"C! 	c #021837",
"D! 	c #021230",
"E! 	c #02102B",
"F! 	c #042F43",
"G! 	c #04354A",
"H! 	c #063248",
"I! 	c #022940",
"J! 	c #022A3F",
"K! 	c #042C40",
"L! 	c #063646",
"M! 	c #094957",
"N! 	c #0B505B",
"O! 	c #0D515A",
"P! 	c #083B49",
"Q! 	c #052438",
"R! 	c #02152F",
"S! 	c #053347",
"T! 	c #09364A",
"U! 	c #0A3C4F",
"V! 	c #083F50",
"W! 	c #073F4D",
"X! 	c #07515A",
"Y! 	c #07525B",
"Z! 	c #065359",
"`! 	c #075459",
" ~ 	c #07565B",
".~ 	c #07595C",
"+~ 	c #075C5E",
"@~ 	c #065E5F",
"#~ 	c #055F5F",
"$~ 	c #065E60",
"%~ 	c #096766",
"&~ 	c #0A7369",
"*~ 	c #0E8E76",
"=~ 	c #12A181",
"-~ 	c #0B876D",
";~ 	c #042337",
">~ 	c #043846",
",~ 	c #159C81",
"'~ 	c #11977D",
")~ 	c #0E6063",
"!~ 	c #095960",
"~~ 	c #064E57",
"{~ 	c #021832",
"]~ 	c #032739",
"^~ 	c #032034",
"/~ 	c #05314E",
"(~ 	c #0F7371",
"_~ 	c #109584",
":~ 	c #053B3F",
"<~ 	c #010C2A",
"[~ 	c #02142A",
"}~ 	c #074858",
"|~ 	c #074253",
"1~ 	c #075159",
"2~ 	c #065C62",
"3~ 	c #09555C",
"4~ 	c #0B5058",
"5~ 	c #094F57",
"6~ 	c #0A5057",
"7~ 	c #06444F",
"8~ 	c #07293D",
"9~ 	c #073C46",
"0~ 	c #0B706B",
"a~ 	c #0B5B5F",
"b~ 	c #0C4555",
"c~ 	c #0B4455",
"d~ 	c #0C4252",
"e~ 	c #0D4051",
"f~ 	c #094452",
"g~ 	c #0A4554",
"h~ 	c #0B4653",
"i~ 	c #0C4F57",
"j~ 	c #08736E",
"k~ 	c #065C5F",
"l~ 	c #084251",
"m~ 	c #051834",
"n~ 	c #08444F",
"o~ 	c #084551",
"p~ 	c #084651",
"q~ 	c #094854",
"r~ 	c #094955",
"s~ 	c #0B4D57",
"t~ 	c #076162",
"u~ 	c #095E62",
"v~ 	c #0A5059",
"w~ 	c #085159",
"x~ 	c #085158",
"y~ 	c #065158",
"z~ 	c #055257",
"A~ 	c #05545A",
"B~ 	c #05484F",
"C~ 	c #033D45",
"D~ 	c #052A40",
"E~ 	c #084652",
"F~ 	c #0F8980",
"G~ 	c #09535D",
"H~ 	c #02243E",
"I~ 	c #022640",
"J~ 	c #054C56",
"K~ 	c #07575C",
"L~ 	c #095E61",
"M~ 	c #0B6264",
"N~ 	c #086C68",
"O~ 	c #0B8C76",
"P~ 	c #07B58A",
"Q~ 	c #056C65",
"R~ 	c #034A4F",
"S~ 	c #042839",
"T~ 	c #139572",
"U~ 	c #1CDFA1",
"V~ 	c #13917B",
"W~ 	c #0B786F",
"X~ 	c #096767",
"Y~ 	c #086163",
"Z~ 	c #076061",
"`~ 	c #095F61",
" { 	c #095E60",
".{ 	c #085E5F",
"+{ 	c #0A5D5F",
"@{ 	c #0A5A5E",
"#{ 	c #09575D",
"${ 	c #09575C",
"%{ 	c #08575B",
"&{ 	c #08555B",
"*{ 	c #09555B",
"={ 	c #0A555B",
"-{ 	c #09424F",
";{ 	c #083D4D",
">{ 	c #083E4E",
",{ 	c #093D50",
"'{ 	c #0B3D51",
"){ 	c #0B3D50",
"!{ 	c #093D4E",
"~{ 	c #093C4D",
"{{ 	c #083A4C",
"]{ 	c #052E43",
"^{ 	c #063C4A",
"/{ 	c #0A4D57",
"({ 	c #0D4A5A",
"_{ 	c #0C4556",
":{ 	c #053C4D",
"<{ 	c #053B4D",
"[{ 	c #022A40",
"}{ 	c #022A41",
"|{ 	c #022841",
"1{ 	c #03293F",
"2{ 	c #02263C",
"3{ 	c #02283F",
"4{ 	c #032942",
"5{ 	c #021531",
"6{ 	c #021430",
"7{ 	c #03233D",
"8{ 	c #03152A",
"9{ 	c #02051D",
"0{ 	c #021F3B",
"a{ 	c #02253E",
"b{ 	c #031A38",
"c{ 	c #042A41",
"d{ 	c #032D43",
"e{ 	c #05394C",
"f{ 	c #073D50",
"g{ 	c #084052",
"h{ 	c #0D4C5A",
"i{ 	c #0A4955",
"j{ 	c #063D4A",
"k{ 	c #03142E",
"l{ 	c #02273C",
"m{ 	c #03253C",
"n{ 	c #093C4E",
"o{ 	c #0A3C4E",
"p{ 	c #0A3D4E",
"q{ 	c #085259",
"r{ 	c #08545B",
"s{ 	c #07545A",
"t{ 	c #08565B",
"u{ 	c #0A565C",
"v{ 	c #095A5D",
"w{ 	c #075D5E",
"x{ 	c #085D5F",
"y{ 	c #085F61",
"z{ 	c #066061",
"A{ 	c #086565",
"B{ 	c #0B706A",
"C{ 	c #12917A",
"D{ 	c #1BCD98",
"E{ 	c #12B384",
"F{ 	c #052E39",
"G{ 	c #032439",
"H{ 	c #04414A",
"I{ 	c #056663",
"J{ 	c #089B7E",
"K{ 	c #0A957B",
"L{ 	c #0B6767",
"M{ 	c #0C5C61",
"N{ 	c #07525A",
"O{ 	c #02233F",
"P{ 	c #031F36",
"Q{ 	c #030F2B",
"R{ 	c #0E7171",
"S{ 	c #085A5F",
"T{ 	c #084B54",
"U{ 	c #042133",
"V{ 	c #032A38",
"W{ 	c #043C44",
"X{ 	c #05424F",
"Y{ 	c #064C56",
"Z{ 	c #064D56",
"`{ 	c #074C55",
" ] 	c #074D56",
".] 	c #074C57",
"+] 	c #0A555E",
"@] 	c #085E62",
"#] 	c #075E62",
"$] 	c #0A5159",
"%] 	c #0A4853",
"&] 	c #0A4652",
"*] 	c #094551",
"=] 	c #074450",
"-] 	c #062B3F",
";] 	c #020D2F",
">] 	c #020925",
",] 	c #083A47",
"'] 	c #055459",
")] 	c #07716C",
"!] 	c #0A4452",
"~] 	c #0B4F59",
"{] 	c #07726D",
"]] 	c #075B5E",
"^] 	c #073E4D",
"/] 	c #030D25",
"(] 	c #051934",
"_] 	c #07444E",
":] 	c #094853",
"<] 	c #084955",
"[] 	c #084A56",
"}] 	c #0A5058",
"|] 	c #076D67",
"1] 	c #097269",
"2] 	c #096C67",
"3] 	c #095258",
"4] 	c #08545A",
"5] 	c #06585C",
"6] 	c #075C5D",
"7] 	c #075F5F",
"8] 	c #065056",
"9] 	c #055F5B",
"0] 	c #035452",
"a] 	c #041830",
"b] 	c #043D4C",
"c] 	c #075157",
"d] 	c #0E9083",
"e] 	c #086164",
"f] 	c #043743",
"g] 	c #033A43",
"h] 	c #04484D",
"i] 	c #04494E",
"j] 	c #056A62",
"k] 	c #078774",
"l] 	c #07A281",
"m] 	c #079F81",
"n] 	c #088776",
"o] 	c #09A381",
"p] 	c #09A180",
"q] 	c #09A785",
"r] 	c #045D5D",
"s] 	c #03404A",
"t] 	c #03283A",
"u] 	c #042C3A",
"v] 	c #17A079",
"w] 	c #26EBA7",
"x] 	c #159E82",
"y] 	c #0B8E78",
"z] 	c #0C8273",
"A] 	c #0B6D69",
"B] 	c #0B6C69",
"C] 	c #0A6B67",
"D] 	c #0A6E67",
"E] 	c #0B6561",
"F] 	c #0B5F60",
"G] 	c #0C6062",
"H] 	c #0B5E60",
"I] 	c #0A5B5E",
"J] 	c #0A595E",
"K] 	c #0A595D",
"L] 	c #0A585C",
"M] 	c #0A565B",
"N] 	c #0C565C",
"O] 	c #09414E",
"P] 	c #083B4C",
"Q] 	c #093B4C",
"R] 	c #094352",
"S] 	c #084352",
"T] 	c #094252",
"U] 	c #09404E",
"V] 	c #04223C",
"W] 	c #05172E",
"X] 	c #0B3B4A",
"Y] 	c #093D4C",
"Z] 	c #0A3C4C",
"`] 	c #0D4556",
" ^ 	c #0B4254",
".^ 	c #073D4F",
"+^ 	c #053146",
"@^ 	c #043145",
"#^ 	c #033145",
"$^ 	c #043044",
"%^ 	c #042B42",
"&^ 	c #042F46",
"*^ 	c #02243F",
"=^ 	c #03263F",
"-^ 	c #02203C",
";^ 	c #031028",
">^ 	c #03233C",
",^ 	c #032740",
"'^ 	c #031F3A",
")^ 	c #032C43",
"!^ 	c #032C42",
"~^ 	c #032F44",
"{^ 	c #032D42",
"]^ 	c #032F43",
"^^ 	c #053247",
"/^ 	c #053345",
"(^ 	c #073D4D",
"_^ 	c #0A4153",
":^ 	c #0D4657",
"<^ 	c #0B4150",
"[^ 	c #093B4B",
"}^ 	c #073546",
"|^ 	c #05182F",
"1^ 	c #03182F",
"2^ 	c #031D35",
"3^ 	c #083A4B",
"4^ 	c #093F51",
"5^ 	c #083B4A",
"6^ 	c #0B545B",
"7^ 	c #0B575C",
"8^ 	c #0A585D",
"9^ 	c #0B5C5F",
"0^ 	c #0B5F62",
"a^ 	c #0A6563",
"b^ 	c #0A6464",
"c^ 	c #0A6565",
"d^ 	c #0B6465",
"e^ 	c #0B736C",
"f^ 	c #0B7D71",
"g^ 	c #12937D",
"h^ 	c #23D9A0",
"i^ 	c #19C28F",
"j^ 	c #05343C",
"k^ 	c #033D47",
"l^ 	c #045C5D",
"m^ 	c #08A382",
"n^ 	c #09A483",
"o^ 	c #088A75",
"p^ 	c #087E71",
"q^ 	c #088273",
"r^ 	c #078674",
"s^ 	c #06786D",
"t^ 	c #06625F",
"u^ 	c #04434D",
"v^ 	c #033A48",
"w^ 	c #033945",
"x^ 	c #021530",
"y^ 	c #0E887F",
"z^ 	c #041731",
"A^ 	c #044147",
"B^ 	c #055C5A",
"C^ 	c #064B53",
"D^ 	c #05565A",
"E^ 	c #065A5D",
"F^ 	c #06565A",
"G^ 	c #06555A",
"H^ 	c #095359",
"I^ 	c #096262",
"J^ 	c #0A7069",
"K^ 	c #086D68",
"L^ 	c #09595C",
"M^ 	c #084856",
"N^ 	c #07444F",
"O^ 	c #072A3D",
"P^ 	c #030E30",
"Q^ 	c #030924",
"R^ 	c #073444",
"S^ 	c #054E55",
"T^ 	c #08716C",
"U^ 	c #0A5E61",
"V^ 	c #0B4553",
"W^ 	c #094553",
"X^ 	c #094353",
"Y^ 	c #0A4F59",
"Z^ 	c #095C61",
"`^ 	c #086B69",
" / 	c #076764",
"./ 	c #095E5E",
"+/ 	c #06454F",
"@/ 	c #084953",
"#/ 	c #0A4E56",
"$/ 	c #095C5F",
"%/ 	c #085D60",
"&/ 	c #076C67",
"*/ 	c #087269",
"=/ 	c #0A6C67",
"-/ 	c #0B575B",
";/ 	c #095B5D",
">/ 	c #0A5E5F",
",/ 	c #0A6362",
"'/ 	c #086563",
")/ 	c #086C66",
"!/ 	c #067D6D",
"~/ 	c #077E6F",
"{/ 	c #077C6F",
"]/ 	c #067469",
"^/ 	c #056F64",
"// 	c #045452",
"(/ 	c #03192E",
"_/ 	c #044C51",
":/ 	c #085C5B",
"</ 	c #0D9E85",
"[/ 	c #076363",
"}/ 	c #03323D",
"|/ 	c #043E46",
"1/ 	c #063F47",
"2/ 	c #075C59",
"3/ 	c #0A7664",
"4/ 	c #09AB82",
"5/ 	c #08C18F",
"6/ 	c #07C292",
"7/ 	c #09B48C",
"8/ 	c #08C28F",
"9/ 	c #089E7B",
"0/ 	c #055A57",
"a/ 	c #033743",
"b/ 	c #042E3E",
"c/ 	c #032C3B",
"d/ 	c #042D3C",
"e/ 	c #159A72",
"f/ 	c #23E8A2",
"g/ 	c #13AA83",
"h/ 	c #079D7D",
"i/ 	c #079379",
"j/ 	c #08766B",
"k/ 	c #08746B",
"l/ 	c #08756C",
"m/ 	c #0B9279",
"n/ 	c #0B8572",
"o/ 	c #098270",
"p/ 	c #087E6E",
"q/ 	c #07756B",
"r/ 	c #066362",
"s/ 	c #066261",
"t/ 	c #066160",
"u/ 	c #065F5E",
"v/ 	c #065E5D",
"w/ 	c #074953",
"x/ 	c #064350",
"y/ 	c #074652",
"z/ 	c #094C55",
"A/ 	c #094D55",
"B/ 	c #084C54",
"C/ 	c #084A53",
"D/ 	c #074850",
"E/ 	c #073645",
"F/ 	c #053342",
"G/ 	c #053341",
"H/ 	c #052A38",
"I/ 	c #052837",
"J/ 	c #062837",
"K/ 	c #063542",
"L/ 	c #052135",
"M/ 	c #051D31",
"N/ 	c #0D4754",
"O/ 	c #0C4452",
"P/ 	c #0C3F4F",
"Q/ 	c #0A4052",
"R/ 	c #073C4D",
"S/ 	c #073447",
"T/ 	c #063347",
"U/ 	c #053B49",
"V/ 	c #043B49",
"W/ 	c #043B4B",
"X/ 	c #053A4D",
"Y/ 	c #022441",
"Z/ 	c #032B45",
"`/ 	c #031F3C",
" ( 	c #02061F",
".( 	c #020C2F",
"+( 	c #042D45",
"@( 	c #022540",
"#( 	c #02233E",
"$( 	c #05384D",
"%( 	c #043648",
"&( 	c #053748",
"*( 	c #053749",
"=( 	c #063146",
"-( 	c #063C4E",
";( 	c #0C3E50",
">( 	c #0B414F",
",( 	c #0D4A55",
"'( 	c #082739",
")( 	c #03162D",
"!( 	c #051E35",
"~( 	c #053343",
"{( 	c #083544",
"]( 	c #063943",
"^( 	c #063A45",
"/( 	c #073D4A",
"(( 	c #073F4B",
"_( 	c #083F4B",
":( 	c #094B55",
"<( 	c #084C55",
"[( 	c #094D56",
"}( 	c #0A4D56",
"|( 	c #07404D",
"1( 	c #075A5C",
"2( 	c #085B5D",
"3( 	c #085C5E",
"4( 	c #085E60",
"5( 	c #086564",
"6( 	c #086964",
"7( 	c #09736A",
"8( 	c #0A756A",
"9( 	c #0A796B",
"0( 	c #098B75",
"a( 	c #087B6E",
"b( 	c #07756C",
"c( 	c #08756B",
"d( 	c #098F78",
"e( 	c #099A7C",
"f( 	c #10A884",
"g( 	c #24DF9E",
"h( 	c #1BC48E",
"i( 	c #06353D",
"j( 	c #032B3B",
"k( 	c #043B47",
"l( 	c #066761",
"m( 	c #079073",
"n( 	c #09C891",
"o( 	c #0AA987",
"p( 	c #08B78E",
"q( 	c #08CB96",
"r( 	c #09A681",
"s( 	c #098B72",
"t( 	c #066F63",
"u( 	c #065553",
"v( 	c #054C4D",
"w( 	c #034447",
"x( 	c #03313C",
"y( 	c #05575B",
"z( 	c #0E9684",
"A( 	c #077168",
"B( 	c #06565B",
"C( 	c #032032",
"D( 	c #044D4C",
"E( 	c #057265",
"F( 	c #066962",
"G( 	c #077269",
"H( 	c #09766B",
"I( 	c #096964",
"J( 	c #0A5C5F",
"K( 	c #095A5E",
"L( 	c #09585C",
"M( 	c #0A555A",
"N( 	c #076562",
"O( 	c #08726A",
"P( 	c #076E68",
"Q( 	c #085F60",
"R( 	c #09545A",
"S( 	c #0A4E57",
"T( 	c #07454F",
"U( 	c #052B3B",
"V( 	c #07444B",
"W( 	c #065D5E",
"X( 	c #086D6A",
"Y( 	c #0A6063",
"Z( 	c #0A4B57",
"`( 	c #084554",
" _ 	c #075058",
"._ 	c #096B66",
"+_ 	c #0C8275",
"@_ 	c #09997D",
"#_ 	c #088B76",
"$_ 	c #07736A",
"%_ 	c #031A2D",
"&_ 	c #051B2F",
"*_ 	c #065255",
"=_ 	c #076D69",
"-_ 	c #076F69",
";_ 	c #07726A",
">_ 	c #0B776B",
",_ 	c #0A776B",
"'_ 	c #087168",
")_ 	c #087268",
"!_ 	c #08766A",
"~_ 	c #068571",
"{_ 	c #097267",
"]_ 	c #065655",
"^_ 	c #055656",
"/_ 	c #045354",
"(_ 	c #045253",
"__ 	c #03283B",
":_ 	c #043B42",
"<_ 	c #053A46",
"[_ 	c #033D49",
"}_ 	c #043741",
"|_ 	c #04363D",
"1_ 	c #031B2F",
"2_ 	c #042536",
"3_ 	c #06323B",
"4_ 	c #074F4A",
"5_ 	c #076B5C",
"6_ 	c #067160",
"7_ 	c #056B5E",
"8_ 	c #05725F",
"9_ 	c #055D58",
"0_ 	c #043446",
"a_ 	c #032F3F",
"b_ 	c #032F3D",
"c_ 	c #022E3D",
"d_ 	c #084646",
"e_ 	c #0C6557",
"f_ 	c #06494A",
"g_ 	c #04464A",
"h_ 	c #04464B",
"i_ 	c #054049",
"j_ 	c #05414A",
"k_ 	c #05484D",
"l_ 	c #05494F",
"m_ 	c #05484E",
"n_ 	c #044149",
"o_ 	c #043D46",
"p_ 	c #043944",
"q_ 	c #043643",
"r_ 	c #043543",
"s_ 	c #043442",
"t_ 	c #043242",
"u_ 	c #033241",
"v_ 	c #032F40",
"w_ 	c #032C3D",
"x_ 	c #02283A",
"y_ 	c #032939",
"z_ 	c #032033",
"A_ 	c #03293A",
"B_ 	c #032A3B",
"C_ 	c #052C3C",
"D_ 	c #043642",
"E_ 	c #063742",
"F_ 	c #063944",
"G_ 	c #05454C",
"H_ 	c #04303B",
"I_ 	c #051E30",
"J_ 	c #0B4955",
"K_ 	c #0A4F5B",
"L_ 	c #0A565F",
"M_ 	c #0B4C59",
"N_ 	c #0A4250",
"O_ 	c #093B48",
"P_ 	c #094652",
"Q_ 	c #09414D",
"R_ 	c #073E4B",
"S_ 	c #063B48",
"T_ 	c #063344",
"U_ 	c #063748",
"V_ 	c #06394C",
"W_ 	c #03243F",
"X_ 	c #02233C",
"Y_ 	c #02233D",
"Z_ 	c #030725",
"`_ 	c #020B2F",
" : 	c #020F30",
".: 	c #032640",
"+: 	c #03233E",
"@: 	c #042942",
"#: 	c #05384A",
"$: 	c #063444",
"%: 	c #043B48",
"&: 	c #053F4B",
"*: 	c #07414D",
"=: 	c #08424F",
"-: 	c #07434F",
";: 	c #0A3847",
">: 	c #093747",
",: 	c #0C4354",
"': 	c #0C4C59",
"): 	c #0B4D59",
"!: 	c #0B4E58",
"~: 	c #062738",
"{: 	c #03162C",
"]: 	c #042939",
"^: 	c #05192F",
"/: 	c #052938",
"(: 	c #05162D",
"_: 	c #03122D",
":: 	c #031933",
"<: 	c #05283A",
"[: 	c #04303D",
"}: 	c #04313D",
"|: 	c #04313E",
"1: 	c #053541",
"2: 	c #043947",
"3: 	c #054A4F",
"4: 	c #054A50",
"5: 	c #054C50",
"6: 	c #065354",
"7: 	c #065554",
"8: 	c #065D58",
"9: 	c #07635B",
"0: 	c #08655F",
"a: 	c #096C61",
"b: 	c #095A59",
"c: 	c #075355",
"d: 	c #065455",
"e: 	c #06625B",
"f: 	c #066B5E",
"g: 	c #0B7462",
"h: 	c #159773",
"i: 	c #108366",
"j: 	c #032D3D",
"k: 	c #032D3C",
"l: 	c #066059",
"m: 	c #069B79",
"n: 	c #079577",
"o: 	c #069776",
"p: 	c #079675",
"q: 	c #0A7D61",
"r: 	c #085E51",
"s: 	c #04343E",
"t: 	c #042135",
"u: 	c #041F34",
"v: 	c #031F32",
"w: 	c #032E3A",
"x: 	c #044B52",
"y: 	c #086560",
"z: 	c #05484A",
"A: 	c #05373E",
"B: 	c #041A2D",
"C: 	c #042F3C",
"D: 	c #044B4F",
"E: 	c #04605A",
"F: 	c #05645E",
"G: 	c #05655F",
"H: 	c #06655E",
"I: 	c #077167",
"J: 	c #078070",
"K: 	c #068270",
"L: 	c #08776A",
"M: 	c #086C65",
"N: 	c #096A64",
"O: 	c #087067",
"P: 	c #0A746A",
"Q: 	c #077169",
"R: 	c #076C68",
"S: 	c #076A67",
"T: 	c #086966",
"U: 	c #075056",
"V: 	c #062D3C",
"W: 	c #08615C",
"X: 	c #088071",
"Y: 	c #098472",
"Z: 	c #0A756E",
"`: 	c #0A5E62",
" < 	c #074653",
".< 	c #084151",
"+< 	c #085D5E",
"@< 	c #075553",
"#< 	c #087966",
"$< 	c #09947A",
"%< 	c #09AE89",
"&< 	c #09987C",
"*< 	c #09796C",
"=< 	c #031B2C",
"-< 	c #021F36",
";< 	c #042235",
">< 	c #075554",
",< 	c #086562",
"'< 	c #096B68",
")< 	c #06716B",
"!< 	c #06726C",
"~< 	c #07736C",
"{< 	c #08736B",
"]< 	c #0E7A6D",
"^< 	c #0F7B6C",
"/< 	c #067369",
"(< 	c #077368",
"_< 	c #057367",
":< 	c #057467",
"<< 	c #085F5B",
"[< 	c #085C5A",
"}< 	c #05665F",
"|< 	c #055F5E",
"1< 	c #045A5B",
"2< 	c #035956",
"3< 	c #045155",
"4< 	c #055E5F",
"5< 	c #055C5C",
"6< 	c #033D46",
"7< 	c #032B3D",
"8< 	c #054E50",
"9< 	c #042634",
"0< 	c #021B30",
"a< 	c #023341",
"b< 	c #033844",
"c< 	c #043B44",
"d< 	c #05464A",
"e< 	c #06625C",
"f< 	c #06665C",
"g< 	c #055C55",
"h< 	c #05705F",
"i< 	c #057260",
"j< 	c #066E5D",
"k< 	c #056F5C",
"l< 	c #046A5A",
"m< 	c #056158",
"n< 	c #046058",
"o< 	c #065F58",
"p< 	c #056259",
"q< 	c #06695B",
"r< 	c #067360",
"s< 	c #046B5C",
"t< 	c #046B5D",
"u< 	c #056B5F",
"v< 	c #04675D",
"w< 	c #04665D",
"x< 	c #05665E",
"y< 	c #055555",
"z< 	c #055756",
"A< 	c #05655B",
"B< 	c #04665B",
"C< 	c #04665A",
"D< 	c #03625B",
"E< 	c #035355",
"F< 	c #034C51",
"G< 	c #03464D",
"H< 	c #03464C",
"I< 	c #03444B",
"J< 	c #034048",
"K< 	c #032D3E",
"L< 	c #04243A",
"M< 	c #022437",
"N< 	c #021F33",
"O< 	c #021B34",
"P< 	c #055951",
"Q< 	c #064E51",
"R< 	c #054652",
"S< 	c #044E55",
"T< 	c #045056",
"U< 	c #05535A",
"V< 	c #065C61",
"W< 	c #064E55",
"X< 	c #065156",
"Y< 	c #073844",
"Z< 	c #061D32",
"`< 	c #07525C",
" [ 	c #0B5B61",
".[ 	c #138379",
"+[ 	c #0F6E6B",
"@[ 	c #08505A",
"#[ 	c #094F5A",
"$[ 	c #063645",
"%[ 	c #073747",
"&[ 	c #073C4F",
"*[ 	c #07384C",
"=[ 	c #08344A",
"-[ 	c #063449",
";[ 	c #042C43",
">[ 	c #021E3A",
",[ 	c #021D38",
"'[ 	c #021A36",
")[ 	c #030B2E",
"![ 	c #02203A",
"~[ 	c #021F3A",
"{[ 	c #052E46",
"][ 	c #073B4F",
"^[ 	c #073B4D",
"/[ 	c #073C4C",
"([ 	c #083344",
"_[ 	c #072F40",
":[ 	c #063040",
"<[ 	c #083747",
"[[ 	c #09404F",
"}[ 	c #0A4E59",
"|[ 	c #0A535C",
"1[ 	c #0C6D6C",
"2[ 	c #0C5A61",
"3[ 	c #08535E",
"4[ 	c #094B59",
"5[ 	c #072638",
"6[ 	c #06333F",
"7[ 	c #075B5C",
"8[ 	c #08595E",
"9[ 	c #065A5F",
"0[ 	c #044A54",
"a[ 	c #044952",
"b[ 	c #044450",
"c[ 	c #054145",
"d[ 	c #041B33",
"e[ 	c #02142D",
"f[ 	c #031730",
"g[ 	c #021E34",
"h[ 	c #03303E",
"i[ 	c #033543",
"j[ 	c #033946",
"k[ 	c #034249",
"l[ 	c #034549",
"m[ 	c #04474A",
"n[ 	c #054F52",
"o[ 	c #045053",
"p[ 	c #045152",
"q[ 	c #045353",
"r[ 	c #045151",
"s[ 	c #055652",
"t[ 	c #055351",
"u[ 	c #054B4D",
"v[ 	c #054C4E",
"w[ 	c #05494D",
"x[ 	c #04484B",
"y[ 	c #04494C",
"z[ 	c #044C4C",
"A[ 	c #044F4D",
"B[ 	c #055150",
"C[ 	c #045754",
"D[ 	c #04645B",
"E[ 	c #054B4C",
"F[ 	c #065551",
"G[ 	c #06645E",
"H[ 	c #054F51",
"I[ 	c #033140",
"J[ 	c #021E33",
"K[ 	c #04182C",
"L[ 	c #06504F",
"M[ 	c #04434A",
"N[ 	c #054B51",
"O[ 	c #04605F",
"P[ 	c #054F54",
"Q[ 	c #033744",
"R[ 	c #045756",
"S[ 	c #045858",
"T[ 	c #06595B",
"U[ 	c #04635D",
"V[ 	c #075D5A",
"W[ 	c #08605A",
"X[ 	c #067165",
"Y[ 	c #067266",
"Z[ 	c #077369",
"`[ 	c #0C796B",
" } 	c #138070",
".} 	c #08736A",
"+} 	c #07726B",
"@} 	c #076866",
"#} 	c #06605B",
"$} 	c #06393F",
"%} 	c #021831",
"&} 	c #065956",
"*} 	c #078471",
"=} 	c #0BAB88",
"-} 	c #0AA182",
";} 	c #098771",
">} 	c #09625C",
",} 	c #07585B",
"'} 	c #056662",
")} 	c #054546",
"!} 	c #046C5E",
"~} 	c #098C77",
"{} 	c #069578",
"]} 	c #076863",
"^} 	c #042E3C",
"/} 	c #0C7668",
"(} 	c #0A726B",
"_} 	c #08726C",
":} 	c #067970",
"<} 	c #067F72",
"[} 	c #087E73",
"}} 	c #08766D",
"|} 	c #07746A",
"1} 	c #086C63",
"2} 	c #0A6760",
"3} 	c #09655F",
"4} 	c #086963",
"5} 	c #055D5B",
"6} 	c #045C5C",
"7} 	c #045759",
"8} 	c #033F4A",
"9} 	c #06303A",
"0} 	c #086B5F",
"a} 	c #076A60",
"b} 	c #06494F",
"c} 	c #043641",
"d} 	c #063A46",
"e} 	c #051E34",
"f} 	c #031F33",
"g} 	c #033D48",
"h} 	c #03474B",
"i} 	c #0BB98B",
"j} 	c #0AC390",
"k} 	c #09C68F",
"l} 	c #08C890",
"m} 	c #08C993",
"n} 	c #0ACB96",
"o} 	c #0FBE92",
"p} 	c #0BA081",
"q} 	c #09A482",
"r} 	c #0AAD85",
"s} 	c #10B68A",
"t} 	c #10B88B",
"u} 	c #0BBD8A",
"v} 	c #0CCB90",
"w} 	c #09BD89",
"x} 	c #09BE8A",
"y} 	c #09BB8B",
"z} 	c #07A481",
"A} 	c #06A081",
"B} 	c #07A282",
"C} 	c #08987D",
"D} 	c #099B7E",
"E} 	c #0C9B7E",
"F} 	c #067065",
"G} 	c #047266",
"H} 	c #047268",
"I} 	c #056362",
"J} 	c #05585B",
"K} 	c #064C54",
"L} 	c #04615E",
"M} 	c #045E5E",
"N} 	c #04575B",
"O} 	c #065F5C",
"P} 	c #087E6B",
"Q} 	c #087364",
"R} 	c #06424D",
"S} 	c #065B5B",
"T} 	c #076262",
"U} 	c #0B7970",
"V} 	c #074C54",
"W} 	c #064952",
"X} 	c #054B56",
"Y} 	c #044751",
"Z} 	c #044651",
"`} 	c #043241",
" | 	c #093349",
".| 	c #086062",
"+| 	c #0D6F6B",
"@| 	c #0D8275",
"#| 	c #0C8476",
"$| 	c #084754",
"%| 	c #074053",
"&| 	c #064151",
"*| 	c #093D4F",
"=| 	c #093C4F",
"-| 	c #083D4F",
";| 	c #08384C",
">| 	c #03243E",
",| 	c #030B2D",
"'| 	c #02223B",
")| 	c #07364A",
"!| 	c #083B4E",
"~| 	c #083D50",
"{| 	c #064251",
"]| 	c #074554",
"^| 	c #0E8275",
"/| 	c #148879",
"(| 	c #0A6264",
"_| 	c #072236",
":| 	c #04414C",
"<| 	c #05444F",
"[| 	c #054D54",
"}| 	c #064D54",
"|| 	c #096664",
"1| 	c #086C67",
"2| 	c #076F62",
"3| 	c #053E48",
"4| 	c #05434B",
"5| 	c #06635A",
"6| 	c #076D60",
"7| 	c #075A58",
"8| 	c #054852",
"9| 	c #045358",
"0| 	c #045659",
"a| 	c #045558",
"b| 	c #046562",
"c| 	c #047469",
"d| 	c #047A69",
"e| 	c #057767",
"f| 	c #098F76",
"g| 	c #099377",
"h| 	c #088972",
"i| 	c #08967B",
"j| 	c #06967A",
"k| 	c #06987A",
"l| 	c #09A981",
"m| 	c #08AF81",
"n| 	c #08AE80",
"o| 	c #09B884",
"p| 	c #0BB081",
"q| 	c #0DA37D",
"r| 	c #0EA17D",
"s| 	c #0A9C7A",
"t| 	c #079578",
"u| 	c #099077",
"v| 	c #0AA37F",
"w| 	c #08B788",
"x| 	c #08B787",
"y| 	c #08B585",
"z| 	c #07B384",
"A| 	c #0AAC81",
"B| 	c #09A77F",
"C| 	c #099B7C",
"D| 	c #075853",
"E| 	c #05474A",
"F| 	c #033A46",
"G| 	c #032536",
"H| 	c #04132C",
"I| 	c #03303F",
"J| 	c #053A47",
"K| 	c #045958",
"L| 	c #066560",
"M| 	c #057266",
"N| 	c #06494C",
"O| 	c #05625D",
"P| 	c #07645F",
"Q| 	c #096460",
"R| 	c #076861",
"S| 	c #086B62",
"T| 	c #086D64",
"U| 	c #06746A",
"V| 	c #077469",
"W| 	c #09756B",
"X| 	c #07746C",
"Y| 	c #08766E",
"Z| 	c #07786F",
"`| 	c #06766E",
" 1 	c #08736D",
".1 	c #08716B",
"+1 	c #0B6860",
"@1 	c #054146",
"#1 	c #07605B",
"$1 	c #078B74",
"%1 	c #08AE88",
"&1 	c #08997D",
"*1 	c #057263",
"=1 	c #054545",
"-1 	c #065D5B",
";1 	c #066864",
">1 	c #047665",
",1 	c #04846D",
"'1 	c #09997E",
")1 	c #07C193",
"!1 	c #06987B",
"~1 	c #041829",
"{1 	c #04343F",
"]1 	c #066D60",
"^1 	c #0A8872",
"/1 	c #0B927B",
"(1 	c #068B75",
"_1 	c #08A281",
":1 	c #0AAB86",
"<1 	c #0CA482",
"[1 	c #078472",
"}1 	c #087267",
"|1 	c #086E64",
"11 	c #086D63",
"21 	c #096C64",
"31 	c #07615F",
"41 	c #045859",
"51 	c #03424D",
"61 	c #04273B",
"71 	c #042033",
"81 	c #042032",
"91 	c #031C31",
"01 	c #031830",
"a1 	c #03152E",
"b1 	c #05323D",
"c1 	c #044B4D",
"d1 	c #066F60",
"e1 	c #089C79",
"f1 	c #0AB183",
"g1 	c #08C18B",
"h1 	c #07BF8B",
"i1 	c #07BF8C",
"j1 	c #07BF8E",
"k1 	c #0CB98C",
"l1 	c #13B78E",
"m1 	c #12B58D",
"n1 	c #11AD88",
"o1 	c #0CAC85",
"p1 	c #16B78E",
"q1 	c #14A985",
"r1 	c #0BA07E",
"s1 	c #0BA07D",
"t1 	c #08A37D",
"u1 	c #07A680",
"v1 	c #06A681",
"w1 	c #05997B",
"x1 	c #05997A",
"y1 	c #058971",
"z1 	c #057C6C",
"A1 	c #057468",
"B1 	c #057368",
"C1 	c #047467",
"D1 	c #066A65",
"E1 	c #066664",
"F1 	c #04826E",
"G1 	c #057D6E",
"H1 	c #057167",
"I1 	c #056360",
"J1 	c #045556",
"K1 	c #065C5D",
"L1 	c #055C5E",
"M1 	c #054D56",
"N1 	c #044550",
"O1 	c #033E4B",
"P1 	c #032537",
"Q1 	c #03152C",
"R1 	c #072D45",
"S1 	c #074D55",
"T1 	c #056161",
"U1 	c #066363",
"V1 	c #097D74",
"W1 	c #0A8F7F",
"X1 	c #076667",
"Y1 	c #07505A",
"Z1 	c #08374C",
"`1 	c #063049",
" 2 	c #042F48",
".2 	c #030E2F",
"+2 	c #032B44",
"@2 	c #0A3D4F",
"#2 	c #074E5A",
"$2 	c #0A8579",
"%2 	c #0B9180",
"&2 	c #086363",
"*2 	c #066162",
"=2 	c #093148",
"-2 	c #041C33",
";2 	c #042537",
">2 	c #044652",
",2 	c #054B55",
"'2 	c #054D57",
")2 	c #065157",
"!2 	c #076161",
"~2 	c #0A5E60",
"{2 	c #06766D",
"]2 	c #064B52",
"^2 	c #064A52",
"/2 	c #075655",
"(2 	c #056960",
"_2 	c #06615E",
":2 	c #057369",
"<2 	c #047868",
"[2 	c #057B6C",
"}2 	c #065B5E",
"|2 	c #056261",
"12 	c #046C64",
"22 	c #046C65",
"32 	c #046B65",
"42 	c #08786C",
"52 	c #067D6C",
"62 	c #06836F",
"72 	c #059779",
"82 	c #05987A",
"92 	c #07A883",
"02 	c #06AC84",
"a2 	c #06AB82",
"b2 	c #09B688",
"c2 	c #0FB78B",
"d2 	c #16C596",
"e2 	c #0DBF90",
"f2 	c #0BB68C",
"g2 	c #10BF94",
"h2 	c #15C799",
"i2 	c #0FCE9B",
"j2 	c #08C793",
"k2 	c #07C590",
"l2 	c #07C58E",
"m2 	c #07C58F",
"n2 	c #09C18D",
"o2 	c #08B78A",
"p2 	c #067262",
"q2 	c #045653",
"r2 	c #033E49",
"s2 	c #043B46",
"t2 	c #062335",
"u2 	c #042433",
"v2 	c #052A37",
"w2 	c #06373E",
"x2 	c #063E40",
"y2 	c #074342",
"z2 	c #04263A",
"A2 	c #043745",
"B2 	c #044D55",
"C2 	c #045A5A",
"D2 	c #055C5D",
"E2 	c #075E5F",
"F2 	c #096462",
"G2 	c #0A6C64",
"H2 	c #096F65",
"I2 	c #097065",
"J2 	c #087368",
"K2 	c #08776B",
"L2 	c #088372",
"M2 	c #098875",
"N2 	c #099B7F",
"O2 	c #08A885",
"P2 	c #077D70",
"Q2 	c #0A8675",
"R2 	c #0A8E78",
"S2 	c #097566",
"T2 	c #064848",
"U2 	c #03152B",
"V2 	c #055654",
"W2 	c #058170",
"X2 	c #08BB90",
"Y2 	c #09A585",
"Z2 	c #067B69",
"`2 	c #045E56",
" 3 	c #066360",
".3 	c #076063",
"+3 	c #077A68",
"@3 	c #07987B",
"#3 	c #06846C",
"$3 	c #088A72",
"%3 	c #08B58A",
"&3 	c #06866F",
"*3 	c #051422",
"=3 	c #053B46",
"-3 	c #05454B",
";3 	c #076F63",
">3 	c #098772",
",3 	c #0B9678",
"'3 	c #05AB82",
")3 	c #06A97F",
"!3 	c #069F7C",
"~3 	c #0B9977",
"{3 	c #077F6B",
"]3 	c #067264",
"^3 	c #075857",
"/3 	c #075054",
"(3 	c #054D52",
"_3 	c #03484F",
":3 	c #03454C",
"<3 	c #03444C",
"[3 	c #033B46",
"}3 	c #031C34",
"|3 	c #053543",
"13 	c #05414E",
"23 	c #033F4B",
"33 	c #04404E",
"43 	c #043C4B",
"53 	c #033848",
"63 	c #033646",
"73 	c #033342",
"83 	c #052735",
"93 	c #064140",
"03 	c #077762",
"a3 	c #07645A",
"b3 	c #07705C",
"c3 	c #078263",
"d3 	c #078063",
"e3 	c #078064",
"f3 	c #097E66",
"g3 	c #0C6359",
"h3 	c #0C5F58",
"i3 	c #0F635A",
"j3 	c #14665D",
"k3 	c #14665E",
"l3 	c #14675F",
"m3 	c #16685F",
"n3 	c #166761",
"o3 	c #166961",
"p3 	c #167B69",
"q3 	c #12806A",
"r3 	c #0B826A",
"s3 	c #07886E",
"t3 	c #078C71",
"u3 	c #079374",
"v3 	c #079074",
"w3 	c #079376",
"x3 	c #079D78",
"y3 	c #08B080",
"z3 	c #08B681",
"A3 	c #07B380",
"B3 	c #07B180",
"C3 	c #08AE7E",
"D3 	c #09A97F",
"E3 	c #079176",
"F3 	c #058671",
"G3 	c #057769",
"H3 	c #056C64",
"I3 	c #046361",
"J3 	c #046A63",
"K3 	c #05605F",
"L3 	c #05575A",
"M3 	c #055A5B",
"N3 	c #055E5E",
"O3 	c #046161",
"P3 	c #076361",
"Q3 	c #076261",
"R3 	c #066364",
"S3 	c #045159",
"T3 	c #032C3F",
"U3 	c #021833",
"V3 	c #073B45",
"W3 	c #064B51",
"X3 	c #076C66",
"Y3 	c #086262",
"Z3 	c #094151",
"`3 	c #084152",
" 4 	c #084252",
".4 	c #094253",
"+4 	c #093B4D",
"@4 	c #08364B",
"#4 	c #08374B",
"$4 	c #083449",
"%4 	c #08314A",
"&4 	c #07374D",
"*4 	c #054C55",
"=4 	c #030F2F",
"-4 	c #04374B",
";4 	c #06314A",
">4 	c #073449",
",4 	c #09394D",
"'4 	c #093A4D",
")4 	c #094152",
"!4 	c #074151",
"~4 	c #096D6A",
"{4 	c #097C72",
"]4 	c #087B70",
"^4 	c #066263",
"/4 	c #084E52",
"(4 	c #032A3D",
"_4 	c #043746",
":4 	c #055159",
"<4 	c #066565",
"[4 	c #076362",
"}4 	c #066060",
"|4 	c #065257",
"14 	c #056762",
"24 	c #066B63",
"34 	c #067D6A",
"44 	c #06816F",
"54 	c #058A72",
"64 	c #098F74",
"74 	c #089475",
"84 	c #069977",
"94 	c #069C77",
"04 	c #069E78",
"a4 	c #079D79",
"b4 	c #069476",
"c4 	c #078E74",
"d4 	c #089477",
"e4 	c #089B7B",
"f4 	c #089B79",
"g4 	c #089877",
"h4 	c #0A9978",
"i4 	c #0F9A78",
"j4 	c #129777",
"k4 	c #167D6C",
"l4 	c #16756A",
"m4 	c #17776A",
"n4 	c #177869",
"o4 	c #127565",
"p4 	c #157668",
"q4 	c #157868",
"r4 	c #0E7564",
"s4 	c #0C7361",
"t4 	c #0C9877",
"u4 	c #09A17A",
"v4 	c #09A178",
"w4 	c #09A477",
"x4 	c #0A946F",
"y4 	c #09715F",
"z4 	c #067762",
"A4 	c #065F53",
"B4 	c #05353E",
"C4 	c #051B2E",
"D4 	c #042840",
"E4 	c #043040",
"F4 	c #052D3E",
"G4 	c #042137",
"H4 	c #03454D",
"I4 	c #044B50",
"J4 	c #044F53",
"K4 	c #055557",
"L4 	c #055657",
"M4 	c #075959",
"N4 	c #086862",
"O4 	c #077668",
"P4 	c #078870",
"Q4 	c #0FB083",
"R4 	c #0AA17D",
"S4 	c #07A37E",
"T4 	c #06A57F",
"U4 	c #09987A",
"V4 	c #098A73",
"W4 	c #096C62",
"X4 	c #054F4E",
"Y4 	c #043A47",
"Z4 	c #051A2A",
"`4 	c #05404A",
" 5 	c #056F63",
".5 	c #07B98D",
"+5 	c #09A683",
"@5 	c #068B70",
"#5 	c #079377",
"$5 	c #067D6B",
"%5 	c #096B64",
"&5 	c #056E5C",
"*5 	c #057B66",
"=5 	c #05695C",
"-5 	c #045E57",
";5 	c #055453",
">5 	c #044A52",
",5 	c #041020",
"'5 	c #04323D",
")5 	c #063A44",
"!5 	c #086A60",
"~5 	c #099778",
"{5 	c #06A97E",
"]5 	c #06AD82",
"^5 	c #06B082",
"/5 	c #067F6C",
"(5 	c #056861",
"_5 	c #065C5A",
":5 	c #04454C",
"<5 	c #04444B",
"[5 	c #04434B",
"}5 	c #044349",
"|5 	c #043F48",
"15 	c #033742",
"25 	c #042238",
"35 	c #043245",
"45 	c #106B65",
"55 	c #157E73",
"65 	c #147C70",
"75 	c #10736A",
"85 	c #0C6B67",
"95 	c #085B5F",
"05 	c #085859",
"a5 	c #06464C",
"b5 	c #043345",
"c5 	c #043342",
"d5 	c #06323F",
"e5 	c #053741",
"f5 	c #043D45",
"g5 	c #023B44",
"h5 	c #023E44",
"i5 	c #033E42",
"j5 	c #0B4548",
"k5 	c #10474D",
"l5 	c #0C434B",
"m5 	c #053F46",
"n5 	c #043E42",
"o5 	c #0A4247",
"p5 	c #0E484C",
"q5 	c #0F484D",
"r5 	c #0A4347",
"s5 	c #053F43",
"t5 	c #044045",
"u5 	c #034548",
"v5 	c #034B4A",
"w5 	c #04504D",
"x5 	c #055A50",
"y5 	c #056856",
"z5 	c #046B56",
"A5 	c #046D57",
"B5 	c #066552",
"C5 	c #056151",
"D5 	c #065A51",
"E5 	c #064B4B",
"F5 	c #054548",
"G5 	c #054248",
"H5 	c #043B45",
"I5 	c #043A44",
"J5 	c #033A45",
"K5 	c #033B45",
"L5 	c #032A3C",
"M5 	c #03283C",
"N5 	c #030D2E",
"O5 	c #03293C",
"P5 	c #06595C",
"Q5 	c #065E5E",
"R5 	c #065A5A",
"S5 	c #085359",
"T5 	c #094E58",
"U5 	c #094C57",
"V5 	c #094B57",
"W5 	c #094150",
"X5 	c #09394B",
"Y5 	c #07394C",
"Z5 	c #053648",
"`5 	c #053646",
" 6 	c #03112F",
".6 	c #063D4E",
"+6 	c #054753",
"@6 	c #054B54",
"#6 	c #08334A",
"$6 	c #09324A",
"%6 	c #083348",
"&6 	c #083349",
"*6 	c #09374A",
"=6 	c #0A4555",
"-6 	c #0A4454",
";6 	c #094454",
">6 	c #094354",
",6 	c #085659",
"'6 	c #075D5D",
")6 	c #055A5C",
"!6 	c #054C4F",
"~6 	c #034B50",
"{6 	c #044950",
"]6 	c #044C50",
"^6 	c #044F52",
"/6 	c #055053",
"(6 	c #06615B",
"_6 	c #07645B",
":6 	c #09896C",
"<6 	c #08936C",
"[6 	c #09956D",
"}6 	c #07996E",
"|6 	c #079B6E",
"16 	c #07996F",
"26 	c #088566",
"36 	c #067561",
"46 	c #05695D",
"56 	c #05685B",
"66 	c #065753",
"76 	c #054E4E",
"86 	c #07484A",
"96 	c #0B464A",
"06 	c #094448",
"a6 	c #0B4549",
"b6 	c #10494D",
"c6 	c #114A4F",
"d6 	c #0F494D",
"e6 	c #0B4448",
"f6 	c #0D464C",
"g6 	c #044043",
"h6 	c #034144",
"i6 	c #034045",
"j6 	c #044549",
"k6 	c #04484C",
"l6 	c #074C4B",
"m6 	c #063A3F",
"n6 	c #041A34",
"o6 	c #042D3F",
"p6 	c #043546",
"q6 	c #053A48",
"r6 	c #06525A",
"s6 	c #064E58",
"t6 	c #0A5960",
"u6 	c #032036",
"v6 	c #033E47",
"w6 	c #03414A",
"x6 	c #04424A",
"y6 	c #05625E",
"z6 	c #057B6A",
"A6 	c #069C7B",
"B6 	c #06B484",
"C6 	c #06B485",
"D6 	c #07AD82",
"E6 	c #07A580",
"F6 	c #0A7366",
"G6 	c #055253",
"H6 	c #053843",
"I6 	c #055457",
"J6 	c #067E69",
"K6 	c #067664",
"L6 	c #066C5F",
"M6 	c #068C72",
"N6 	c #058069",
"O6 	c #067162",
"P6 	c #052433",
"Q6 	c #032534",
"R6 	c #042435",
"S6 	c #04293B",
"T6 	c #041121",
"U6 	c #041C2E",
"V6 	c #042231",
"W6 	c #065B54",
"X6 	c #055D53",
"Y6 	c #055E55",
"Z6 	c #046155",
"`6 	c #056256",
" 7 	c #045954",
".7 	c #045554",
"+7 	c #045352",
"@7 	c #034E4F",
"#7 	c #034D4D",
"$7 	c #034C4D",
"%7 	c #044B4C",
"&7 	c #044041",
"*7 	c #07353B",
"=7 	c #031125",
"-7 	c #042B43",
";7 	c #053C4B",
">7 	c #0A7F74",
",7 	c #1EB592",
"'7 	c #29C29A",
")7 	c #1EAC8C",
"!7 	c #1A9D86",
"~7 	c #169380",
"{7 	c #0D736A",
"]7 	c #0A7663",
"^7 	c #075C54",
"/7 	c #043D4B",
"(7 	c #044049",
"_7 	c #043F47",
":7 	c #043E47",
"<7 	c #032A3F",
"[7 	c #032840",
"}7 	c #062F3A",
"|7 	c #064B50",
"17 	c #07695F",
"27 	c #08695D",
"37 	c #0F6B62",
"47 	c #145053",
"57 	c #0B444B",
"67 	c #053A44",
"77 	c #073C47",
"87 	c #0B414A",
"97 	c #0A4149",
"07 	c #0E5657",
"a7 	c #095855",
"b7 	c #055651",
"c7 	c #04514E",
"d7 	c #04524F",
"e7 	c #03514E",
"f7 	c #03504D",
"g7 	c #034E4D",
"h7 	c #034B4C",
"i7 	c #03484A",
"j7 	c #034648",
"k7 	c #044246",
"l7 	c #044146",
"m7 	c #044046",
"n7 	c #033F47",
"o7 	c #033F48",
"p7 	c #034047",
"q7 	c #032B3E",
"r7 	c #02072A",
"s7 	c #031B38",
"t7 	c #041E38",
"u7 	c #042036",
"v7 	c #053D49",
"w7 	c #07484E",
"x7 	c #055455",
"y7 	c #065957",
"z7 	c #054B50",
"A7 	c #045050",
"B7 	c #044E51",
"C7 	c #044E50",
"D7 	c #05454E",
"E7 	c #04404B",
"F7 	c #03404B",
"G7 	c #043F4C",
"H7 	c #063446",
"I7 	c #04253E",
"J7 	c #02062A",
"K7 	c #020525",
"L7 	c #03082C",
"M7 	c #064652",
"N7 	c #064752",
"O7 	c #074A54",
"P7 	c #065959",
"Q7 	c #06595A",
"R7 	c #08645E",
"S7 	c #086761",
"T7 	c #066561",
"U7 	c #052A3E",
"V7 	c #030F30",
"W7 	c #03082B",
"X7 	c #033141",
"Y7 	c #022A3C",
"Z7 	c #02303F",
"`7 	c #02303E",
" 8 	c #04303E",
".8 	c #04343D",
"+8 	c #033A40",
"@8 	c #033B41",
"#8 	c #033C41",
"$8 	c #033B42",
"%8 	c #023D44",
"&8 	c #033F44",
"*8 	c #024145",
"=8 	c #034145",
"-8 	c #034044",
";8 	c #034245",
">8 	c #08474A",
",8 	c #0E494E",
"'8 	c #094348",
")8 	c #084047",
"!8 	c #043D44",
"~8 	c #063D46",
"{8 	c #11464E",
"]8 	c #125656",
"^8 	c #08524F",
"/8 	c #045250",
"(8 	c #053E47",
"_8 	c #05333F",
":8 	c #041A2C",
"<8 	c #03283E",
"[8 	c #054249",
"}8 	c #04404D",
"|8 	c #075653",
"18 	c #0B8069",
"28 	c #0E7269",
"38 	c #178A7B",
"48 	c #1CA188",
"58 	c #21B391",
"68 	c #27BD97",
"78 	c #27BF97",
"88 	c #0B6869",
"98 	c #052944",
"08 	c #031C2C",
"a8 	c #073840",
"b8 	c #05494A",
"c8 	c #034F4F",
"d8 	c #045251",
"e8 	c #055857",
"f8 	c #055E5B",
"g8 	c #06685F",
"h8 	c #067563",
"i8 	c #067F67",
"j8 	c #067F66",
"k8 	c #067D65",
"l8 	c #077A65",
"m8 	c #065E58",
"n8 	c #051F31",
"o8 	c #040D20",
"p8 	c #052D3C",
"q8 	c #043544",
"r8 	c #043744",
"s8 	c #053C43",
"t8 	c #054043",
"u8 	c #053F41",
"v8 	c #043942",
"w8 	c #053B44",
"x8 	c #033D44",
"y8 	c #05484B",
"z8 	c #074E4D",
"A8 	c #064E4C",
"B8 	c #05514D",
"C8 	c #045B56",
"D8 	c #05454A",
"E8 	c #033643",
"F8 	c #033944",
"G8 	c #034448",
"H8 	c #034147",
"I8 	c #034146",
"J8 	c #024045",
"K8 	c #024044",
"L8 	c #032131",
"M8 	c #074E56",
"N8 	c #0B987E",
"O8 	c #108673",
"P8 	c #107669",
"Q8 	c #0B585A",
"R8 	c #07706B",
"S8 	c #0A746E",
"T8 	c #074B52",
"U8 	c #033345",
"V8 	c #033546",
"W8 	c #033144",
"X8 	c #032C41",
"Y8 	c #071B2D",
"Z8 	c #166057",
"`8 	c #189D83",
" 9 	c #22C697",
".9 	c #21C394",
"+9 	c #16B88B",
"@9 	c #16635D",
"#9 	c #114F54",
"$9 	c #10434F",
"%9 	c #0F4851",
"&9 	c #115C57",
"*9 	c #0E6B5A",
"=9 	c #33C695",
"-9 	c #25D79C",
";9 	c #1DD799",
">9 	c #17D598",
",9 	c #14D498",
"'9 	c #12D298",
")9 	c #10CC94",
"!9 	c #0CC891",
"~9 	c #0BC58F",
"{9 	c #09C38D",
"]9 	c #08C08A",
"^9 	c #08BF88",
"/9 	c #07BD88",
"(9 	c #08BA87",
"_9 	c #08B687",
":9 	c #08B386",
"<9 	c #08AF86",
"[9 	c #08AC84",
"}9 	c #08A982",
"|9 	c #07A77F",
"19 	c #07A87F",
"29 	c #07A880",
"39 	c #07A981",
"49 	c #08A57F",
"59 	c #0AA180",
"69 	c #0A9C7F",
"79 	c #067A6B",
"89 	c #046E65",
"99 	c #056C63",
"09 	c #067768",
"a9 	c #084E50",
"b9 	c #042538",
"c9 	c #021932",
"d9 	c #02072B",
"e9 	c #03182E",
"f9 	c #032335",
"g9 	c #032236",
"h9 	c #032136",
"i9 	c #031F3B",
"j9 	c #02213B",
"k9 	c #02223E",
"l9 	c #031B33",
"m9 	c #02253F",
"n9 	c #02253D",
"o9 	c #02253C",
"p9 	c #02243C",
"q9 	c #02263B",
"r9 	c #02243B",
"s9 	c #042239",
"t9 	c #04283B",
"u9 	c #042A3C",
"v9 	c #031630",
"w9 	c #032E3E",
"x9 	c #05625C",
"y9 	c #055D5A",
"z9 	c #045C5A",
"A9 	c #045F5B",
"B9 	c #077D6B",
"C9 	c #06856D",
"D9 	c #06886E",
"E9 	c #06896E",
"F9 	c #068A6F",
"G9 	c #05896E",
"H9 	c #05896D",
"I9 	c #06896F",
"J9 	c #068C70",
"K9 	c #068E71",
"L9 	c #069172",
"M9 	c #069372",
"N9 	c #079773",
"O9 	c #069A74",
"P9 	c #069C75",
"Q9 	c #069E76",
"R9 	c #07A078",
"S9 	c #08A279",
"T9 	c #09A47B",
"U9 	c #0DA77E",
"V9 	c #10AA80",
"W9 	c #11AB81",
"X9 	c #13AC82",
"Y9 	c #18AF83",
"Z9 	c #1DB286",
"`9 	c #29A985",
" 0 	c #186F60",
".0 	c #125956",
"+0 	c #0E464F",
"@0 	c #0D414B",
"#0 	c #104B52",
"$0 	c #165858",
"%0 	c #159478",
"&0 	c #18A782",
"*0 	c #1CAE88",
"=0 	c #178875",
"-0 	c #12675E",
";0 	c #061627",
">0 	c #033446",
",0 	c #0D756C",
"'0 	c #09746D",
")0 	c #0B756F",
"!0 	c #0F6C67",
"~0 	c #188A77",
"{0 	c #1AA786",
"]0 	c #0A947C",
"^0 	c #065A5B",
"/0 	c #06384C",
"(0 	c #041A31",
"_0 	c #05152D",
":0 	c #041F2E",
"<0 	c #043B43",
"[0 	c #034046",
"}0 	c #033F45",
"|0 	c #044448",
"10 	c #033943",
"20 	c #043841",
"30 	c #055A56",
"40 	c #054747",
"50 	c #053F42",
"60 	c #053C41",
"70 	c #073C42",
"80 	c #053A43",
"90 	c #032D39",
"00 	c #042C39",
"a0 	c #042A38",
"b0 	c #042534",
"c0 	c #068470",
"d0 	c #07846F",
"e0 	c #05856F",
"f0 	c #05876F",
"g0 	c #05886F",
"h0 	c #058970",
"i0 	c #078A71",
"j0 	c #0A997A",
"k0 	c #0A9A79",
"l0 	c #0B977A",
"m0 	c #057669",
"n0 	c #06635D",
"o0 	c #065555",
"p0 	c #055052",
"q0 	c #03424B",
"r0 	c #034248",
"s0 	c #024146",
"t0 	c #024046",
"u0 	c #041E2F",
"v0 	c #04243E",
"w0 	c #09555A",
"x0 	c #0B6C64",
"y0 	c #15B78C",
"z0 	c #0E8174",
"A0 	c #05595C",
"B0 	c #073B4C",
"C0 	c #056262",
"D0 	c #056664",
"E0 	c #054551",
"F0 	c #033247",
"G0 	c #042E42",
"H0 	c #122031",
"I0 	c #19765F",
"J0 	c #0FBB8B",
"K0 	c #15C992",
"L0 	c #19CA95",
"M0 	c #18C992",
"N0 	c #14655E",
"O0 	c #054349",
"P0 	c #0F725F",
"Q0 	c #199871",
"R0 	c #4EE4A0",
"S0 	c #32F6A9",
"T0 	c #1EF5A9",
"U0 	c #13F5A7",
"V0 	c #0FF4A8",
"W0 	c #0DEEA7",
"X0 	c #12CB96",
"Y0 	c #0FC692",
"Z0 	c #0CC18F",
"`0 	c #08B789",
" a 	c #07B486",
".a 	c #07B183",
"+a 	c #07B98A",
"@a 	c #07B186",
"#a 	c #08A480",
"$a 	c #079677",
"%a 	c #078D74",
"&a 	c #07836F",
"*a 	c #09806E",
"=a 	c #068972",
"-a 	c #097169",
";a 	c #0B8072",
">a 	c #088070",
",a 	c #08796E",
"'a 	c #045655",
")a 	c #085252",
"!a 	c #0C9D80",
"~a 	c #0E8274",
"{a 	c #076163",
"]a 	c #056764",
"^a 	c #046662",
"/a 	c #056561",
"(a 	c #056560",
"_a 	c #084A4C",
":a 	c #04152F",
"<a 	c #021A33",
"[a 	c #031A34",
"}a 	c #021A2E",
"|a 	c #02192F",
"1a 	c #02152E",
"2a 	c #020F2B",
"3a 	c #02162F",
"4a 	c #02172D",
"5a 	c #031E37",
"6a 	c #03223B",
"7a 	c #04172F",
"8a 	c #062233",
"9a 	c #055552",
"0a 	c #045252",
"aa 	c #045254",
"ba 	c #064F54",
"ca 	c #095A5B",
"da 	c #0A8772",
"ea 	c #073F44",
"fa 	c #085355",
"ga 	c #07746B",
"ha 	c #077069",
"ia 	c #09726B",
"ja 	c #0C8776",
"ka 	c #0B8D79",
"la 	c #0AA281",
"ma 	c #07A17F",
"na 	c #089879",
"oa 	c #08997A",
"pa 	c #099C7C",
"qa 	c #099E7E",
"ra 	c #09A481",
"sa 	c #07B188",
"ta 	c #07B88B",
"ua 	c #08B889",
"va 	c #07B585",
"wa 	c #07B686",
"xa 	c #08B888",
"ya 	c #09BC8B",
"za 	c #0AC08E",
"Aa 	c #0DC490",
"Ba 	c #0FCA94",
"Ca 	c #10E6A4",
"Da 	c #0EF3A8",
"Ea 	c #12F4A8",
"Fa 	c #19F3A8",
"Ga 	c #25F2A8",
"Ha 	c #3DE6A4",
"Ia 	c #269571",
"Ja 	c #0B705C",
"Ka 	c #0A444C",
"La 	c #093F4A",
"Ma 	c #09474D",
"Na 	c #105556",
"Oa 	c #1AB78A",
"Pa 	c #1ECE98",
"Qa 	c #1DD29C",
"Ra 	c #16BA8E",
"Sa 	c #199074",
"Ta 	c #14222F",
"Ua 	c #06283D",
"Va 	c #033447",
"Wa 	c #033347",
"Xa 	c #096A6B",
"Ya 	c #066A67",
"Za 	c #066E6A",
"`a 	c #096764",
" b 	c #15B990",
".b 	c #0D7468",
"+b 	c #094655",
"@b 	c #052740",
"#b 	c #041832",
"$b 	c #041B2D",
"%b 	c #033C42",
"&b 	c #024147",
"*b 	c #04404A",
"=b 	c #053F49",
"-b 	c #06444C",
";b 	c #077864",
">b 	c #067965",
",b 	c #057965",
"'b 	c #047A66",
")b 	c #047966",
"!b 	c #057665",
"~b 	c #057565",
"{b 	c #057465",
"]b 	c #05655C",
"^b 	c #0B8A73",
"/b 	c #0A8B73",
"(b 	c #098F75",
"_b 	c #089177",
":b 	c #099579",
"<b 	c #0A9879",
"[b 	c #0B9C7A",
"}b 	c #11B88A",
"|b 	c #14B38B",
"1b 	c #0D9F7F",
"2b 	c #0BA17E",
"3b 	c #078F73",
"4b 	c #07655D",
"5b 	c #042A35",
"6b 	c #042B36",
"7b 	c #04152B",
"8b 	c #08594D",
"9b 	c #075D53",
"0b 	c #075A54",
"ab 	c #065251",
"bb 	c #06454B",
"cb 	c #052B3D",
"db 	c #052136",
"eb 	c #06313E",
"fb 	c #0E3944",
"gb 	c #103644",
"hb 	c #0E2D40",
"ib 	c #0F2D41",
"jb 	c #08313E",
"kb 	c #112B38",
"lb 	c #1A5A52",
"mb 	c #118166",
"nb 	c #0E7F63",
"ob 	c #0F8569",
"pb 	c #159373",
"qb 	c #0D5657",
"rb 	c #043D47",
"sb 	c #06544F",
"tb 	c #1CAA79",
"ub 	c #2AE599",
"vb 	c #5CF3A6",
"wb 	c #43EFA4",
"xb 	c #1CE7A4",
"yb 	c #12DC99",
"zb 	c #0FDC99",
"Ab 	c #0CDC9B",
"Bb 	c #0CDB9D",
"Cb 	c #0ED89A",
"Db 	c #0DD597",
"Eb 	c #0BD497",
"Fb 	c #0BCD94",
"Gb 	c #09C28B",
"Hb 	c #0ABD89",
"Ib 	c #09B987",
"Jb 	c #08B485",
"Kb 	c #0AAB81",
"Lb 	c #079D7B",
"Mb 	c #0BA480",
"Nb 	c #0BBC8C",
"Ob 	c #0ABA87",
"Pb 	c #0ABB87",
"Qb 	c #09BC8C",
"Rb 	c #0AA984",
"Sb 	c #0DA585",
"Tb 	c #0EA786",
"Ub 	c #0AA481",
"Vb 	c #099175",
"Wb 	c #088572",
"Xb 	c #096C69",
"Yb 	c #067067",
"Zb 	c #077164",
"`b 	c #030A24",
" c 	c #043B3E",
".c 	c #087F71",
"+c 	c #0ABA8E",
"@c 	c #0DB28E",
"#c 	c #09A787",
"$c 	c #09A786",
"%c 	c #079F80",
"&c 	c #069278",
"*c 	c #06987C",
"=c 	c #07987C",
"-c 	c #06997C",
";c 	c #058471",
">c 	c #05776A",
",c 	c #044C54",
"'c 	c #043F4D",
")c 	c #020825",
"!c 	c #042035",
"~c 	c #032B42",
"{c 	c #065E5B",
"]c 	c #07595B",
"^c 	c #074F59",
"/c 	c #09394C",
"(c 	c #09374B",
"_c 	c #0A3349",
":c 	c #0A344A",
"<c 	c #05404C",
"[c 	c #05434C",
"}c 	c #042A42",
"|c 	c #030C25",
"1c 	c #042338",
"2c 	c #032A3E",
"3c 	c #064E53",
"4c 	c #05766A",
"5c 	c #067E6E",
"6c 	c #06806F",
"7c 	c #058270",
"8c 	c #068975",
"9c 	c #078776",
"0c 	c #0C927D",
"ac 	c #0AC092",
"bc 	c #098070",
"cc 	c #02182F",
"dc 	c #05615C",
"ec 	c #056C66",
"fc 	c #076D6A",
"gc 	c #098B77",
"hc 	c #09A882",
"ic 	c #0D9E81",
"jc 	c #0E947C",
"kc 	c #098674",
"lc 	c #09A080",
"mc 	c #08A17E",
"nc 	c #0A9678",
"oc 	c #089C7B",
"pc 	c #09A07E",
"qc 	c #08AB83",
"rc 	c #08AB82",
"sc 	c #0AB487",
"tc 	c #09C28D",
"uc 	c #08C38C",
"vc 	c #08C58D",
"wc 	c #09C88E",
"xc 	c #09CD92",
"yc 	c #0AD195",
"zc 	c #0BD99A",
"Ac 	c #0DDC9C",
"Bc 	c #0FE09E",
"Cc 	c #10E2A2",
"Dc 	c #0DE8A3",
"Ec 	c #10EAA3",
"Fc 	c #12EAA0",
"Gc 	c #1FEFA8",
"Hc 	c #3BF3A8",
"Ic 	c #61F5A8",
"Jc 	c #3FDC98",
"Kc 	c #1EB982",
"Lc 	c #084E4D",
"Mc 	c #04444A",
"Nc 	c #0D5155",
"Oc 	c #19A27E",
"Pc 	c #10A97E",
"Qc 	c #0EA278",
"Rc 	c #10A077",
"Sc 	c #1C856B",
"Tc 	c #162733",
"Uc 	c #083643",
"Vc 	c #0B3346",
"Wc 	c #0A3043",
"Xc 	c #0D3948",
"Yc 	c #10424D",
"Zc 	c #073D48",
"`c 	c #042B3F",
" d 	c #053441",
".d 	c #064951",
"+d 	c #054B52",
"@d 	c #054D51",
"#d 	c #073547",
"$d 	c #076260",
"%d 	c #0D7469",
"&d 	c #0A7363",
"*d 	c #0B7060",
"=d 	c #04323E",
"-d 	c #04323A",
";d 	c #04383F",
">d 	c #034149",
",d 	c #034148",
"'d 	c #065153",
")d 	c #067665",
"!d 	c #07836E",
"~d 	c #088971",
"{d 	c #0B8A74",
"]d 	c #11AC88",
"^d 	c #11C191",
"/d 	c #12C091",
"(d 	c #0CA07D",
"_d 	c #089276",
":d 	c #089075",
"<d 	c #068C73",
"[d 	c #088770",
"}d 	c #067765",
"|d 	c #0B9176",
"1d 	c #0A9378",
"2d 	c #09967A",
"3d 	c #0B9B7C",
"4d 	c #0CA180",
"5d 	c #0DA180",
"6d 	c #0EA17F",
"7d 	c #0FA181",
"8d 	c #0FA383",
"9d 	c #12A283",
"0d 	c #11BE91",
"ad 	c #10C090",
"bd 	c #0DC28E",
"cd 	c #0BC98E",
"dd 	c #0B7F68",
"ed 	c #055055",
"fd 	c #033E44",
"gd 	c #042F3B",
"hd 	c #04102C",
"id 	c #042F40",
"jd 	c #02283B",
"kd 	c #031C35",
"ld 	c #022438",
"md 	c #022B3E",
"nd 	c #073141",
"od 	c #0E3746",
"pd 	c #103848",
"qd 	c #093343",
"rd 	c #073241",
"sd 	c #0D3746",
"td 	c #0E3847",
"ud 	c #113A49",
"vd 	c #0E3845",
"wd 	c #073543",
"xd 	c #0A3646",
"yd 	c #0C3948",
"zd 	c #0A3A47",
"Ad 	c #0A3B46",
"Bd 	c #063B45",
"Cd 	c #042639",
"Dd 	c #04283A",
"Ed 	c #043845",
"Fd 	c #075F55",
"Gd 	c #1CB47E",
"Hd 	c #26E598",
"Id 	c #2DA179",
"Jd 	c #20BC8A",
"Kd 	c #0BD79B",
"Ld 	c #0AC58E",
"Md 	c #0BC28F",
"Nd 	c #0BC28E",
"Od 	c #0DC08E",
"Pd 	c #0DBF8E",
"Qd 	c #10BB8C",
"Rd 	c #0FB789",
"Sd 	c #0EB489",
"Td 	c #0DAF87",
"Ud 	c #0CA481",
"Vd 	c #0B9F7F",
"Wd 	c #0A9C7D",
"Xd 	c #08977A",
"Yd 	c #089478",
"Zd 	c #0A8F76",
"`d 	c #0B9A7A",
" e 	c #099678",
".e 	c #0DB88D",
"+e 	c #0ED199",
"@e 	c #0ED09A",
"#e 	c #0DC292",
"$e 	c #0B8674",
"%e 	c #055D5C",
"&e 	c #065857",
"*e 	c #03434D",
"=e 	c #032D3A",
"-e 	c #04383E",
";e 	c #08776D",
">e 	c #09BB8F",
",e 	c #0EB690",
"'e 	c #0BAE8A",
")e 	c #0AAF8B",
"!e 	c #0A977D",
"~e 	c #057868",
"{e 	c #058370",
"]e 	c #057E6B",
"^e 	c #067667",
"/e 	c #066E61",
"(e 	c #056E65",
"_e 	c #04756B",
":e 	c #05756D",
"<e 	c #056062",
"[e 	c #043E4F",
"}e 	c #021B37",
"|e 	c #031A36",
"1e 	c #05303B",
"2e 	c #09464A",
"3e 	c #0E6968",
"4e 	c #0B6266",
"5e 	c #0B3C4E",
"6e 	c #0B394C",
"7e 	c #0C374C",
"8e 	c #095C62",
"9e 	c #0D6D6B",
"0e 	c #0C625D",
"ae 	c #075450",
"be 	c #02203D",
"ce 	c #030929",
"de 	c #010E2E",
"ee 	c #021634",
"fe 	c #043C4C",
"ge 	c #054F59",
"he 	c #056B67",
"ie 	c #04776C",
"je 	c #04776A",
"ke 	c #067E6C",
"le 	c #079075",
"me 	c #069277",
"ne 	c #069C7E",
"oe 	c #068B73",
"pe 	c #08957A",
"qe 	c #0BB991",
"re 	c #0AB68F",
"se 	c #0DB690",
"te 	c #09C695",
"ue 	c #098372",
"ve 	c #030A22",
"we 	c #031E31",
"xe 	c #075E5A",
"ye 	c #066463",
"ze 	c #076164",
"Ae 	c #0B746C",
"Be 	c #0BB88C",
"Ce 	c #0EC797",
"De 	c #0ECF9A",
"Ee 	c #0DD59C",
"Fe 	c #0CCD97",
"Ge 	c #0BC38F",
"He 	c #0AB886",
"Ie 	c #0BB888",
"Je 	c #0CA682",
"Ke 	c #088A71",
"Le 	c #078D73",
"Me 	c #0A9E7C",
"Ne 	c #0BA681",
"Oe 	c #0EAD84",
"Pe 	c #0DB084",
"Qe 	c #0FB487",
"Re 	c #0EC190",
"Se 	c #0CC08E",
"Te 	c #0DC390",
"Ue 	c #0AC38F",
"Ve 	c #0BC48F",
"We 	c #0BC38D",
"Xe 	c #0DD598",
"Ye 	c #26D395",
"Ze 	c #41C088",
"`e 	c #30E197",
" f 	c #22D38F",
".f 	c #0A6859",
"+f 	c #053542",
"@f 	c #093F46",
"#f 	c #0D4049",
"$f 	c #0E3D48",
"%f 	c #0E3B48",
"&f 	c #0D3745",
"*f 	c #083040",
"=f 	c #082838",
"-f 	c #0F2E40",
";f 	c #112F42",
">f 	c #102E42",
",f 	c #0B2B3E",
"'f 	c #07283B",
")f 	c #0D2B3F",
"!f 	c #0B293D",
"~f 	c #052439",
"{f 	c #021D34",
"]f 	c #031D32",
"^f 	c #031B30",
"/f 	c #041F36",
"(f 	c #02112B",
"_f 	c #04162C",
":f 	c #04323C",
"<f 	c #04313C",
"[f 	c #04353E",
"}f 	c #043F46",
"|f 	c #054F53",
"1f 	c #087064",
"2f 	c #09B586",
"3f 	c #0CBA8B",
"4f 	c #0EBE8E",
"5f 	c #11BB90",
"6f 	c #11A986",
"7f 	c #10A281",
"8f 	c #0EA180",
"9f 	c #0DA17E",
"0f 	c #0DA07E",
"af 	c #0B9B7D",
"bf 	c #0A9277",
"cf 	c #0A9176",
"df 	c #0B9278",
"ef 	c #0A947A",
"ff 	c #0A9A7D",
"gf 	c #0B9F7E",
"hf 	c #10AC87",
"if 	c #0FB68A",
"jf 	c #0FB589",
"kf 	c #0EB789",
"lf 	c #0FD396",
"mf 	c #0DC48D",
"nf 	c #0BB482",
"of 	c #0C9570",
"pf 	c #0C5550",
"qf 	c #052D40",
"rf 	c #052C3E",
"sf 	c #043542",
"tf 	c #045054",
"uf 	c #044850",
"vf 	c #03474E",
"wf 	c #045457",
"xf 	c #045458",
"yf 	c #045357",
"zf 	c #055659",
"Af 	c #045B5B",
"Bf 	c #085F5D",
"Cf 	c #116564",
"Df 	c #0D6160",
"Ef 	c #085759",
"Ff 	c #0A5658",
"Gf 	c #0B5659",
"Hf 	c #0A5557",
"If 	c #0C5659",
"Jf 	c #0D6362",
"Kf 	c #115D62",
"Lf 	c #115E61",
"Mf 	c #0D6463",
"Nf 	c #054E54",
"Of 	c #045B5A",
"Pf 	c #0B6154",
"Qf 	c #13A479",
"Rf 	c #0FB085",
"Sf 	c #0FC490",
"Tf 	c #0ED197",
"Uf 	c #0AC691",
"Vf 	c #0BC691",
"Wf 	c #0EC390",
"Xf 	c #0FBE8E",
"Yf 	c #0FBE8F",
"Zf 	c #10BD8D",
"`f 	c #0FBC8C",
" g 	c #10BB8B",
".g 	c #0EBA8B",
"+g 	c #0DB88B",
"@g 	c #0EB58A",
"#g 	c #0BA581",
"$g 	c #0A9F7E",
"%g 	c #099E7D",
"&g 	c #09997C",
"*g 	c #099379",
"=g 	c #088E78",
"-g 	c #088574",
";g 	c #087E6F",
">g 	c #077A6C",
",g 	c #05776B",
"'g 	c #067569",
")g 	c #088772",
"!g 	c #08806E",
"~g 	c #06826D",
"{g 	c #06826C",
"]g 	c #055F5D",
"^g 	c #033A42",
"/g 	c #03323E",
"(g 	c #086F66",
"_g 	c #08B48A",
":g 	c #12CB9A",
"<g 	c #17D3A0",
"[g 	c #0FCF9F",
"}g 	c #0CB58F",
"|g 	c #07997E",
"1g 	c #078976",
"2g 	c #078572",
"3g 	c #0B7E6E",
"4g 	c #0A746B",
"5g 	c #056967",
"6g 	c #05726C",
"7g 	c #041B35",
"8g 	c #042637",
"9g 	c #06303D",
"0g 	c #0B3747",
"ag 	c #052D3B",
"bg 	c #042A37",
"cg 	c #05253B",
"dg 	c #0E6A69",
"eg 	c #0C6366",
"fg 	c #0B3C4F",
"gg 	c #0C384C",
"hg 	c #0E364A",
"ig 	c #0D364B",
"jg 	c #0D384C",
"kg 	c #0A5860",
"lg 	c #0E6C6B",
"mg 	c #09404D",
"ng 	c #04172D",
"og 	c #03172D",
"pg 	c #062137",
"qg 	c #043447",
"rg 	c #056D69",
"sg 	c #086D67",
"tg 	c #0C7C6C",
"ug 	c #067468",
"vg 	c #068271",
"wg 	c #068A74",
"xg 	c #08957C",
"yg 	c #0EC096",
"zg 	c #15CD9D",
"Ag 	c #15CE9C",
"Bg 	c #09C292",
"Cg 	c #0A7B6D",
"Dg 	c #030B24",
"Eg 	c #032835",
"Fg 	c #045C5B",
"Gg 	c #067567",
"Hg 	c #077C69",
"Ig 	c #087E6D",
"Jg 	c #09816F",
"Kg 	c #0B7D6F",
"Lg 	c #0C8873",
"Mg 	c #099076",
"Ng 	c #089377",
"Og 	c #0A8B74",
"Pg 	c #0A8573",
"Qg 	c #088774",
"Rg 	c #098E76",
"Sg 	c #099378",
"Tg 	c #0A9E7E",
"Ug 	c #0AA07F",
"Vg 	c #0AA581",
"Wg 	c #0DB086",
"Xg 	c #0EB589",
"Yg 	c #0EB98B",
"Zg 	c #10BC8C",
"`g 	c #0FBD8D",
" h 	c #0EBF8F",
".h 	c #0EC18E",
"+h 	c #0CC38E",
"@h 	c #0DCA95",
"#h 	c #0EC892",
"$h 	c #12B286",
"%h 	c #1CC48D",
"&h 	c #15A378",
"*h 	c #094445",
"=h 	c #032E3D",
"-h 	c #032E3C",
";h 	c #054950",
">h 	c #0B5257",
",h 	c #11545A",
"'h 	c #105159",
")h 	c #11565B",
"!h 	c #0F5156",
"~h 	c #074C4F",
"{h 	c #064B4E",
"]h 	c #064C4F",
"^h 	c #094E51",
"/h 	c #0D5355",
"(h 	c #0F5659",
"_h 	c #095255",
":h 	c #044D50",
"<h 	c #034D51",
"[h 	c #034A50",
"}h 	c #05404B",
"|h 	c #043343",
"1h 	c #044B51",
"2h 	c #033C46",
"3h 	c #042B3B",
"4h 	c #05313F",
"5h 	c #0B5952",
"6h 	c #0FB080",
"7h 	c #0BBD88",
"8h 	c #0DCC91",
"9h 	c #12CF95",
"0h 	c #11B488",
"ah 	c #10A783",
"bh 	c #10A683",
"ch 	c #0FA583",
"dh 	c #0FA282",
"eh 	c #0DA07F",
"fh 	c #099B7D",
"gh 	c #0A957A",
"hh 	c #078872",
"ih 	c #088D75",
"jh 	c #0C8C76",
"kh 	c #0C997D",
"lh 	c #0A9F7F",
"mh 	c #0EB389",
"nh 	c #0CBF8C",
"oh 	c #0BBD8B",
"ph 	c #0AB484",
"qh 	c #0BB183",
"rh 	c #09B484",
"sh 	c #0B886C",
"th 	c #06444E",
"uh 	c #045455",
"vh 	c #046060",
"wh 	c #06635F",
"xh 	c #0C414D",
"yh 	c #046860",
"zh 	c #055B5C",
"Ah 	c #046561",
"Bh 	c #046661",
"Ch 	c #056B66",
"Dh 	c #056E68",
"Eh 	c #046E68",
"Fh 	c #047068",
"Gh 	c #07776B",
"Hh 	c #118073",
"Ih 	c #127F72",
"Jh 	c #117A6F",
"Kh 	c #0D766B",
"Lh 	c #0E736A",
"Mh 	c #12766D",
"Nh 	c #10766E",
"Oh 	c #06756B",
"Ph 	c #066F67",
"Qh 	c #076762",
"Rh 	c #066963",
"Sh 	c #055C5B",
"Th 	c #046660",
"Uh 	c #05645D",
"Vh 	c #05605B",
"Wh 	c #045857",
"Xh 	c #07313D",
"Yh 	c #075A4F",
"Zh 	c #0A8367",
"`h 	c #0FA77D",
" i 	c #0CB88A",
".i 	c #0EC995",
"+i 	c #10BD8F",
"@i 	c #11BC8F",
"#i 	c #11BC8E",
"$i 	c #10BC8D",
"%i 	c #10BD8C",
"&i 	c #0FBA8B",
"*i 	c #0FB98B",
"=i 	c #0EB88B",
"-i 	c #0EB88C",
";i 	c #0FAE87",
">i 	c #0C9F7D",
",i 	c #0B9F7C",
"'i 	c #0A9B7D",
")i 	c #08967C",
"!i 	c #08927A",
"~i 	c #068E75",
"{i 	c #067E6F",
"]i 	c #067C70",
"^i 	c #05726A",
"/i 	c #076C64",
"(i 	c #076F66",
"_i 	c #0C605F",
":i 	c #066F66",
"<i 	c #03132A",
"[i 	c #032E3B",
"}i 	c #07665F",
"|i 	c #07AD85",
"1i 	c #0AB88F",
"2i 	c #10B990",
"3i 	c #0EE0A6",
"4i 	c #0CCA99",
"5i 	c #07A885",
"6i 	c #059377",
"7i 	c #079077",
"8i 	c #098A76",
"9i 	c #07776C",
"0i 	c #0A796D",
"ai 	c #0B6462",
"bi 	c #126866",
"ci 	c #106A65",
"di 	c #0C6862",
"ei 	c #085356",
"fi 	c #0F4E58",
"gi 	c #14505B",
"hi 	c #0B4854",
"ii 	c #074552",
"ji 	c #074752",
"ki 	c #106D6B",
"li 	c #0E6466",
"mi 	c #094B5A",
"ni 	c #0D3C51",
"oi 	c #0D3C4F",
"pi 	c #0B3D4D",
"qi 	c #0E364B",
"ri 	c #0D374D",
"si 	c #084758",
"ti 	c #0B5860",
"ui 	c #106F6D",
"vi 	c #0A4957",
"wi 	c #053249",
"xi 	c #08434F",
"yi 	c #084450",
"zi 	c #114D58",
"Ai 	c #0F4E57",
"Bi 	c #06484F",
"Ci 	c #095053",
"Di 	c #0F585A",
"Ei 	c #0A6A66",
"Fi 	c #086F69",
"Gi 	c #06726A",
"Hi 	c #096D68",
"Ii 	c #0C907A",
"Ji 	c #069177",
"Ki 	c #07A686",
"Li 	c #0AB78F",
"Mi 	c #0EE2A7",
"Ni 	c #10BD95",
"Oi 	c #0CBA8F",
"Pi 	c #087265",
"Qi 	c #044148",
"Ri 	c #041B31",
"Si 	c #04353D",
"Ti 	c #076761",
"Ui 	c #077165",
"Vi 	c #067367",
"Wi 	c #067267",
"Xi 	c #076765",
"Yi 	c #067A70",
"Zi 	c #057C6F",
"`i 	c #057E6E",
" j 	c #058973",
".j 	c #078E77",
"+j 	c #07937A",
"@j 	c #0A987C",
"#j 	c #089C7C",
"$j 	c #099F7D",
"%j 	c #0FA783",
"&j 	c #0FB68B",
"*j 	c #0EB78A",
"=j 	c #0EB98A",
"-j 	c #0EBA8A",
";j 	c #10BC8E",
">j 	c #0FC793",
",j 	c #0CC993",
"'j 	c #0BBD8E",
")j 	c #10C78E",
"!j 	c #0EB182",
"~j 	c #0B6F5E",
"{j 	c #094D4A",
"]j 	c #053B42",
"^j 	c #05635C",
"/j 	c #056D61",
"(j 	c #046B62",
"_j 	c #045E5B",
":j 	c #096662",
"<j 	c #0B6563",
"[j 	c #0E6D68",
"}j 	c #126966",
"|j 	c #116A67",
"1j 	c #106B68",
"2j 	c #116C68",
"3j 	c #11746D",
"4j 	c #10756E",
"5j 	c #12776F",
"6j 	c #0B736A",
"7j 	c #046B66",
"8j 	c #056966",
"9j 	c #076564",
"0j 	c #055E5D",
"aj 	c #045D5C",
"bj 	c #083E49",
"cj 	c #054C52",
"dj 	c #093441",
"ej 	c #095652",
"fj 	c #0A8069",
"gj 	c #0CC88E",
"hj 	c #0BC38C",
"ij 	c #0BC58D",
"jj 	c #0CC78F",
"kj 	c #0EC891",
"lj 	c #0FC291",
"mj 	c #0EA07F",
"nj 	c #0C9F7E",
"oj 	c #0B9C7F",
"pj 	c #0C927A",
"qj 	c #099078",
"rj 	c #07816B",
"sj 	c #0C826F",
"tj 	c #0D796D",
"uj 	c #0E9278",
"vj 	c #0C9B7D",
"wj 	c #0CAB87",
"xj 	c #0AAE88",
"yj 	c #099D7B",
"zj 	c #0E8771",
"Aj 	c #094E4F",
"Bj 	c #075754",
"Cj 	c #065D56",
"Dj 	c #075352",
"Ej 	c #08625D",
"Fj 	c #067068",
"Gj 	c #066F68",
"Hj 	c #077769",
"Ij 	c #056961",
"Jj 	c #0C4952",
"Kj 	c #056D64",
"Lj 	c #047668",
"Mj 	c #056160",
"Nj 	c #056F65",
"Oj 	c #057065",
"Pj 	c #067A6A",
"Qj 	c #07826E",
"Rj 	c #06856F",
"Sj 	c #07856F",
"Tj 	c #08816D",
"Uj 	c #0B7768",
"Vj 	c #07816E",
"Wj 	c #0D816F",
"Xj 	c #0E796B",
"Yj 	c #147068",
"Zj 	c #0E7268",
"`j 	c #08826E",
" k 	c #066F62",
".k 	c #065858",
"+k 	c #065B59",
"@k 	c #055757",
"#k 	c #055959",
"$k 	c #045555",
"%k 	c #04444C",
"&k 	c #07464F",
"*k 	c #0B524E",
"=k 	c #10836A",
"-k 	c #0DD19A",
";k 	c #10C893",
">k 	c #10CC93",
",k 	c #10CD94",
"'k 	c #0EC990",
")k 	c #0FC88F",
"!k 	c #10C68F",
"~k 	c #10BE8B",
"{k 	c #10BA8B",
"]k 	c #0FBA8C",
"^k 	c #0EB98C",
"/k 	c #0EB68A",
"(k 	c #0DA580",
"_k 	c #0CA07F",
":k 	c #099F7E",
"<k 	c #0A9B7E",
"[k 	c #0B987D",
"}k 	c #079479",
"|k 	c #089279",
"1k 	c #078974",
"2k 	c #078172",
"3k 	c #077A6E",
"4k 	c #08756A",
"5k 	c #0C7168",
"6k 	c #0C6F67",
"7k 	c #086D66",
"8k 	c #096A65",
"9k 	c #0B6D61",
"0k 	c #032233",
"ak 	c #042A39",
"bk 	c #0B5F58",
"ck 	c #0BAA85",
"dk 	c #0DB791",
"ek 	c #0EB893",
"fk 	c #0EDDA5",
"gk 	c #10C899",
"hk 	c #07A685",
"ik 	c #097E6E",
"jk 	c #08756D",
"kk 	c #06746D",
"lk 	c #086B68",
"mk 	c #096C66",
"nk 	c #095D5F",
"ok 	c #116A68",
"pk 	c #146D6B",
"qk 	c #135C61",
"rk 	c #134B58",
"sk 	c #15505C",
"tk 	c #144D5A",
"uk 	c #114D5A",
"vk 	c #134D5A",
"wk 	c #0F4054",
"xk 	c #0D4153",
"yk 	c #106F6B",
"zk 	c #106E6D",
"Ak 	c #0D6769",
"Bk 	c #0C4958",
"Ck 	c #0A5C5E",
"Dk 	c #0C6666",
"Ek 	c #0C4855",
"Fk 	c #0B545E",
"Gk 	c #0C6265",
"Hk 	c #116E6C",
"Ik 	c #0D4B59",
"Jk 	c #0A394F",
"Kk 	c #0E4957",
"Lk 	c #0E4958",
"Mk 	c #124C58",
"Nk 	c #0F5259",
"Ok 	c #157770",
"Pk 	c #157670",
"Qk 	c #116F6B",
"Rk 	c #0A7169",
"Sk 	c #09776A",
"Tk 	c #07776D",
"Uk 	c #08816F",
"Vk 	c #07A483",
"Wk 	c #0BB68F",
"Xk 	c #10E4A8",
"Yk 	c #0FBD95",
"Zk 	c #09B68C",
"`k 	c #0C6B60",
" l 	c #053D44",
".l 	c #05464B",
"+l 	c #085F57",
"@l 	c #0E8C75",
"#l 	c #097268",
"$l 	c #0B6863",
"%l 	c #0C6C66",
"&l 	c #097168",
"*l 	c #06786C",
"=l 	c #087E70",
"-l 	c #088C75",
";l 	c #069178",
">l 	c #0A997E",
",l 	c #0A9C7E",
"'l 	c #0B9E7E",
")l 	c #0EAD85",
"!l 	c #0FB288",
"~l 	c #0FB98C",
"{l 	c #0FB98A",
"]l 	c #10BF8D",
"^l 	c #10C38D",
"/l 	c #0FC38E",
"(l 	c #10C490",
"_l 	c #11C591",
":l 	c #11BF8F",
"<l 	c #0EC895",
"[l 	c #10B186",
"}l 	c #0E896B",
"|l 	c #0A5E59",
"1l 	c #064A50",
"2l 	c #053943",
"3l 	c #05464E",
"4l 	c #055357",
"5l 	c #055255",
"6l 	c #066D62",
"7l 	c #066961",
"8l 	c #067C6C",
"9l 	c #0D7B6E",
"0l 	c #14766C",
"al 	c #0D7A6B",
"bl 	c #097D6B",
"cl 	c #0A806E",
"dl 	c #098570",
"el 	c #06836E",
"fl 	c #05806E",
"gl 	c #057D6D",
"hl 	c #077D6D",
"il 	c #05786A",
"jl 	c #047267",
"kl 	c #046E64",
"ll 	c #046D65",
"ml 	c #057064",
"nl 	c #0C5056",
"ol 	c #07635D",
"pl 	c #06605F",
"ql 	c #074449",
"rl 	c #074D4E",
"sl 	c #085352",
"tl 	c #097161",
"ul 	c #0C7F6B",
"vl 	c #099878",
"wl 	c #08AB85",
"xl 	c #09AD86",
"yl 	c #0CAC86",
"zl 	c #0C9A7D",
"Al 	c #0E8271",
"Bl 	c #09846F",
"Cl 	c #0B8C73",
"Dl 	c #0D8171",
"El 	c #0F8874",
"Fl 	c #0F8D75",
"Gl 	c #11987D",
"Hl 	c #10A484",
"Il 	c #0DA582",
"Jl 	c #0EA782",
"Kl 	c #0E9C7D",
"Ll 	c #0B6D5D",
"Ml 	c #0A5A55",
"Nl 	c #0A454B",
"Ol 	c #0A866A",
"Pl 	c #099E7C",
"Ql 	c #099C7B",
"Rl 	c #089C7A",
"Sl 	c #079E78",
"Tl 	c #089F79",
"Ul 	c #087362",
"Vl 	c #075053",
"Wl 	c #0D464E",
"Xl 	c #095B58",
"Yl 	c #076159",
"Zl 	c #0A5355",
"`l 	c #07675C",
" m 	c #07695C",
".m 	c #066A5D",
"+m 	c #086C5D",
"@m 	c #0F7062",
"#m 	c #137567",
"$m 	c #147768",
"%m 	c #137668",
"&m 	c #0D7164",
"*m 	c #096F60",
"=m 	c #087061",
"-m 	c #087060",
";m 	c #0C6F60",
">m 	c #117264",
",m 	c #0F6F62",
"'m 	c #0B635B",
")m 	c #066259",
"!m 	c #07675B",
"~m 	c #064E4E",
"{m 	c #04474C",
"]m 	c #04434C",
"^m 	c #095350",
"/m 	c #046B59",
"(m 	c #056C5A",
"_m 	c #046C59",
":m 	c #056E5B",
"<m 	c #04464D",
"[m 	c #085655",
"}m 	c #0B6F64",
"|m 	c #0A7463",
"1m 	c #11A27C",
"2m 	c #11ECA7",
"3m 	c #11EAA5",
"4m 	c #0DEAA5",
"5m 	c #0DE9A4",
"6m 	c #0DDD9E",
"7m 	c #0ED298",
"8m 	c #0FCA91",
"9m 	c #10C790",
"0m 	c #10C08D",
"am 	c #0EBA8D",
"bm 	c #0FBA8E",
"cm 	c #0FAC84",
"dm 	c #0EA682",
"em 	c #0FA685",
"fm 	c #09977C",
"gm 	c #089179",
"hm 	c #088B78",
"im 	c #097D6F",
"jm 	c #0A776C",
"km 	c #09746B",
"lm 	c #0A766A",
"mm 	c #0A5D5C",
"nm 	c #044A4C",
"om 	c #054848",
"pm 	c #0B4D48",
"qm 	c #0C9C7D",
"rm 	c #0EA884",
"sm 	c #11AB8A",
"tm 	c #0DBC95",
"um 	c #0CB993",
"vm 	c #09AB8A",
"wm 	c #097470",
"xm 	c #07756F",
"ym 	c #076E67",
"zm 	c #134B56",
"Am 	c #156064",
"Bm 	c #0B6466",
"Cm 	c #096062",
"Dm 	c #0F515A",
"Em 	c #144656",
"Fm 	c #144857",
"Gm 	c #124554",
"Hm 	c #0E4452",
"Im 	c #0F4452",
"Jm 	c #0B3B4F",
"Km 	c #0B4352",
"Lm 	c #117E74",
"Mm 	c #118079",
"Nm 	c #107976",
"Om 	c #0C505B",
"Pm 	c #0A4050",
"Qm 	c #0B5658",
"Rm 	c #104C57",
"Sm 	c #116C6D",
"Tm 	c #127B77",
"Um 	c #127D73",
"Vm 	c #0E555B",
"Wm 	c #0C3B50",
"Xm 	c #134956",
"Ym 	c #114956",
"Zm 	c #114856",
"`m 	c #144A57",
" n 	c #164A59",
".n 	c #0C6465",
"+n 	c #0C6364",
"@n 	c #136567",
"#n 	c #124C57",
"$n 	c #096763",
"%n 	c #07706A",
"&n 	c #076F6A",
"*n 	c #08746F",
"=n 	c #06736B",
"-n 	c #08AB88",
";n 	c #0AB991",
">n 	c #0EC99A",
",n 	c #0DB892",
"'n 	c #0BB78F",
")n 	c #0BB58C",
"!n 	c #0D6859",
"~n 	c #052034",
"{n 	c #055853",
"]n 	c #09615D",
"^n 	c #095959",
"/n 	c #0B746A",
"(n 	c #0A756B",
"_n 	c #087A6E",
":n 	c #098474",
"<n 	c #088973",
"[n 	c #08977C",
"}n 	c #09987D",
"|n 	c #0B9A7E",
"1n 	c #0CA27D",
"2n 	c #0DB98B",
"3n 	c #0DBA8C",
"4n 	c #0FC78F",
"5n 	c #10C98F",
"6n 	c #0CCA90",
"7n 	c #0CCF93",
"8n 	c #0FE29F",
"9n 	c #0DE6A1",
"0n 	c #0FE4A1",
"an 	c #0FE6A3",
"bn 	c #12BA8C",
"cn 	c #094147",
"dn 	c #074950",
"en 	c #044C52",
"fn 	c #057362",
"gn 	c #057363",
"hn 	c #057261",
"in 	c #0A675E",
"jn 	c #074E54",
"kn 	c #064F51",
"ln 	c #097767",
"mn 	c #077265",
"nn 	c #0F6D63",
"on 	c #117D6D",
"pn 	c #158371",
"qn 	c #0E816E",
"rn 	c #0A7C6A",
"sn 	c #0A7D6A",
"tn 	c #0B806D",
"un 	c #108370",
"vn 	c #138572",
"wn 	c #128470",
"xn 	c #0D7F6B",
"yn 	c #087867",
"zn 	c #067464",
"An 	c #0B5B5B",
"Bn 	c #066B62",
"Cn 	c #086960",
"Dn 	c #0A4C52",
"En 	c #085758",
"Fn 	c #087066",
"Gn 	c #0BA885",
"Hn 	c #07A480",
"In 	c #08A282",
"Jn 	c #09A283",
"Kn 	c #0AA284",
"Ln 	c #0B9777",
"Mn 	c #0B5153",
"Nn 	c #065F59",
"On 	c #0C414B",
"Pn 	c #0F7B6A",
"Qn 	c #0BAB83",
"Rn 	c #0CAE86",
"Sn 	c #0FA986",
"Tn 	c #119F83",
"Un 	c #0F8872",
"Vn 	c #0F8671",
"Wn 	c #0D7B6D",
"Xn 	c #0D7169",
"Yn 	c #0E9C80",
"Zn 	c #0F9C80",
"`n 	c #0FA687",
" o 	c #0DA985",
".o 	c #0DAB84",
"+o 	c #0CAD84",
"@o 	c #0DAD86",
"#o 	c #0CA984",
"$o 	c #0AAF85",
"%o 	c #089977",
"&o 	c #098769",
"*o 	c #07745E",
"=o 	c #06363D",
"-o 	c #04333B",
";o 	c #063F40",
">o 	c #074142",
",o 	c #064240",
"'o 	c #093C45",
")o 	c #135552",
"!o 	c #267D57",
"~o 	c #268456",
"{o 	c #248256",
"]o 	c #227E55",
"^o 	c #228055",
"/o 	c #228256",
"(o 	c #38975D",
"_o 	c #3B9B65",
":o 	c #2E8E63",
"<o 	c #288661",
"[o 	c #268862",
"}o 	c #24875F",
"|o 	c #1E835C",
"1o 	c #23875B",
"2o 	c #309E5D",
"3o 	c #207E54",
"4o 	c #197855",
"5o 	c #1C7A55",
"6o 	c #125E4E",
"7o 	c #115E4F",
"8o 	c #0C6453",
"9o 	c #0C6050",
"0o 	c #0A524C",
"ao 	c #074A46",
"bo 	c #074442",
"co 	c #033240",
"do 	c #03373E",
"eo 	c #043C3F",
"fo 	c #043D40",
"go 	c #03303A",
"ho 	c #062635",
"io 	c #147661",
"jo 	c #32A57A",
"ko 	c #3CD092",
"lo 	c #35DA96",
"mo 	c #35E29D",
"no 	c #30F0A8",
"oo 	c #2CF1A7",
"po 	c #1AE6A4",
"qo 	c #10E3A1",
"ro 	c #0FE7A3",
"so 	c #10E1A0",
"to 	c #0ED899",
"uo 	c #11CB93",
"vo 	c #11C792",
"wo 	c #10C08F",
"xo 	c #0FB98E",
"yo 	c #11B68F",
"zo 	c #14A785",
"Ao 	c #109C7F",
"Bo 	c #0D977C",
"Co 	c #0C987D",
"Do 	c #0D987E",
"Eo 	c #0A997D",
"Fo 	c #0A987D",
"Go 	c #0A967C",
"Ho 	c #0B8975",
"Io 	c #0C7E71",
"Jo 	c #0B746D",
"Ko 	c #0A756C",
"Lo 	c #087A6B",
"Mo 	c #0A836D",
"No 	c #043A45",
"Oo 	c #02132D",
"Po 	c #094952",
"Qo 	c #086E62",
"Ro 	c #087765",
"So 	c #108371",
"To 	c #0DBD94",
"Uo 	c #0BBB93",
"Vo 	c #08B08C",
"Wo 	c #09A484",
"Xo 	c #099B81",
"Yo 	c #0A927E",
"Zo 	c #09706C",
"`o 	c #096F6A",
" p 	c #10716B",
".p 	c #176264",
"+p 	c #126163",
"@p 	c #075E61",
"#p 	c #0C3F50",
"$p 	c #104252",
"%p 	c #124253",
"&p 	c #0B3D4E",
"*p 	c #04374A",
"=p 	c #094552",
"-p 	c #0F8175",
";p 	c #0E8178",
">p 	c #0E7B77",
",p 	c #0A525F",
"'p 	c #084455",
")p 	c #08394E",
"!p 	c #0D354D",
"~p 	c #0D3E52",
"{p 	c #0E7170",
"]p 	c #0F8179",
"^p 	c #0F8177",
"/p 	c #0C575C",
"(p 	c #05364B",
"_p 	c #083C4D",
":p 	c #114353",
"<p 	c #134555",
"[p 	c #104253",
"}p 	c #0A4352",
"|p 	c #075F61",
"1p 	c #106265",
"2p 	c #18525B",
"3p 	c #09716A",
"4p 	c #08706B",
"5p 	c #097F75",
"6p 	c #0A8578",
"7p 	c #098C79",
"8p 	c #0AA688",
"9p 	c #0AB490",
"0p 	c #0EC399",
"ap 	c #119A80",
"bp 	c #0C8F74",
"cp 	c #087E68",
"dp 	c #0C5251",
"ep 	c #052236",
"fp 	c #03122C",
"gp 	c #03303C",
"hp 	c #096661",
"ip 	c #0A746C",
"jp 	c #0B786D",
"kp 	c #0B8070",
"lp 	c #0B8F79",
"mp 	c #09947B",
"np 	c #0C987E",
"op 	c #0E9E7F",
"pp 	c #11A883",
"qp 	c #11B78D",
"rp 	c #0FBC8E",
"sp 	c #11C28F",
"tp 	c #11C690",
"up 	c #0ECF94",
"vp 	c #0FD498",
"wp 	c #0FE7A4",
"xp 	c #0EE2A1",
"yp 	c #12E3A2",
"zp 	c #20EEA7",
"Ap 	c #23EEA7",
"Bp 	c #28DC9C",
"Cp 	c #26BF8A",
"Dp 	c #28B285",
"Ep 	c #2C9070",
"Fp 	c #0E5950",
"Gp 	c #08353E",
"Hp 	c #042D39",
"Ip 	c #043E40",
"Jp 	c #043E41",
"Kp 	c #033C40",
"Lp 	c #033942",
"Mp 	c #023840",
"Np 	c #063B40",
"Op 	c #074043",
"Pp 	c #053643",
"Qp 	c #083B45",
"Rp 	c #0A4848",
"Sp 	c #0A514D",
"Tp 	c #0B4E4B",
"Up 	c #0B4B49",
"Vp 	c #125F4D",
"Wp 	c #116251",
"Xp 	c #0F5E4C",
"Yp 	c #1B7754",
"Zp 	c #187354",
"`p 	c #126A56",
" q 	c #19705B",
".q 	c #1D725F",
"+q 	c #1C705E",
"@q 	c #1F745F",
"#q 	c #23785F",
"$q 	c #277B58",
"%q 	c #116953",
"&q 	c #106752",
"*q 	c #116651",
"=q 	c #126652",
"-q 	c #146953",
";q 	c #166653",
">q 	c #105251",
",q 	c #0A4048",
"'q 	c #05363F",
")q 	c #064C47",
"!q 	c #054C47",
"~q 	c #054D47",
"{q 	c #054A48",
"]q 	c #054946",
"^q 	c #064442",
"/q 	c #06333C",
"(q 	c #074B47",
"_q 	c #096757",
":q 	c #0C9374",
"<q 	c #09A07C",
"[q 	c #0FAB85",
"}q 	c #0EA281",
"|q 	c #0FA684",
"1q 	c #0EA683",
"2q 	c #0FA380",
"3q 	c #0FA281",
"4q 	c #0EA082",
"5q 	c #0F9A7F",
"6q 	c #0E9A7E",
"7q 	c #0C8A73",
"8q 	c #0FA582",
"9q 	c #0DA782",
"0q 	c #10B78C",
"aq 	c #0DC18E",
"bq 	c #0CCD92",
"cq 	c #0ACE92",
"dq 	c #0ACD91",
"eq 	c #09CB92",
"fq 	c #0BCF93",
"gq 	c #0CD996",
"hq 	c #0ED18D",
"iq 	c #0CBD81",
"jq 	c #0A6C56",
"kq 	c #08514A",
"lq 	c #053E43",
"mq 	c #084743",
"nq 	c #117050",
"oq 	c #157A54",
"pq 	c #107350",
"qq 	c #0C524B",
"rq 	c #237552",
"sq 	c #45B960",
"tq 	c #87DD5C",
"uq 	c #8EE25A",
"vq 	c #8CE25A",
"wq 	c #8DE15A",
"xq 	c #8DE25A",
"yq 	c #8DE15C",
"zq 	c #7DDD61",
"Aq 	c #85E165",
"Bq 	c #9AE560",
"Cq 	c #80D966",
"Dq 	c #71D562",
"Eq 	c #6FD75F",
"Fq 	c #6CD562",
"Gq 	c #70D862",
"Hq 	c #76E15E",
"Iq 	c #6AD761",
"Jq 	c #62D462",
"Kq 	c #5FD465",
"Lq 	c #59CE63",
"Mq 	c #4DC062",
"Nq 	c #249E62",
"Oq 	c #21A064",
"Pq 	c #219661",
"Qq 	c #1E875E",
"Rq 	c #22985D",
"Sq 	c #218459",
"Tq 	c #0B4D4D",
"Uq 	c #09514D",
"Vq 	c #085A4B",
"Wq 	c #0F684F",
"Xq 	c #0B594C",
"Yq 	c #064040",
"Zq 	c #062E37",
"`q 	c #129776",
" r 	c #1BAD80",
".r 	c #20C08A",
"+r 	c #1FD794",
"@r 	c #1FD893",
"#r 	c #1BDB96",
"$r 	c #1BD092",
"%r 	c #1ADD9C",
"&r 	c #18E39F",
"*r 	c #17F1A6",
"=r 	c #16F2A6",
"-r 	c #16EDA5",
";r 	c #17D398",
">r 	c #14CC95",
",r 	c #12C491",
"'r 	c #11C490",
")r 	c #11BE8E",
"!r 	c #11BA8F",
"~r 	c #12A785",
"{r 	c #0FA280",
"]r 	c #12A382",
"^r 	c #10907A",
"/r 	c #0F997F",
"(r 	c #0B9D7E",
"_r 	c #0A997C",
":r 	c #0A9479",
"<r 	c #0D8576",
"[r 	c #09766F",
"}r 	c #0A7D6D",
"|r 	c #087468",
"1r 	c #09675F",
"2r 	c #02102A",
"3r 	c #043341",
"4r 	c #075F5C",
"5r 	c #089A74",
"6r 	c #086C5B",
"7r 	c #0A5E5B",
"8r 	c #069677",
"9r 	c #069B7A",
"0r 	c #069E7F",
"ar 	c #0BA787",
"br 	c #0FB88F",
"cr 	c #0EB089",
"dr 	c #0EAF88",
"er 	c #10AB85",
"fr 	c #169E7E",
"gr 	c #187067",
"hr 	c #134657",
"ir 	c #0E5A5F",
"jr 	c #146264",
"kr 	c #115E63",
"lr 	c #0B3F4E",
"mr 	c #063949",
"nr 	c #09273B",
"or 	c #0B8172",
"pr 	c #0B8C79",
"qr 	c #0A8A7B",
"rr 	c #086165",
"sr 	c #0A4152",
"tr 	c #0A7973",
"ur 	c #0C897A",
"vr 	c #0C8678",
"wr 	c #09585B",
"xr 	c #082A3E",
"yr 	c #0A394B",
"zr 	c #104E58",
"Ar 	c #10585F",
"Br 	c #0B6263",
"Cr 	c #0F515B",
"Dr 	c #135F5F",
"Er 	c #15947A",
"Fr 	c #119A7D",
"Gr 	c #0B9C7D",
"Hr 	c #0B9C7E",
"Ir 	c #0AAF8A",
"Jr 	c #09B08C",
"Kr 	c #08A482",
"Lr 	c #07AC86",
"Mr 	c #07AD86",
"Nr 	c #07B086",
"Or 	c #0A6A63",
"Pr 	c #075A56",
"Qr 	c #078E6E",
"Rr 	c #096762",
"Sr 	c #02112A",
"Tr 	c #021D35",
"Ur 	c #0B7667",
"Vr 	c #09786F",
"Wr 	c #0B7F73",
"Xr 	c #0B9178",
"Yr 	c #0E907B",
"Zr 	c #0F977D",
"`r 	c #109A7E",
" s 	c #13997F",
".s 	c #13B28E",
"+s 	c #12B68E",
"@s 	c #11BE8F",
"#s 	c #12C392",
"$s 	c #16C994",
"%s 	c #14E3A2",
"&s 	c #11ECA4",
"*s 	c #15EFA5",
"=s 	c #15EDA3",
"-s 	c #18ECA4",
";s 	c #2AE49E",
">s 	c #29E89F",
",s 	c #2EE79C",
"'s 	c #31E59B",
")s 	c #30D795",
"!s 	c #2FBF89",
"~s 	c #159977",
"{s 	c #0B524A",
"]s 	c #054F48",
"^s 	c #085549",
"/s 	c #054F46",
"(s 	c #064649",
"_s 	c #064249",
":s 	c #10604D",
"<s 	c #158359",
"[s 	c #116F58",
"}s 	c #12775A",
"|s 	c #168C60",
"1s 	c #178E5F",
"2s 	c #2F9B5E",
"3s 	c #41AE5C",
"4s 	c #47B962",
"5s 	c #47BC61",
"6s 	c #4ABA5E",
"7s 	c #5DD162",
"8s 	c #58C763",
"9s 	c #4FBC64",
"0s 	c #59C15F",
"as 	c #56C061",
"bs 	c #5CBE67",
"cs 	c #7ACE63",
"ds 	c #76D167",
"es 	c #6AD467",
"fs 	c #73C85C",
"gs 	c #71C85A",
"hs 	c #72C759",
"is 	c #73C95A",
"js 	c #76CB5A",
"ks 	c #70C75B",
"ls 	c #45A359",
"ms 	c #227752",
"ns 	c #0C644B",
"os 	c #0D664C",
"ps 	c #0C664E",
"qs 	c #084541",
"rs 	c #043D41",
"ss 	c #064245",
"ts 	c #095E51",
"us 	c #098C67",
"vs 	c #0AB981",
"ws 	c #0BC38B",
"xs 	c #0BC48D",
"ys 	c #09C48F",
"zs 	c #09C28E",
"As 	c #0AC38E",
"Bs 	c #0AC48E",
"Cs 	c #0CC48E",
"Ds 	c #0EBD8E",
"Es 	c #10B38D",
"Fs 	c #0E9F81",
"Gs 	c #0D997E",
"Hs 	c #09BA86",
"Is 	c #09C08B",
"Js 	c #08C48B",
"Ks 	c #08C58B",
"Ls 	c #08C58A",
"Ms 	c #08C48A",
"Ns 	c #09BD88",
"Os 	c #09C088",
"Ps 	c #0AC389",
"Qs 	c #0AC587",
"Rs 	c #0DAD7F",
"Ss 	c #054849",
"Ts 	c #054247",
"Us 	c #074546",
"Vs 	c #0F654C",
"Ws 	c #1D8557",
"Xs 	c #2B925A",
"Ys 	c #50B562",
"Zs 	c #308256",
"`s 	c #399159",
" t 	c #72D267",
".t 	c #96EF66",
"+t 	c #9CF062",
"@t 	c #9DF162",
"#t 	c #9DF060",
"$t 	c #9DF05E",
"%t 	c #A0F261",
"&t 	c #96ED65",
"*t 	c #8CE763",
"=t 	c #A0EB5F",
"-t 	c #B7F35F",
";t 	c #BCF55A",
">t 	c #B7ED5B",
",t 	c #A1ED58",
"'t 	c #8CEC5A",
")t 	c #88EC5C",
"!t 	c #89EC5F",
"~t 	c #84E860",
"{t 	c #78E267",
"]t 	c #79E466",
"^t 	c #6EE06A",
"/t 	c #49D16E",
"(t 	c #48D271",
"_t 	c #48CE6B",
":t 	c #4BC567",
"<t 	c #6CDF69",
"[t 	c #5DC062",
"}t 	c #156F5A",
"|t 	c #20915D",
"1t 	c #1F9C60",
"2t 	c #26A965",
"3t 	c #197B59",
"4t 	c #094C44",
"5t 	c #09363C",
"6t 	c #0D9975",
"7t 	c #0AA579",
"8t 	c #09AD7E",
"9t 	c #07A77B",
"0t 	c #07A67C",
"at 	c #068169",
"bt 	c #067864",
"ct 	c #0D7764",
"dt 	c #1BBE8B",
"et 	c #18CC91",
"ft 	c #14CE92",
"gt 	c #11D594",
"ht 	c #0DD795",
"it 	c #0BD796",
"jt 	c #09D794",
"kt 	c #09D795",
"lt 	c #08D697",
"mt 	c #0BC98F",
"nt 	c #0BC78E",
"ot 	c #0DCB8F",
"pt 	c #0ECD92",
"qt 	c #0EC28F",
"rt 	c #0EB48A",
"st 	c #0CB389",
"tt 	c #09B188",
"ut 	c #0AAF87",
"vt 	c #09AD87",
"wt 	c #0C9F81",
"xt 	c #076461",
"yt 	c #056060",
"zt 	c #045A59",
"At 	c #021931",
"Bt 	c #020E29",
"Ct 	c #04122B",
"Dt 	c #052C37",
"Et 	c #05534C",
"Ft 	c #065050",
"Gt 	c #055151",
"Ht 	c #052F38",
"It 	c #075C53",
"Jt 	c #0A7466",
"Kt 	c #127167",
"Lt 	c #10675F",
"Mt 	c #0C645C",
"Nt 	c #0E675B",
"Ot 	c #146259",
"Pt 	c #123542",
"Qt 	c #0C2C40",
"Rt 	c #0B3046",
"St 	c #0D3045",
"Tt 	c #0C464F",
"Ut 	c #055456",
"Vt 	c #064950",
"Wt 	c #096560",
"Xt 	c #077A6B",
"Yt 	c #087567",
"Zt 	c #06655F",
"`t 	c #07454D",
" u 	c #05434A",
".u 	c #07655E",
"+u 	c #088977",
"@u 	c #0B8977",
"#u 	c #086662",
"$u 	c #052F41",
"%u 	c #063647",
"&u 	c #086060",
"*u 	c #106163",
"=u 	c #134452",
"-u 	c #103D51",
";u 	c #113E4D",
">u 	c #125A55",
",u 	c #14826C",
"'u 	c #119175",
")u 	c #108F77",
"!u 	c #129078",
"~u 	c #118E79",
"{u 	c #098A75",
"]u 	c #058B74",
"^u 	c #07564E",
"/u 	c #065D5A",
"(u 	c #067962",
"_u 	c #074C49",
":u 	c #043C49",
"<u 	c #066161",
"[u 	c #09756C",
"}u 	c #0C8A78",
"|u 	c #09A181",
"1u 	c #0AA381",
"2u 	c #0BA682",
"3u 	c #0EC790",
"4u 	c #0ECF91",
"5u 	c #0BCE92",
"6u 	c #0BCA90",
"7u 	c #0BDD9C",
"8u 	c #0BE19C",
"9u 	c #0CE29B",
"0u 	c #0EE29C",
"au 	c #10E49D",
"bu 	c #14E69F",
"cu 	c #17E9A2",
"du 	c #19EDA3",
"eu 	c #1EECA5",
"fu 	c #18A77F",
"gu 	c #0F9474",
"hu 	c #0A9271",
"iu 	c #09AF81",
"ju 	c #09B782",
"ku 	c #09B784",
"lu 	c #0AAE80",
"mu 	c #0AA67A",
"nu 	c #0F9D78",
"ou 	c #0C5850",
"pu 	c #073A3B",
"qu 	c #106854",
"ru 	c #219861",
"su 	c #17885A",
"tu 	c #127458",
"uu 	c #0E6855",
"vu 	c #38965C",
"wu 	c #55CF66",
"xu 	c #46C266",
"yu 	c #40C368",
"zu 	c #40C96D",
"Au 	c #41C76B",
"Bu 	c #66D869",
"Cu 	c #80E966",
"Du 	c #80E965",
"Eu 	c #86EB62",
"Fu 	c #8AEC62",
"Gu 	c #8EED5D",
"Hu 	c #8CEC5B",
"Iu 	c #91EC5E",
"Ju 	c #8CE65F",
"Ku 	c #A3ED5E",
"Lu 	c #B2F262",
"Mu 	c #B3F35C",
"Nu 	c #9CEC5E",
"Ou 	c #7EE565",
"Pu 	c #A0F25F",
"Qu 	c #9EF15F",
"Ru 	c #9CF05F",
"Su 	c #98EE5D",
"Tu 	c #97EF62",
"Uu 	c #7EDE64",
"Vu 	c #4FA65C",
"Wu 	c #165A4E",
"Xu 	c #29905E",
"Yu 	c #25915A",
"Zu 	c #229A5D",
"`u 	c #0F5F4B",
" v 	c #084946",
".v 	c #064448",
"+v 	c #07554F",
"@v 	c #0F9D75",
"#v 	c #0DDD95",
"$v 	c #09E29A",
"%v 	c #0ADD98",
"&v 	c #09D696",
"*v 	c #09D295",
"=v 	c #08DA96",
"-v 	c #09D997",
";v 	c #0AD797",
">v 	c #0BD296",
",v 	c #0AC891",
"'v 	c #0CC690",
")v 	c #0ABA89",
"!v 	c #04554D",
"~v 	c #04564D",
"{v 	c #045A50",
"]v 	c #035D51",
"^v 	c #035E51",
"/v 	c #045B51",
"(v 	c #05594E",
"_v 	c #044F49",
":v 	c #054F47",
"<v 	c #054C4A",
"[v 	c #074247",
"}v 	c #147050",
"|v 	c #147255",
"1v 	c #318959",
"2v 	c #72E467",
"3v 	c #46A25A",
"4v 	c #248B56",
"5v 	c #42BA66",
"6v 	c #8DE564",
"7v 	c #9CEE62",
"8v 	c #9EEF63",
"9v 	c #9AEC5F",
"0v 	c #96E959",
"av 	c #96EA5B",
"bv 	c #8CEA65",
"cv 	c #86E96A",
"dv 	c #92E75E",
"ev 	c #A9EF55",
"fv 	c #B7F453",
"gv 	c #E6F94B",
"hv 	c #B6EB4D",
"iv 	c #87E355",
"jv 	c #7DE658",
"kv 	c #7BE75B",
"lv 	c #85E65D",
"mv 	c #8DE25F",
"nv 	c #53D56A",
"ov 	c #4ED36C",
"pv 	c #4DD16C",
"qv 	c #4CD26D",
"rv 	c #4BCD6C",
"sv 	c #51C86F",
"tv 	c #6DDA66",
"uv 	c #5CB85D",
"vv 	c #136957",
"wv 	c #24A260",
"xv 	c #25A964",
"yv 	c #29B468",
"zv 	c #197C56",
"Av 	c #0A5146",
"Bv 	c #0B4043",
"Cv 	c #07906D",
"Dv 	c #0A926D",
"Ev 	c #0A9471",
"Fv 	c #06896B",
"Gv 	c #058469",
"Hv 	c #056E5E",
"Iv 	c #05695A",
"Jv 	c #056659",
"Kv 	c #07655A",
"Lv 	c #077262",
"Mv 	c #088A6D",
"Nv 	c #0A9675",
"Ov 	c #0C9F79",
"Pv 	c #08A77D",
"Qv 	c #08A87E",
"Rv 	c #07A87E",
"Sv 	c #07A881",
"Tv 	c #08987B",
"Uv 	c #079277",
"Vv 	c #099478",
"Wv 	c #0A9E7D",
"Xv 	c #09A47E",
"Yv 	c #089F7A",
"Zv 	c #089A78",
"`v 	c #07876D",
" w 	c #077C68",
".w 	c #056F61",
"+w 	c #043C45",
"@w 	c #020F2A",
"#w 	c #030C29",
"$w 	c #07122E",
"%w 	c #0C1834",
"&w 	c #091330",
"*w 	c #0A1B34",
"=w 	c #071F34",
"-w 	c #0A2338",
";w 	c #10253C",
">w 	c #0B1E35",
",w 	c #05152F",
"'w 	c #0D1D34",
")w 	c #101F38",
"!w 	c #081631",
"~w 	c #03112D",
"{w 	c #021B35",
"]w 	c #021C36",
"^w 	c #061E33",
"/w 	c #031834",
"(w 	c #021632",
"_w 	c #04132E",
":w 	c #051531",
"<w 	c #101F39",
"[w 	c #112438",
"}w 	c #072131",
"|w 	c #051F32",
"1w 	c #072535",
"2w 	c #112E41",
"3w 	c #103242",
"4w 	c #072839",
"5w 	c #06112C",
"6w 	c #091B32",
"7w 	c #061A30",
"8w 	c #031128",
"9w 	c #04454A",
"0w 	c #045355",
"aw 	c #08796A",
"bw 	c #08A17F",
"cw 	c #0BAA82",
"dw 	c #09AF84",
"ew 	c #0BB387",
"fw 	c #0DAE85",
"gw 	c #0CA680",
"hw 	c #0C997A",
"iw 	c #099176",
"jw 	c #07A37F",
"kw 	c #06A67D",
"lw 	c #07A67D",
"mw 	c #0AA37B",
"nw 	c #0B9E78",
"ow 	c #088C6E",
"pw 	c #097B66",
"qw 	c #0B6F5F",
"rw 	c #076B5D",
"sw 	c #056F5F",
"tw 	c #057563",
"uw 	c #05886D",
"vw 	c #06906F",
"ww 	c #06926F",
"xw 	c #0BA178",
"yw 	c #0C9F76",
"zw 	c #089771",
"Aw 	c #0B5C51",
"Bw 	c #094440",
"Cw 	c #116F54",
"Dw 	c #2AB068",
"Ew 	c #26AD64",
"Fw 	c #2AAF63",
"Gw 	c #147955",
"Hw 	c #51A359",
"Iw 	c #7FE566",
"Jw 	c #55C26A",
"Kw 	c #48C168",
"Lw 	c #49D36F",
"Mw 	c #4AD16E",
"Nw 	c #4ED36B",
"Ow 	c #71D867",
"Pw 	c #7EE060",
"Qw 	c #79E85D",
"Rw 	c #7BE659",
"Sw 	c #7FE657",
"Tw 	c #A1EB52",
"Uw 	c #E2F84E",
"Vw 	c #CAF54F",
"Ww 	c #B3F355",
"Xw 	c #84E162",
"Yw 	c #80E569",
"Zw 	c #9AEE65",
"`w 	c #9AED5D",
" x 	c #96EA59",
".x 	c #98EB5C",
"+x 	c #9DEF64",
"@x 	c #9EF164",
"#x 	c #94EB66",
"$x 	c #5EC769",
"%x 	c #2D9E5C",
"&x 	c #2F8E59",
"*x 	c #77E467",
"=x 	c #419957",
"-x 	c #146A52",
";x 	c #117450",
">x 	c #0B544A",
",x 	c #053C44",
"'x 	c #054E4B",
")x 	c #07614E",
"!x 	c #065F4F",
"~x 	c #066B55",
"{x 	c #06705A",
"]x 	c #05715C",
"^x 	c #05755C",
"/x 	c #04755E",
"(x 	c #04765D",
"_x 	c #04745D",
":x 	c #05725C",
"<x 	c #056D59",
"[x 	c #056C58",
"}x 	c #056657",
"|x 	c #044749",
"1x 	c #086B5B",
"2x 	c #096F5C",
"3x 	c #09715D",
"4x 	c #076A5A",
"5x 	c #055950",
"6x 	c #043E43",
"7x 	c #054244",
"8x 	c #044F4B",
"9x 	c #0C5D4F",
"0x 	c #0C6752",
"ax 	c #0B6750",
"bx 	c #0A4747",
"cx 	c #053D45",
"dx 	c #0B5C4C",
"ex 	c #0C6E56",
"fx 	c #358C5A",
"gx 	c #80E663",
"hx 	c #50B466",
"ix 	c #239162",
"jx 	c #29936B",
"kx 	c #89DD67",
"lx 	c #9BEB5D",
"mx 	c #A3ED5D",
"nx 	c #A1EF5F",
"ox 	c #9FEF64",
"px 	c #9EEE63",
"qx 	c #A2EF67",
"rx 	c #A2EF5F",
"sx 	c #A3EE56",
"tx 	c #A4EF55",
"ux 	c #A8EF54",
"vx 	c #B2F052",
"wx 	c #8EE152",
"xx 	c #A6E85D",
"yx 	c #C7F262",
"zx 	c #A5EB5B",
"Ax 	c #96ED5C",
"Bx 	c #8BE95C",
"Cx 	c #91EA5C",
"Dx 	c #91E95E",
"Ex 	c #90E964",
"Fx 	c #86E762",
"Gx 	c #71DE65",
"Hx 	c #55D26E",
"Ix 	c #3FB260",
"Jx 	c #309059",
"Kx 	c #106B5C",
"Lx 	c #23A564",
"Mx 	c #31AF66",
"Nx 	c #43BD66",
"Ox 	c #206F4F",
"Px 	c #0F6954",
"Qx 	c #117D64",
"Rx 	c #128C6C",
"Sx 	c #0F8B6B",
"Tx 	c #0E876B",
"Ux 	c #097D67",
"Vx 	c #077965",
"Wx 	c #04735F",
"Xx 	c #05745F",
"Yx 	c #06745E",
"Zx 	c #06735E",
"`x 	c #096959",
" y 	c #0A5851",
".y 	c #0B4C4A",
"+y 	c #0D4D4B",
"@y 	c #0C504A",
"#y 	c #0D4F4A",
"$y 	c #0C4D49",
"%y 	c #094D49",
"&y 	c #094446",
"*y 	c #074044",
"=y 	c #064246",
"-y 	c #064347",
";y 	c #064348",
">y 	c #064C4E",
",y 	c #06484D",
"'y 	c #04494B",
")y 	c #044347",
"!y 	c #044345",
"~y 	c #044143",
"{y 	c #044646",
"]y 	c #062A3C",
"^y 	c #081530",
"/y 	c #050F2F",
"(y 	c #0E1737",
"_y 	c #12233D",
":y 	c #102139",
"<y 	c #0B1B34",
"[y 	c #05122D",
"}y 	c #0D1734",
"|y 	c #0F1732",
"1y 	c #11213A",
"2y 	c #0F3349",
"3y 	c #09444B",
"4y 	c #043043",
"5y 	c #03283D",
"6y 	c #03253B",
"7y 	c #02243A",
"8y 	c #022339",
"9y 	c #03213A",
"0y 	c #011331",
"ay 	c #0B2B3F",
"by 	c #102B42",
"cy 	c #0C1230",
"dy 	c #0E1634",
"ey 	c #0E1533",
"fy 	c #070F2D",
"gy 	c #07112D",
"hy 	c #0F1835",
"iy 	c #101937",
"jy 	c #0F1838",
"ky 	c #081131",
"ly 	c #040D2A",
"my 	c #061430",
"ny 	c #041530",
"oy 	c #032737",
"py 	c #032A37",
"qy 	c #031D30",
"ry 	c #022033",
"sy 	c #033F46",
"ty 	c #043F49",
"uy 	c #045652",
"vy 	c #056156",
"wy 	c #06685B",
"xy 	c #076A5C",
"yy 	c #086A5C",
"zy 	c #08685B",
"Ay 	c #0A6A5C",
"By 	c #0A7963",
"Cy 	c #0D7A62",
"Dy 	c #0F7B62",
"Ey 	c #0E7B62",
"Fy 	c #0D755F",
"Gy 	c #0E6A5A",
"Hy 	c #0A695A",
"Iy 	c #086357",
"Jy 	c #055C53",
"Ky 	c #045D52",
"Ly 	c #045E53",
"My 	c #045E54",
"Ny 	c #045F56",
"Oy 	c #046459",
"Py 	c #056C5E",
"Qy 	c #066E5E",
"Ry 	c #07715D",
"Sy 	c #077860",
"Ty 	c #0A584F",
"Uy 	c #094D47",
"Vy 	c #0F634F",
"Wy 	c #32B569",
"Xy 	c #2AB067",
"Yy 	c #24A864",
"Zy 	c #127659",
"`y 	c #328E59",
" z 	c #51C461",
".z 	c #56D471",
"+z 	c #5FD66B",
"@z 	c #73DF67",
"#z 	c #7CE168",
"$z 	c #7EE164",
"%z 	c #80E364",
"&z 	c #91E95A",
"*z 	c #8EEB5A",
"=z 	c #90EA5B",
"-z 	c #B4EF5F",
";z 	c #ACEA59",
">z 	c #90DF51",
",z 	c #C1F04D",
"'z 	c #B2F253",
")z 	c #A5EF55",
"!z 	c #A5EE54",
"~z 	c #9CED60",
"{z 	c #95EC69",
"]z 	c #9AEC62",
"^z 	c #9AEC60",
"/z 	c #9EEE61",
"(z 	c #9DEE61",
"_z 	c #9AEA5C",
":z 	c #8FE262",
"<z 	c #4EB169",
"[z 	c #26945D",
"}z 	c #359A60",
"|z 	c #7DE665",
"1z 	c #48A25B",
"2z 	c #137759",
"3z 	c #0E644F",
"4z 	c #074A49",
"5z 	c #053744",
"6z 	c #054242",
"7z 	c #033D41",
"8z 	c #043B41",
"9z 	c #033A41",
"0z 	c #034244",
"az 	c #034143",
"bz 	c #033F43",
"cz 	c #033841",
"dz 	c #054649",
"ez 	c #079A79",
"fz 	c #09B48B",
"gz 	c #0EC496",
"hz 	c #0CCB99",
"iz 	c #0ECD99",
"jz 	c #09C28F",
"kz 	c #08A47B",
"lz 	c #0A4A51",
"mz 	c #07725B",
"nz 	c #108165",
"oz 	c #1FBA81",
"pz 	c #3ACD8C",
"qz 	c #47D994",
"rz 	c #3FD68E",
"sz 	c #2B916C",
"tz 	c #115959",
"uz 	c #0C584C",
"vz 	c #107757",
"wz 	c #4D995A",
"xz 	c #B7F05A",
"yz 	c #8CD266",
"zz 	c #56A45A",
"Az 	c #1C7D5A",
"Bz 	c #7BCA5C",
"Cz 	c #A0EC5C",
"Dz 	c #B7F55D",
"Ez 	c #ACF056",
"Fz 	c #A6F05A",
"Gz 	c #9BEE60",
"Hz 	c #B3F058",
"Iz 	c #B6F051",
"Jz 	c #A2EF55",
"Kz 	c #A5EE57",
"Lz 	c #A5F057",
"Mz 	c #A8F156",
"Nz 	c #A9F054",
"Oz 	c #A4EE57",
"Pz 	c #97E95D",
"Qz 	c #A3EA56",
"Rz 	c #AEF156",
"Sz 	c #B1F253",
"Tz 	c #B7F353",
"Uz 	c #ABF156",
"Vz 	c #93EB5C",
"Wz 	c #91EB5E",
"Xz 	c #87E660",
"Yz 	c #79DE6A",
"Zz 	c #47A458",
"`z 	c #0D6756",
" A 	c #0C745E",
".A 	c #198D60",
"+A 	c #43AE61",
"@A 	c #73D960",
"#A 	c #2C6C47",
"$A 	c #19B080",
"%A 	c #1EF4A9",
"&A 	c #22F7A9",
"*A 	c #20F7A9",
"=A 	c #1FF7AA",
"-A 	c #19E6A2",
";A 	c #18E0A1",
">A 	c #18D99C",
",A 	c #17D99C",
"'A 	c #17D89B",
")A 	c #17D89C",
"!A 	c #18D197",
"~A 	c #18B086",
"{A 	c #0A6258",
"]A 	c #044446",
"^A 	c #033F42",
"/A 	c #023E42",
"(A 	c #023D42",
"_A 	c #023842",
":A 	c #053F45",
"<A 	c #05504C",
"[A 	c #06524F",
"}A 	c #117664",
"|A 	c #1A997A",
"1A 	c #17C492",
"2A 	c #16C78F",
"3A 	c #13C691",
"4A 	c #10C290",
"5A 	c #10B78D",
"6A 	c #09A985",
"7A 	c #078D76",
"8A 	c #078C76",
"9A 	c #098974",
"0A 	c #08786A",
"aA 	c #077A6D",
"bA 	c #05776C",
"cA 	c #0B6061",
"dA 	c #0D3A49",
"eA 	c #061E37",
"fA 	c #041733",
"gA 	c #06152F",
"hA 	c #093947",
"iA 	c #0C4550",
"jA 	c #115058",
"kA 	c #103C4F",
"lA 	c #0D3648",
"mA 	c #082136",
"nA 	c #074A4D",
"oA 	c #0A7165",
"pA 	c #096E63",
"qA 	c #075759",
"rA 	c #054955",
"sA 	c #044B55",
"tA 	c #05404E",
"uA 	c #043444",
"vA 	c #053949",
"wA 	c #043C4D",
"xA 	c #043547",
"yA 	c #043E4C",
"zA 	c #044852",
"AA 	c #064A51",
"BA 	c #086F61",
"CA 	c #0A5D59",
"DA 	c #0A494E",
"EA 	c #091A31",
"FA 	c #0C283E",
"GA 	c #092740",
"HA 	c #0B2A41",
"IA 	c #11384B",
"JA 	c #0F3C4B",
"KA 	c #0D3747",
"LA 	c #091B34",
"MA 	c #06122F",
"NA 	c #081C35",
"OA 	c #0E3647",
"PA 	c #104C54",
"QA 	c #066C64",
"RA 	c #057869",
"SA 	c #067869",
"TA 	c #06806D",
"UA 	c #067F6D",
"VA 	c #068B72",
"WA 	c #0C9876",
"XA 	c #0E9975",
"YA 	c #109C7A",
"ZA 	c #0D6E60",
"`A 	c #095353",
" B 	c #044249",
".B 	c #043E44",
"+B 	c #033540",
"@B 	c #023C41",
"#B 	c #023D40",
"$B 	c #044548",
"%B 	c #0F7A67",
"&B 	c #139B78",
"*B 	c #10B988",
"=B 	c #0FB888",
"-B 	c #0FBA88",
";B 	c #0EB988",
">B 	c #0EB889",
",B 	c #10BD8A",
"'B 	c #14CA92",
")B 	c #1CDF9D",
"!B 	c #1EE59E",
"~B 	c #20E49E",
"{B 	c #1FE19E",
"]B 	c #1BC38D",
"^B 	c #185648",
"/B 	c #69CB5F",
"(B 	c #4FBB61",
"_B 	c #1E9663",
":B 	c #10795D",
"<B 	c #106B59",
"[B 	c #287C51",
"}B 	c #5ED069",
"|B 	c #71DB66",
"1B 	c #8DEB5E",
"2B 	c #94EB5E",
"3B 	c #9AEE58",
"4B 	c #A1F058",
"5B 	c #9DEF59",
"6B 	c #A5EF58",
"7B 	c #B3F155",
"8B 	c #99E55F",
"9B 	c #9EE85F",
"0B 	c #A1EC55",
"aB 	c #A5F056",
"bB 	c #A5EF57",
"cB 	c #A2EE55",
"dB 	c #A4EE56",
"eB 	c #A8EF5C",
"fB 	c #A6F160",
"gB 	c #B2F254",
"hB 	c #B7F359",
"iB 	c #ABF25E",
"jB 	c #8EDD62",
"kB 	c #3C9D64",
"lB 	c #319560",
"mB 	c #5CB769",
"nB 	c #A2ED62",
"oB 	c #5FAA56",
"pB 	c #0F7959",
"qB 	c #0C5C4B",
"rB 	c #0B4E4E",
"sB 	c #1A6858",
"tB 	c #2DB47A",
"uB 	c #30B97F",
"vB 	c #31B77F",
"wB 	c #15936C",
"xB 	c #0D7962",
"yB 	c #065C51",
"zB 	c #07414A",
"AB 	c #077E65",
"BB 	c #09AC81",
"CB 	c #0FC491",
"DB 	c #0FC190",
"EB 	c #0FBD90",
"FB 	c #0BAB87",
"GB 	c #058A70",
"HB 	c #07BB8C",
"IB 	c #0AB88C",
"JB 	c #0ED79F",
"KB 	c #0CE4A2",
"LB 	c #0BE6A1",
"MB 	c #0AE5A1",
"NB 	c #0CD197",
"OB 	c #0C7369",
"PB 	c #0E9D71",
"QB 	c #1BAC7A",
"RB 	c #2DEA98",
"SB 	c #3FEF9C",
"TB 	c #49F19E",
"UB 	c #3FEC97",
"VB 	c #2BA777",
"WB 	c #127165",
"XB 	c #175852",
"YB 	c #198660",
"ZB 	c #58A260",
"`B 	c #CBF655",
" C 	c #C6F55F",
".C 	c #9BC858",
"+C 	c #1A694F",
"@C 	c #74C059",
"#C 	c #9CEA5E",
"$C 	c #ADF460",
"%C 	c #A3EF5A",
"&C 	c #9EED55",
"*C 	c #BBF352",
"=C 	c #D1F549",
"-C 	c #DCF74B",
";C 	c #B7F052",
">C 	c #A7F055",
",C 	c #A3F259",
"'C 	c #A6F158",
")C 	c #A9F258",
"!C 	c #ABF358",
"~C 	c #BEF452",
"{C 	c #CFF74E",
"]C 	c #D8FA4C",
"^C 	c #D2F950",
"/C 	c #C3F554",
"(C 	c #96EB59",
"_C 	c #94EB59",
":C 	c #90EC59",
"<C 	c #8AE85B",
"[C 	c #69CF54",
"}C 	c #1F7659",
"|C 	c #0E745A",
"1C 	c #2EB369",
"2C 	c #3EBA6C",
"3C 	c #54C467",
"4C 	c #206145",
"5C 	c #18AA7D",
"6C 	c #1AF1AB",
"7C 	c #1DFBAD",
"8C 	c #19FCAD",
"9C 	c #19FCAF",
"0C 	c #1BFCB2",
"aC 	c #1EFCB3",
"bC 	c #1CFCB3",
"cC 	c #19FCB2",
"dC 	c #17FBB0",
"eC 	c #1DFBAF",
"fC 	c #20F4AB",
"gC 	c #26DA9D",
"hC 	c #28BC8C",
"iC 	c #0A7A64",
"jC 	c #023942",
"kC 	c #0B6055",
"lC 	c #118F6C",
"mC 	c #18CE97",
"nC 	c #1ADD9E",
"oC 	c #1EECAB",
"pC 	c #14E5A6",
"qC 	c #12E6A4",
"rC 	c #0ED096",
"sC 	c #0BA182",
"tC 	c #079079",
"uC 	c #068E76",
"vC 	c #0A8B77",
"wC 	c #056864",
"xC 	c #056F68",
"yC 	c #0E6163",
"zC 	c #125259",
"AC 	c #0D3346",
"BC 	c #0D2841",
"CC 	c #0E243F",
"DC 	c #0E2239",
"EC 	c #115056",
"FC 	c #147468",
"GC 	c #0E4C56",
"HC 	c #0D555A",
"IC 	c #0C5F60",
"JC 	c #0E6C64",
"KC 	c #0D6560",
"LC 	c #086762",
"MC 	c #054E58",
"NC 	c #064D58",
"OC 	c #063C4C",
"PC 	c #053B4B",
"QC 	c #053A4B",
"RC 	c #053A4A",
"SC 	c #07384A",
"TC 	c #063B4B",
"UC 	c #05394A",
"VC 	c #053445",
"WC 	c #043646",
"XC 	c #053747",
"YC 	c #06394A",
"ZC 	c #073A4B",
"`C 	c #063D4D",
" D 	c #084353",
".D 	c #085057",
"+D 	c #0A7268",
"@D 	c #0D5856",
"#D 	c #0E565B",
"$D 	c #10525A",
"%D 	c #114655",
"&D 	c #0E7068",
"*D 	c #0C776A",
"=D 	c #104A52",
"-D 	c #0D2439",
";D 	c #0B1E38",
">D 	c #09243E",
",D 	c #072E42",
"'D 	c #104B54",
")D 	c #098374",
"!D 	c #088F78",
"~D 	c #078D78",
"{D 	c #0BA786",
"]D 	c #10BF91",
"^D 	c #11DA9E",
"/D 	c #12EAA5",
"(D 	c #15ECA7",
"_D 	c #19ECA9",
":D 	c #20E4A7",
"<D 	c #1ECD98",
"[D 	c #13A980",
"}D 	c #108A6C",
"|D 	c #0A6758",
"1D 	c #023D43",
"2D 	c #1A896F",
"3D 	c #1FB187",
"4D 	c #1FDA9E",
"5D 	c #1FF9AD",
"6D 	c #1EFAB0",
"7D 	c #1BFAB0",
"8D 	c #1CFAB1",
"9D 	c #1EFAB2",
"0D 	c #1CFBB0",
"aD 	c #1BFCAE",
"bD 	c #1BFBAC",
"cD 	c #1EFBAC",
"dD 	c #1EF7AC",
"eD 	c #1BD197",
"fD 	c #145344",
"gD 	c #62C662",
"hD 	c #4ABD67",
"iD 	c #2AA668",
"jD 	c #14835F",
"kD 	c #10715E",
"lD 	c #4EA554",
"mD 	c #8FEB5F",
"nD 	c #91ED5D",
"oD 	c #93EB5A",
"pD 	c #94EB5A",
"qD 	c #B4F257",
"rD 	c #D1F94D",
"sD 	c #C4F64F",
"tD 	c #B0F155",
"uD 	c #ACF157",
"vD 	c #AAF157",
"wD 	c #A6F257",
"xD 	c #A6EE56",
"yD 	c #C3F451",
"zD 	c #C9F44C",
"AD 	c #CEF54A",
"BD 	c #9BEE5B",
"CD 	c #9AED57",
"DD 	c #A1EF5A",
"ED 	c #A8F361",
"FD 	c #9CEB5E",
"GD 	c #75C755",
"HD 	c #247651",
"ID 	c #7AAB54",
"JD 	c #B6EC5E",
"KD 	c #CEF758",
"LD 	c #79B659",
"MD 	c #198B5E",
"ND 	c #155F51",
"OD 	c #146A61",
"PD 	c #289574",
"QD 	c #46EA97",
"RD 	c #4DF3A0",
"SD 	c #4DF29E",
"TD 	c #2DE596",
"UD 	c #1FBE84",
"VD 	c #0D986C",
"WD 	c #0BA981",
"XD 	c #09D699",
"YD 	c #0BD99C",
"ZD 	c #0BD89D",
"`D 	c #0DD39D",
" E 	c #0ABB8F",
".E 	c #07A27C",
"+E 	c #0E8471",
"@E 	c #0CAB86",
"#E 	c #0BBA8A",
"$E 	c #0CD598",
"%E 	c #0CE8A0",
"&E 	c #0DCE90",
"*E 	c #12A67A",
"=E 	c #1D9C78",
"-E 	c #30DD92",
";E 	c #2DDB94",
">E 	c #29DA94",
",E 	c #2EE796",
"'E 	c #27A478",
")E 	c #167564",
"!E 	c #155251",
"~E 	c #15825E",
"{E 	c #59A467",
"]E 	c #BAF35F",
"^E 	c #BDF454",
"/E 	c #A4CC53",
"(E 	c #1D654D",
"_E 	c #69C063",
":E 	c #97EB61",
"<E 	c #B7F258",
"[E 	c #AFEE54",
"}E 	c #B7ED53",
"|E 	c #E1F952",
"1E 	c #EFFC48",
"2E 	c #F4FD43",
"3E 	c #F6FD42",
"4E 	c #F2FC42",
"5E 	c #E7FA47",
"6E 	c #BBF557",
"7E 	c #B4F258",
"8E 	c #B8F256",
"9E 	c #C4F657",
"0E 	c #E2FA4D",
"aE 	c #EEFB48",
"bE 	c #EDFB4B",
"cE 	c #C4F453",
"dE 	c #B4F255",
"eE 	c #9DEE5A",
"fE 	c #B2EF52",
"gE 	c #B3ED53",
"hE 	c #74DA57",
"iE 	c #327D4C",
"jE 	c #106251",
"kE 	c #197456",
"lE 	c #55D068",
"mE 	c #49BC66",
"nE 	c #168258",
"oE 	c #0A5243",
"pE 	c #11A77B",
"qE 	c #12F2AB",
"rE 	c #17FBAD",
"sE 	c #16FCAF",
"tE 	c #16FCB2",
"uE 	c #17FCB3",
"vE 	c #19FCB3",
"wE 	c #18FCB3",
"xE 	c #12FBB1",
"yE 	c #10FBAE",
"zE 	c #0FFAAF",
"AE 	c #13FAB2",
"BE 	c #16FBB1",
"CE 	c #23FAB1",
"DE 	c #61F9AB",
"EE 	c #4FD99D",
"FE 	c #0DA477",
"GE 	c #074E48",
"HE 	c #044545",
"IE 	c #033941",
"JE 	c #229C78",
"KE 	c #2DE4A4",
"LE 	c #25E8A4",
"ME 	c #1DE6A5",
"NE 	c #16E3A4",
"OE 	c #0EE0A4",
"PE 	c #0BD69C",
"QE 	c #0CCB97",
"RE 	c #057469",
"SE 	c #056F66",
"TE 	c #094D51",
"UE 	c #081E33",
"VE 	c #051A34",
"WE 	c #082033",
"XE 	c #10726A",
"YE 	c #15907B",
"ZE 	c #0D957C",
"`E 	c #086865",
" F 	c #066965",
".F 	c #096966",
"+F 	c #096061",
"@F 	c #074452",
"#F 	c #074754",
"$F 	c #083E4F",
"%F 	c #053246",
"&F 	c #053244",
"*F 	c #043949",
"=F 	c #02172F",
"-F 	c #052338",
";F 	c #063345",
">F 	c #064E59",
",F 	c #055058",
"'F 	c #065358",
")F 	c #0B6F69",
"!F 	c #086A67",
"~F 	c #066661",
"{F 	c #088172",
"]F 	c #13907A",
"^F 	c #126F69",
"/F 	c #0A2938",
"(F 	c #0A1E37",
"_F 	c #0C233A",
":F 	c #0D434C",
"<F 	c #0E5559",
"[F 	c #095C5D",
"}F 	c #067168",
"|F 	c #088573",
"1F 	c #098E77",
"2F 	c #0BD69B",
"3F 	c #0BDEA0",
"4F 	c #0CE2A4",
"5F 	c #12E2A5",
"6F 	c #14E6A4",
"7F 	c #19E7A4",
"8F 	c #1ED096",
"9F 	c #1CAD82",
"0F 	c #053D43",
"aF 	c #023E41",
"bF 	c #043F43",
"cF 	c #088667",
"dF 	c #28BE8D",
"eF 	c #43F8AF",
"fF 	c #28FAB0",
"gF 	c #19FBB1",
"hF 	c #16FBB2",
"iF 	c #12FBB0",
"jF 	c #12FBAE",
"kF 	c #15FBB0",
"lF 	c #1AFCB3",
"mF 	c #1BFCB3",
"nF 	c #17FCB2",
"oF 	c #17F5AC",
"pF 	c #16CB93",
"qF 	c #0B4F42",
"rF 	c #29925D",
"sF 	c #35B365",
"tF 	c #41CC6B",
"uF 	c #1F885B",
"vF 	c #146A55",
"wF 	c #409150",
"xF 	c #76D856",
"yF 	c #93E756",
"zF 	c #9DEC56",
"AF 	c #99EB59",
"BF 	c #A8EF57",
"CF 	c #B9F355",
"DF 	c #DEF94E",
"EF 	c #ECFC49",
"FF 	c #E7FB49",
"GF 	c #B6F558",
"HF 	c #A9F25B",
"IF 	c #9FEF5C",
"JF 	c #A5F25C",
"KF 	c #C5F550",
"LF 	c #DEF747",
"MF 	c #F3FC44",
"NF 	c #EFFB47",
"OF 	c #E1F94A",
"PF 	c #CEF752",
"QF 	c #A4EC55",
"RF 	c #99EA55",
"SF 	c #B3F35A",
"TF 	c #A7F061",
"UF 	c #79CF64",
"VF 	c #2B7754",
"WF 	c #90B757",
"XF 	c #C2F457",
"YF 	c #BDF35A",
"ZF 	c #7ABC65",
"`F 	c #1E9567",
" G 	c #165C53",
".G 	c #21916F",
"+G 	c #35E394",
"@G 	c #33DD94",
"#G 	c #31DB95",
"$G 	c #35EC9A",
"%G 	c #26C289",
"&G 	c #13A97B",
"*G 	c #0FC189",
"=G 	c #0BDC9C",
"-G 	c #0AE9A3",
";G 	c #0BD094",
">G 	c #0DC594",
",G 	c #089679",
"'G 	c #088870",
")G 	c #0D9E7D",
"!G 	c #0FA47F",
"~G 	c #0AB288",
"{G 	c #08B887",
"]G 	c #0BAF81",
"^G 	c #0CA177",
"/G 	c #0A6B5E",
"(G 	c #117669",
"_G 	c #15AA7A",
":G 	c #20C989",
"<G 	c #29DE93",
"[G 	c #38E993",
"}G 	c #31C386",
"|G 	c #1FA978",
"1G 	c #10524D",
"2G 	c #095E4E",
"3G 	c #4A8958",
"4G 	c #ABF164",
"5G 	c #C8F758",
"6G 	c #AED056",
"7G 	c #20754F",
"8G 	c #4DAC58",
"9G 	c #82DB5E",
"0G 	c #A8ED56",
"aG 	c #EFFB4C",
"bG 	c #F2FC4C",
"cG 	c #E9FB4D",
"dG 	c #DAF94E",
"eG 	c #E2FA46",
"fG 	c #F5FD40",
"gG 	c #F7FE41",
"hG 	c #F4FD42",
"iG 	c #E6FC47",
"jG 	c #F3FD41",
"kG 	c #F6FD44",
"lG 	c #F7FD47",
"mG 	c #EAF951",
"nG 	c #ECFA4C",
"oG 	c #F9FD49",
"pG 	c #F8FD48",
"qG 	c #E3FA4D",
"rG 	c #AFF357",
"sG 	c #C4F455",
"tG 	c #B8E958",
"uG 	c #63D65D",
"vG 	c #17624C",
"wG 	c #157553",
"xG 	c #2C9E5F",
"yG 	c #79E468",
"zG 	c #6BC264",
"AG 	c #126D51",
"BG 	c #0A634D",
"CG 	c #0FA67C",
"DG 	c #13E5A3",
"EG 	c #13F7AD",
"FG 	c #11F9AE",
"GG 	c #12FAB1",
"HG 	c #13FBB2",
"IG 	c #14FBB1",
"JG 	c #13FBB0",
"KG 	c #10FBAF",
"LG 	c #15FBB1",
"MG 	c #11F9B1",
"NG 	c #11FAB1",
"OG 	c #1DF9B0",
"PG 	c #62F8A8",
"QG 	c #51E6A0",
"RG 	c #13D08B",
"SG 	c #065C4F",
"TG 	c #044C49",
"UG 	c #034242",
"VG 	c #36A67D",
"WG 	c #41F7AF",
"XG 	c #39F8AD",
"YG 	c #2EF1AB",
"ZG 	c #1DE9A7",
"`G 	c #0EC893",
" H 	c #0DAC87",
".H 	c #0C9C7F",
"+H 	c #088974",
"@H 	c #076A61",
"#H 	c #0C6A62",
"$H 	c #0C776C",
"%H 	c #0A726A",
"&H 	c #076B64",
"*H 	c #05444C",
"=H 	c #0A253B",
"-H 	c #112E3F",
";H 	c #0F7068",
">H 	c #0D9D7D",
",H 	c #0DAE88",
"'H 	c #0B6C67",
")H 	c #076C69",
"!H 	c #096063",
"~H 	c #08585D",
"{H 	c #064452",
"]H 	c #084E5A",
"^H 	c #05384B",
"/H 	c #063A4C",
"(H 	c #063B4C",
"_H 	c #063548",
":H 	c #063245",
"<H 	c #06394B",
"[H 	c #04394B",
"}H 	c #05374A",
"|H 	c #063448",
"1H 	c #063648",
"2H 	c #053448",
"3H 	c #074654",
"4H 	c #074150",
"5H 	c #064450",
"6H 	c #064750",
"7H 	c #085C5F",
"8H 	c #096867",
"9H 	c #066C68",
"0H 	c #096565",
"aH 	c #0FB48B",
"bH 	c #123241",
"cH 	c #0A2239",
"dH 	c #051830",
"eH 	c #076862",
"fH 	c #087369",
"gH 	c #077166",
"hH 	c #076D64",
"iH 	c #066E64",
"jH 	c #097A6C",
"kH 	c #078773",
"lH 	c #0BA481",
"mH 	c #0ED69D",
"nH 	c #1BE9A7",
"oH 	c #2BF4AD",
"pH 	c #34F6AD",
"qH 	c #3CF6AE",
"rH 	c #3CCD97",
"sH 	c #094144",
"tH 	c #034142",
"uH 	c #034746",
"vH 	c #05564E",
"wH 	c #0DAB75",
"xH 	c #4AD393",
"yH 	c #84F8A6",
"zH 	c #3DF8AF",
"AH 	c #11FAB0",
"BH 	c #0FFBAF",
"CH 	c #0FFBB0",
"DH 	c #15FCB1",
"EH 	c #15FBB2",
"FH 	c #14FBB2",
"GH 	c #14FAAE",
"HH 	c #14F0A9",
"IH 	c #12C790",
"JH 	c #095846",
"KH 	c #137956",
"LH 	c #5CB360",
"MH 	c #7EE86A",
"NH 	c #45A960",
"OH 	c #1D7F53",
"PH 	c #165E4E",
"QH 	c #69CF57",
"RH 	c #B2E854",
"SH 	c #DEF84C",
"TH 	c #AFF257",
"UH 	c #CBF653",
"VH 	c #F2FC49",
"WH 	c #F7FD49",
"XH 	c #E9F94B",
"YH 	c #DFF852",
"ZH 	c #EEFB4C",
"`H 	c #ECFB45",
" I 	c #E6FB46",
".I 	c #EFFC44",
"+I 	c #F7FD41",
"@I 	c #F7FD40",
"#I 	c #F1FD40",
"$I 	c #EAFB49",
"%I 	c #F3FC4D",
"&I 	c #EFFB4E",
"*I 	c #ECF94F",
"=I 	c #A7EC53",
"-I 	c #90E65B",
";I 	c #64C25B",
">I 	c #1E6D48",
",I 	c #95B64F",
"'I 	c #C7F655",
")I 	c #AEF263",
"!I 	c #6DAD61",
"~I 	c #116C55",
"{I 	c #0C4C49",
"]I 	c #1A8B6C",
"^I 	c #27B37F",
"/I 	c #2FE593",
"(I 	c #28E794",
"_I 	c #28E398",
":I 	c #22B17C",
"<I 	c #158C70",
"[I 	c #0F7766",
"}I 	c #0C846B",
"|I 	c #0DB884",
"1I 	c #0BCD91",
"2I 	c #09B788",
"3I 	c #09B388",
"4I 	c #109C7C",
"5I 	c #0F9177",
"6I 	c #0D8370",
"7I 	c #09AE80",
"8I 	c #09AF83",
"9I 	c #0A6356",
"0I 	c #074A4C",
"aI 	c #063946",
"bI 	c #105C5B",
"cI 	c #166962",
"dI 	c #16896C",
"eI 	c #18A977",
"fI 	c #1BBC7A",
"gI 	c #35C27A",
"hI 	c #258362",
"iI 	c #176A5D",
"jI 	c #145350",
"kI 	c #105F56",
"lI 	c #44865B",
"mI 	c #A2EF6A",
"nI 	c #C9F756",
"oI 	c #B1D658",
"pI 	c #27895B",
"qI 	c #40B25F",
"rI 	c #9BDB60",
"sI 	c #EDFB48",
"tI 	c #F5FD46",
"uI 	c #F2FD45",
"vI 	c #ECFC44",
"wI 	c #E5FB46",
"xI 	c #DBFA4B",
"yI 	c #D7FA4E",
"zI 	c #F0FD42",
"AI 	c #F6FD41",
"BI 	c #F3FD45",
"CI 	c #F6FD48",
"DI 	c #F9FD48",
"EI 	c #FAFD46",
"FI 	c #FAFD45",
"GI 	c #E8FB49",
"HI 	c #B8F553",
"II 	c #CFF852",
"JI 	c #9DD558",
"KI 	c #3AA556",
"LI 	c #0D5C4C",
"MI 	c #208157",
"NI 	c #3BB268",
"OI 	c #74E464",
"PI 	c #67BD5F",
"QI 	c #0A584D",
"RI 	c #0B7F5E",
"SI 	c #0C926C",
"TI 	c #11A076",
"UI 	c #0FB787",
"VI 	c #0EC38E",
"WI 	c #12D398",
"XI 	c #12E7A6",
"YI 	c #0FEDA8",
"ZI 	c #0FEFA8",
"`I 	c #0DF2A8",
" J 	c #10F4AA",
".J 	c #13F4AC",
"+J 	c #13F2AC",
"@J 	c #10F5AD",
"#J 	c #12F6AA",
"$J 	c #15F4A6",
"%J 	c #18EA9F",
"&J 	c #0DDB98",
"*J 	c #056056",
"=J 	c #044E4E",
"-J 	c #034342",
";J 	c #033E41",
">J 	c #3AA97C",
",J 	c #43F8AB",
"'J 	c #39F8AA",
")J 	c #2AEAA5",
"!J 	c #11D99F",
"~J 	c #0DAC82",
"{J 	c #0AA07E",
"]J 	c #08816E",
"^J 	c #07806F",
"/J 	c #0A7C6D",
"(J 	c #127F70",
"_J 	c #177E70",
":J 	c #11796E",
"<J 	c #157A72",
"[J 	c #157A73",
"}J 	c #0D6E68",
"|J 	c #076561",
"1J 	c #052B3A",
"2J 	c #056E63",
"3J 	c #0DA986",
"4J 	c #0C6F6A",
"5J 	c #09726D",
"6J 	c #0A6263",
"7J 	c #085E61",
"8J 	c #09595E",
"9J 	c #084F56",
"0J 	c #074B54",
"aJ 	c #084D5A",
"bJ 	c #043649",
"cJ 	c #073D4E",
"dJ 	c #063D4F",
"eJ 	c #063145",
"fJ 	c #063A4B",
"gJ 	c #043A4A",
"hJ 	c #04293F",
"iJ 	c #05404F",
"jJ 	c #063B4D",
"kJ 	c #043448",
"lJ 	c #054F5A",
"mJ 	c #064854",
"nJ 	c #065258",
"oJ 	c #0A6F6B",
"pJ 	c #0A6766",
"qJ 	c #0EA384",
"rJ 	c #08AE86",
"sJ 	c #087166",
"tJ 	c #093640",
"uJ 	c #06283B",
"vJ 	c #031931",
"wJ 	c #0A6C65",
"xJ 	c #11766E",
"yJ 	c #157A71",
"zJ 	c #127B70",
"AJ 	c #17766C",
"BJ 	c #107468",
"CJ 	c #097669",
"DJ 	c #0B997D",
"EJ 	c #0A9A7B",
"FJ 	c #11D198",
"GJ 	c #26E7A5",
"HJ 	c #38F9AC",
"IJ 	c #40F9AD",
"JJ 	c #45D196",
"KJ 	c #0B4445",
"LJ 	c #034241",
"MJ 	c #034647",
"NJ 	c #045550",
"OJ 	c #0BC788",
"PJ 	c #1AE89E",
"QJ 	c #23F7AA",
"RJ 	c #16F8AD",
"SJ 	c #10F9AF",
"TJ 	c #12F6AE",
"UJ 	c #16F9B0",
"VJ 	c #13FAAF",
"WJ 	c #0FF9AD",
"XJ 	c #0FF8AC",
"YJ 	c #0FF8AD",
"ZJ 	c #0FF7AE",
"`J 	c #11E9A6",
" K 	c #0FE09F",
".K 	c #11D598",
"+K 	c #14C48F",
"@K 	c #0FAC7E",
"#K 	c #0A8160",
"$K 	c #0B6150",
"%K 	c #5BAA5E",
"&K 	c #7AE866",
"*K 	c #49B966",
"=K 	c #22955C",
"-K 	c #0C5A4E",
";K 	c #43B45A",
">K 	c #7DCA5C",
",K 	c #C4F55A",
"'K 	c #D9F94E",
")K 	c #F9FD45",
"!K 	c #FAFD48",
"~K 	c #F8FD49",
"{K 	c #F7FD48",
"]K 	c #F5FD45",
"^K 	c #F5FD41",
"/K 	c #EDFC47",
"(K 	c #F1FD44",
"_K 	c #E3FB4A",
":K 	c #D7FA4C",
"<K 	c #D2F94C",
"[K 	c #DFFA49",
"}K 	c #EEFC45",
"|K 	c #F5FD48",
"1K 	c #DFF84B",
"2K 	c #ABE15C",
"3K 	c #3DB15F",
"4K 	c #228959",
"5K 	c #9BC25A",
"6K 	c #D1F856",
"7K 	c #A7F068",
"8K 	c #61A55C",
"9K 	c #0F6054",
"0K 	c #11514E",
"aK 	c #1A7E63",
"bK 	c #289E70",
"cK 	c #3ED184",
"dK 	c #2BCE83",
"eK 	c #16BF7F",
"fK 	c #149876",
"gK 	c #13816C",
"hK 	c #106560",
"iK 	c #08424B",
"jK 	c #085650",
"kK 	c #088D6D",
"lK 	c #0AA67C",
"mK 	c #07B889",
"nK 	c #08B587",
"oK 	c #08B586",
"pK 	c #0DB586",
"qK 	c #04343A",
"rK 	c #05353B",
"sK 	c #063D41",
"tK 	c #05343F",
"uK 	c #043540",
"vK 	c #0A3B44",
"wK 	c #114149",
"xK 	c #0E4247",
"yK 	c #0D4C4A",
"zK 	c #125753",
"AK 	c #145957",
"BK 	c #155C59",
"CK 	c #12695D",
"DK 	c #0F6256",
"EK 	c #0B5A52",
"FK 	c #3B7E56",
"GK 	c #96E85E",
"HK 	c #C5F653",
"IK 	c #B5DD58",
"JK 	c #31A065",
"KK 	c #49B861",
"LK 	c #A1DC62",
"MK 	c #F4FC46",
"NK 	c #F3FD44",
"OK 	c #ECFC45",
"PK 	c #E7FC47",
"QK 	c #F2FD43",
"RK 	c #F7FD43",
"SK 	c #F7FD42",
"TK 	c #F8FD41",
"UK 	c #F8FD42",
"VK 	c #F8FD44",
"WK 	c #F7FC45",
"XK 	c #F7FC46",
"YK 	c #F6FC48",
"ZK 	c #F7FD45",
"`K 	c #F2FC46",
" L 	c #E1FB4A",
".L 	c #B8F555",
"+L 	c #D2F94D",
"@L 	c #99C94C",
"#L 	c #13644B",
"$L 	c #0B6552",
"%L 	c #3DA062",
"&L 	c #5CDB6E",
"*L 	c #66D360",
"=L 	c #57A959",
"-L 	c #0A4D4B",
";L 	c #0A8362",
">L 	c #078B69",
",L 	c #068C6A",
"'L 	c #068C6C",
")L 	c #096E5A",
"!L 	c #08725C",
"~L 	c #077F64",
"{L 	c #088E6E",
"]L 	c #079470",
"^L 	c #079873",
"/L 	c #08A078",
"(L 	c #09AA7D",
"_L 	c #09B281",
":L 	c #09AB7C",
"<L 	c #0BA478",
"[L 	c #044748",
"}L 	c #044243",
"|L 	c #044044",
"1L 	c #40AB7C",
"2L 	c #4BF7A7",
"3L 	c #3EEDA5",
"4L 	c #2DE3A3",
"5L 	c #13D99F",
"6L 	c #0EA67F",
"7L 	c #099A7B",
"8L 	c #0C8B72",
"9L 	c #09806D",
"0L 	c #0B826F",
"aL 	c #158676",
"bL 	c #158677",
"cL 	c #11776E",
"dL 	c #0D736E",
"eL 	c #106F6C",
"fL 	c #02223A",
"gL 	c #04645C",
"hL 	c #098C75",
"iL 	c #0BA485",
"jL 	c #0B716B",
"kL 	c #086A68",
"lL 	c #0A6867",
"mL 	c #0C5D60",
"nL 	c #095C60",
"oL 	c #074B55",
"pL 	c #084655",
"qL 	c #073F4F",
"rL 	c #073E4E",
"sL 	c #063649",
"tL 	c #053545",
"uL 	c #04384A",
"vL 	c #054351",
"wL 	c #084C56",
"xL 	c #084D56",
"yL 	c #084F57",
"zL 	c #095057",
"AL 	c #0B5E61",
"BL 	c #096B69",
"CL 	c #096A68",
"DL 	c #0D9F82",
"EL 	c #066A61",
"FL 	c #0C6864",
"GL 	c #0E6C69",
"HL 	c #0F736D",
"IL 	c #137971",
"JL 	c #127A6E",
"KL 	c #138173",
"LL 	c #178777",
"ML 	c #0E8472",
"NL 	c #087F6D",
"OL 	c #0A8570",
"PL 	c #0A9175",
"QL 	c #079A7A",
"RL 	c #089A7A",
"SL 	c #0AA57E",
"TL 	c #0ECD97",
"UL 	c #21E0A2",
"VL 	c #32EAA5",
"WL 	c #40F6A6",
"XL 	c #47D395",
"YL 	c #0B4647",
"ZL 	c #034546",
"`L 	c #044E4D",
" M 	c #099978",
".M 	c #0DBE89",
"+M 	c #0DD292",
"@M 	c #0BD696",
"#M 	c #0BD496",
"$M 	c #0BCB92",
"%M 	c #0AC08A",
"&M 	c #0AAF81",
"*M 	c #0BA47A",
"=M 	c #0F9975",
"-M 	c #0B9E77",
";M 	c #079973",
">M 	c #08936F",
",M 	c #098E6A",
"'M 	c #088C67",
")M 	c #0A8A65",
"!M 	c #0A554C",
"~M 	c #58A056",
"{M 	c #7AE562",
"]M 	c #5BD368",
"^M 	c #49B465",
"/M 	c #0A5E50",
"(M 	c #146A4B",
"_M 	c #70A84B",
":M 	c #D5F74D",
"<M 	c #BDF554",
"[M 	c #D7F94D",
"}M 	c #F6FD45",
"|M 	c #F8FD45",
"1M 	c #F9FD46",
"2M 	c #F6FC47",
"3M 	c #F8FD43",
"4M 	c #EFFC46",
"5M 	c #F2FD42",
"6M 	c #F2FD44",
"7M 	c #F3FD43",
"8M 	c #BDE65A",
"9M 	c #48BC65",
"0M 	c #2C9860",
"aM 	c #9FCB5C",
"bM 	c #CEF851",
"cM 	c #9AEA60",
"dM 	c #59A15B",
"eM 	c #0E5C54",
"fM 	c #0F544F",
"gM 	c #0F5E57",
"hM 	c #136259",
"iM 	c #18735E",
"jM 	c #147E5E",
"kM 	c #13765C",
"lM 	c #114F4A",
"mM 	c #13484D",
"nM 	c #0F3F48",
"oM 	c #032A39",
"pM 	c #074B49",
"qM 	c #066855",
"rM 	c #066753",
"sM 	c #066652",
"tM 	c #097B5E",
"uM 	c #0A7161",
"vM 	c #0A9574",
"wM 	c #0BAA7D",
"xM 	c #0BAB7E",
"yM 	c #08A077",
"zM 	c #09A177",
"AM 	c #089E76",
"BM 	c #056B5D",
"CM 	c #066256",
"DM 	c #10645A",
"EM 	c #1BA079",
"FM 	c #1CA279",
"GM 	c #1BA179",
"HM 	c #139C74",
"IM 	c #139F74",
"JM 	c #159C72",
"KM 	c #0C7661",
"LM 	c #065C50",
"MM 	c #3A774F",
"NM 	c #99E65E",
"OM 	c #C7F557",
"PM 	c #B8E35A",
"QM 	c #3AB267",
"RM 	c #389855",
"SM 	c #96C559",
"TM 	c #F3FC47",
"UM 	c #E7FC46",
"VM 	c #DCFA49",
"WM 	c #EAFC44",
"XM 	c #F4FD40",
"YM 	c #E5FB45",
"ZM 	c #E6FB45",
"`M 	c #F8FD46",
" N 	c #F7FC47",
".N 	c #F8FC49",
"+N 	c #F2FC4D",
"@N 	c #E0FA4E",
"#N 	c #E4FA51",
"$N 	c #D8F855",
"%N 	c #C1F050",
"&N 	c #8FC550",
"*N 	c #126A4F",
"=N 	c #147F55",
"-N 	c #41AF67",
";N 	c #62E06D",
">N 	c #2CA860",
",N 	c #1B885A",
"'N 	c #095F58",
")N 	c #0B9268",
"!N 	c #09996F",
"~N 	c #07956F",
"{N 	c #0A795F",
"]N 	c #088367",
"^N 	c #058F71",
"/N 	c #067A61",
"(N 	c #057B62",
"_N 	c #057C63",
":N 	c #067B63",
"<N 	c #057C62",
"[N 	c #047B62",
"}N 	c #047B63",
"|N 	c #057C65",
"1N 	c #057D65",
"2N 	c #067461",
"3N 	c #055E58",
"4N 	c #044647",
"5N 	c #44AC7C",
"6N 	c #53F6A4",
"7N 	c #52F9AB",
"8N 	c #3BEEA8",
"9N 	c #1DE6A7",
"0N 	c #1AAA85",
"aN 	c #119F7F",
"bN 	c #109C7D",
"cN 	c #159D80",
"dN 	c #17937D",
"eN 	c #178977",
"fN 	c #168976",
"gN 	c #148575",
"hN 	c #138576",
"iN 	c #157F71",
"jN 	c #147C72",
"kN 	c #147A73",
"lN 	c #13716D",
"mN 	c #0C6C64",
"nN 	c #076B62",
"oN 	c #042539",
"pN 	c #088571",
"qN 	c #0BA084",
"rN 	c #066968",
"sN 	c #096667",
"tN 	c #0B5B60",
"uN 	c #095B5F",
"vN 	c #084956",
"wN 	c #084756",
"xN 	c #084857",
"yN 	c #073B4E",
"zN 	c #063A4D",
"AN 	c #083C4F",
"BN 	c #094756",
"CN 	c #084C57",
"DN 	c #085058",
"EN 	c #095A5F",
"FN 	c #0B5C60",
"GN 	c #0A6365",
"HN 	c #076967",
"IN 	c #0C9C82",
"JN 	c #089D7F",
"KN 	c #075D5B",
"LN 	c #075A59",
"MN 	c #0F6D65",
"NN 	c #14716D",
"ON 	c #147772",
"PN 	c #117870",
"QN 	c #157E71",
"RN 	c #178678",
"SN 	c #148475",
"TN 	c #118573",
"UN 	c #138573",
"VN 	c #148C77",
"WN 	c #139A7E",
"XN 	c #0C9A7B",
"YN 	c #0B9A7B",
"ZN 	c #14A381",
"`N 	c #1AD89E",
" O 	c #33EBA7",
".O 	c #4FF8AB",
"+O 	c #52F7A6",
"@O 	c #52D495",
"#O 	c #0D4849",
"$O 	c #024344",
"%O 	c #044546",
"&O 	c #066659",
"*O 	c #05735D",
"=O 	c #05725D",
"-O 	c #05705C",
";O 	c #06715B",
">O 	c #05715B",
",O 	c #06705B",
"'O 	c #066D59",
")O 	c #06896C",
"!O 	c #06886A",
"~O 	c #068D6A",
"{O 	c #07906C",
"]O 	c #099269",
"^O 	c #0B5D55",
"/O 	c #217C56",
"(O 	c #30A95F",
"_O 	c #55D168",
":O 	c #50C36B",
"<O 	c #127355",
"[O 	c #0C6850",
"}O 	c #73A64E",
"|O 	c #C9F24C",
"1O 	c #CBF753",
"2O 	c #D5F952",
"3O 	c #E5FB4E",
"4O 	c #E7FB4C",
"5O 	c #F3FC4B",
"6O 	c #F9FD4A",
"7O 	c #F8FD47",
"8O 	c #F7FD46",
"9O 	c #F0FD43",
"0O 	c #F6FE3F",
"aO 	c #F1FD41",
"bO 	c #D9FA4A",
"cO 	c #DEFB4A",
"dO 	c #B8DF58",
"eO 	c #43AF5D",
"fO 	c #30A461",
"gO 	c #A1D35F",
"hO 	c #CFF856",
"iO 	c #9BE85E",
"jO 	c #569A56",
"kO 	c #0D745F",
"lO 	c #148167",
"mO 	c #158769",
"nO 	c #148067",
"oO 	c #19836A",
"pO 	c #178267",
"qO 	c #178268",
"rO 	c #14685C",
"sO 	c #085651",
"tO 	c #067460",
"uO 	c #077F65",
"vO 	c #077C65",
"wO 	c #088067",
"xO 	c #0A8569",
"yO 	c #097260",
"zO 	c #095E57",
"AO 	c #086257",
"BO 	c #11B088",
"CO 	c #0CDD9C",
"DO 	c #0BE49D",
"EO 	c #0AE4A0",
"FO 	c #0AE09D",
"GO 	c #09E49F",
"HO 	c #09E09F",
"IO 	c #0B9F7B",
"JO 	c #0EA47C",
"KO 	c #0FA77C",
"LO 	c #18B386",
"MO 	c #1CB78C",
"NO 	c #19B388",
"OO 	c #11AA7F",
"PO 	c #0FB081",
"QO 	c #12B080",
"RO 	c #0A926F",
"SO 	c #066354",
"TO 	c #1A6452",
"UO 	c #4FB464",
"VO 	c #B9EA59",
"WO 	c #BDF158",
"XO 	c #94DC5B",
"YO 	c #34804D",
"ZO 	c #87A951",
"`O 	c #F0FA47",
" P 	c #F6FD46",
".P 	c #F5FD47",
"+P 	c #F4FC47",
"@P 	c #F5FC44",
"#P 	c #F6FD4C",
"$P 	c #F0FC4C",
"%P 	c #C3F458",
"&P 	c #B7F15A",
"*P 	c #D1F35A",
"=P 	c #ACE355",
"-P 	c #7FC355",
";P 	c #127B56",
">P 	c #1C995F",
",P 	c #40BC6A",
"'P 	c #67E06A",
")P 	c #238A58",
"!P 	c #0E765A",
"~P 	c #117763",
"{P 	c #24D189",
"]P 	c #2CE395",
"^P 	c #2FE598",
"/P 	c #3EE297",
"(P 	c #38D793",
"_P 	c #25C891",
":P 	c #1DA57D",
"<P 	c #1AA17A",
"[P 	c #0D9C75",
"}P 	c #0B9E76",
"|P 	c #0BA077",
"1P 	c #0A9A75",
"2P 	c #099874",
"3P 	c #079975",
"4P 	c #0B886D",
"5P 	c #07655B",
"6P 	c #03454A",
"7P 	c #034347",
"8P 	c #3AA87D",
"9P 	c #4DF7A7",
"0P 	c #4BF9AA",
"aP 	c #36EEA6",
"bP 	c #1AE7A6",
"cP 	c #16AE87",
"dP 	c #1AA986",
"eP 	c #1BA985",
"fP 	c #19A284",
"gP 	c #129479",
"hP 	c #119176",
"iP 	c #16927C",
"jP 	c #198E7D",
"kP 	c #128275",
"lP 	c #0B7569",
"mP 	c #0C746A",
"nP 	c #07786C",
"oP 	c #068671",
"pP 	c #04223B",
"qP 	c #043C47",
"rP 	c #097969",
"sP 	c #0B9981",
"tP 	c #066967",
"uP 	c #086567",
"vP 	c #0B5A5F",
"wP 	c #075E60",
"xP 	c #0A5F61",
"yP 	c #0A515A",
"zP 	c #084153",
"AP 	c #093E51",
"BP 	c #094D58",
"CP 	c #084B56",
"DP 	c #0A5C60",
"EP 	c #086265",
"FP 	c #066767",
"GP 	c #066B68",
"HP 	c #0B9680",
"IP 	c #08957B",
"JP 	c #05474E",
"KP 	c #067366",
"LP 	c #077B6A",
"MP 	c #0E756C",
"NP 	c #0E776D",
"OP 	c #0F776B",
"PP 	c #0E7F71",
"QP 	c #188A7A",
"RP 	c #19917D",
"SP 	c #158F78",
"TP 	c #139178",
"UP 	c #179E82",
"VP 	c #19A583",
"WP 	c #19A483",
"XP 	c #18AA86",
"YP 	c #1CDBA0",
"ZP 	c #32EEA7",
"`P 	c #4DF8AA",
" Q 	c #4FF7A6",
".Q 	c #4CD194",
"+Q 	c #0B464B",
"@Q 	c #086E5F",
"#Q 	c #068B6C",
"$Q 	c #078B6B",
"%Q 	c #078C6C",
"&Q 	c #068B6B",
"*Q 	c #098A6B",
"=Q 	c #0FA87F",
"-Q 	c #16B481",
";Q 	c #1FBD82",
">Q 	c #19C787",
",Q 	c #17CB85",
"'Q 	c #15CA81",
")Q 	c #0E7962",
"!Q 	c #10765B",
"~Q 	c #1A8D59",
"{Q 	c #5ACE65",
"]Q 	c #50CB6B",
"^Q 	c #1C9863",
"/Q 	c #0E7855",
"(Q 	c #64A753",
"_Q 	c #A5E652",
":Q 	c #E2F859",
"<Q 	c #D7F756",
"[Q 	c #CFF657",
"}Q 	c #E8FB4F",
"|Q 	c #F1FC4F",
"1Q 	c #F9FD47",
"2Q 	c #EFFB45",
"3Q 	c #E8FB46",
"4Q 	c #F5FD43",
"5Q 	c #F0FC46",
"6Q 	c #EFFC47",
"7Q 	c #F1FC45",
"8Q 	c #F4FC45",
"9Q 	c #A8C351",
"0Q 	c #23794F",
"aQ 	c #61BD5C",
"bQ 	c #A9E35B",
"cQ 	c #CCF558",
"dQ 	c #77C963",
"eQ 	c #3E8654",
"fQ 	c #088465",
"gQ 	c #11A679",
"hQ 	c #11B782",
"iQ 	c #12B281",
"jQ 	c #15B585",
"kQ 	c #1DB98A",
"lQ 	c #1BB989",
"mQ 	c #149E78",
"nQ 	c #0C9472",
"oQ 	c #0A8F72",
"pQ 	c #08C48D",
"qQ 	c #09DA98",
"rQ 	c #08DA98",
"sQ 	c #08DD9A",
"tQ 	c #0AE19A",
"uQ 	c #09D898",
"vQ 	c #0DAC83",
"wQ 	c #0A8A70",
"xQ 	c #0ECB9C",
"yQ 	c #0BBA8D",
"zQ 	c #0BC494",
"AQ 	c #09C595",
"BQ 	c #09B489",
"CQ 	c #0AD49A",
"DQ 	c #0DE8A6",
"EQ 	c #09A27D",
"FQ 	c #0CAA81",
"GQ 	c #0DAC81",
"HQ 	c #0CAB81",
"IQ 	c #10AC84",
"JQ 	c #11A984",
"KQ 	c #0F896E",
"LQ 	c #0C9675",
"MQ 	c #119C79",
"NQ 	c #0A816A",
"OQ 	c #075B56",
"PQ 	c #06534B",
"QQ 	c #208758",
"RQ 	c #97D854",
"SQ 	c #B0EF56",
"TQ 	c #BFEE57",
"UQ 	c #48894A",
"VQ 	c #78A14E",
"WQ 	c #E4F643",
"XQ 	c #F6FC44",
"YQ 	c #F5FB44",
"ZQ 	c #F5FB46",
"`Q 	c #F4FB47",
" R 	c #FAFD4B",
".R 	c #F9FC4B",
"+R 	c #FAFD4C",
"@R 	c #F8FD4A",
"#R 	c #EBFB47",
"$R 	c #B6F353",
"%R 	c #9FEB5E",
"&R 	c #73DE67",
"*R 	c #59C764",
"=R 	c #31AF61",
"-R 	c #138D5D",
";R 	c #23AA62",
">R 	c #45C569",
",R 	c #67DF67",
"'R 	c #227F57",
")R 	c #1B926A",
"!R 	c #2EC488",
"~R 	c #43F0A7",
"{R 	c #48F8AE",
"]R 	c #4EF9AF",
"^R 	c #68F9AC",
"/R 	c #5DF8AD",
"(R 	c #44F7AE",
"_R 	c #3EF6AE",
":R 	c #35F2A9",
"<R 	c #22E8A1",
"[R 	c #1FEBA2",
"}R 	c #1CEDA3",
"|R 	c #1CEEA6",
"1R 	c #13D497",
"2R 	c #0DCF93",
"3R 	c #0AD093",
"4R 	c #0BD393",
"5R 	c #0DB785",
"6R 	c #067863",
"7R 	c #023F42",
"8R 	c #023F44",
"9R 	c #26A57F",
"0R 	c #2FF9B1",
"aR 	c #25F7AE",
"bR 	c #1DF4AF",
"cR 	c #14BD8E",
"dR 	c #15B28B",
"eR 	c #1AB089",
"fR 	c #1AA989",
"gR 	c #1B9F83",
"hR 	c #1A957C",
"iR 	c #1C947E",
"jR 	c #1C9780",
"kR 	c #159179",
"lR 	c #0C8D75",
"mR 	c #0B8872",
"nR 	c #0A816F",
"oR 	c #077B6D",
"pR 	c #09796A",
"qR 	c #052138",
"rR 	c #0B907C",
"sR 	c #056F69",
"tR 	c #076668",
"uR 	c #07565A",
"vR 	c #05585D",
"wR 	c #054650",
"xR 	c #063D48",
"yR 	c #0C897D",
"zR 	c #0F716C",
"AR 	c #0B4053",
"BR 	c #073649",
"CR 	c #094052",
"DR 	c #0A4253",
"ER 	c #074854",
"FR 	c #095159",
"GR 	c #108B7D",
"HR 	c #075C5B",
"IR 	c #063F49",
"JR 	c #05585C",
"KR 	c #085459",
"LR 	c #076264",
"MR 	c #056F6A",
"NR 	c #0C8C7B",
"OR 	c #0A8674",
"PR 	c #072B3A",
"QR 	c #067968",
"RR 	c #07796B",
"SR 	c #0B7C6C",
"TR 	c #0C7F6E",
"UR 	c #118373",
"VR 	c #1A8E7C",
"WR 	c #1A8F7B",
"XR 	c #149279",
"YR 	c #18997D",
"ZR 	c #19A386",
"`R 	c #1CAF8A",
" S 	c #10B388",
".S 	c #18E3A2",
"+S 	c #25F3AB",
"@S 	c #35F9AE",
"#S 	c #3BF6AB",
"$S 	c #35CF98",
"%S 	c #074649",
"&S 	c #044449",
"*S 	c #067161",
"=S 	c #0C9C78",
"-S 	c #0BC98D",
";S 	c #0BC68D",
">S 	c #0EC38D",
",S 	c #18DB9A",
"'S 	c #16DB98",
")S 	c #18D896",
"!S 	c #1CD495",
"~S 	c #29DA9B",
"{S 	c #3BE7A5",
"]S 	c #42EFA9",
"^S 	c #58F3A9",
"/S 	c #73FAA9",
"(S 	c #5AF8AB",
"_S 	c #4AF7AB",
":S 	c #44F5A7",
"<S 	c #27A97C",
"[S 	c #158664",
"}S 	c #147958",
"|S 	c #5BCB65",
"1S 	c #51D169",
"2S 	c #26AC66",
"3S 	c #128B5B",
"4S 	c #3AA15D",
"5S 	c #60C662",
"6S 	c #83DE64",
"7S 	c #8CE663",
"8S 	c #E6FA4A",
"9S 	c #F9FD4B",
"0S 	c #F6FC46",
"aS 	c #F6FD43",
"bS 	c #F5FC45",
"cS 	c #F6FD47",
"dS 	c #F1FC42",
"eS 	c #9BBA4E",
"fS 	c #3B7F4B",
"gS 	c #AFDB52",
"hS 	c #C2F453",
"iS 	c #BDEF51",
"jS 	c #2F9C60",
"kS 	c #0C6A51",
"lS 	c #054E4D",
"mS 	c #0B8068",
"nS 	c #0E9A76",
"oS 	c #0DA37A",
"pS 	c #0F9172",
"qS 	c #15A480",
"rS 	c #16B188",
"sS 	c #10AC83",
"tS 	c #0CAC81",
"uS 	c #0DAB81",
"vS 	c #0A9E7B",
"wS 	c #08E6A2",
"xS 	c #09C995",
"yS 	c #0ACF98",
"zS 	c #0DC290",
"AS 	c #0FC798",
"BS 	c #17C993",
"CS 	c #0ECD9A",
"DS 	c #0CE5A4",
"ES 	c #0AE4A2",
"FS 	c #0CE3A4",
"GS 	c #0DE1A4",
"HS 	c #0DE2A5",
"IS 	c #0DDFA2",
"JS 	c #11B788",
"KS 	c #0CAC82",
"LS 	c #0CA87F",
"MS 	c #09A57E",
"NS 	c #0B9F80",
"OS 	c #0E856E",
"PS 	c #0B8F73",
"QS 	c #109576",
"RS 	c #0D9675",
"SS 	c #0A8068",
"TS 	c #07715E",
"US 	c #0F5549",
"VS 	c #49BC5D",
"WS 	c #54D26B",
"XS 	c #65CF67",
"YS 	c #2D7E4E",
"ZS 	c #4E8F50",
"`S 	c #98D756",
" T 	c #E2F840",
".T 	c #EEFC42",
"+T 	c #F9FC45",
"@T 	c #F6FB45",
"#T 	c #F5FB45",
"$T 	c #F3FA47",
"%T 	c #F6FB48",
"&T 	c #F7FC48",
"*T 	c #F0FA4B",
"=T 	c #F8FC4F",
"-T 	c #F9FC53",
";T 	c #F2FB50",
">T 	c #EEF950",
",T 	c #E9F952",
"'T 	c #DBF358",
")T 	c #7BAB54",
"!T 	c #249B59",
"~T 	c #28B165",
"{T 	c #44BE67",
"]T 	c #47C266",
"^T 	c #40B460",
"/T 	c #156A55",
"(T 	c #23AB7C",
"_T 	c #39F6A6",
":T 	c #3BF8AE",
"<T 	c #38F9AE",
"[T 	c #33F9AD",
"}T 	c #32F9AE",
"|T 	c #31F8B0",
"1T 	c #31F9AF",
"2T 	c #2FFAAF",
"3T 	c #2BFBAE",
"4T 	c #25FCAE",
"5T 	c #21FCAD",
"6T 	c #1FFCAD",
"7T 	c #1DFBAC",
"8T 	c #1AF0A6",
"9T 	c #17EAA3",
"0T 	c #14E49F",
"aT 	c #0FD196",
"bT 	c #0FBA89",
"cT 	c #078868",
"dT 	c #05474B",
"eT 	c #06454A",
"fT 	c #063E41",
"gT 	c #033E40",
"hT 	c #1AA27B",
"iT 	c #24E7A4",
"jT 	c #29FAB3",
"kT 	c #23FAB3",
"lT 	c #1DF7B0",
"mT 	c #16C191",
"nT 	c #1BB991",
"oT 	c #1DB38D",
"pT 	c #16A685",
"qT 	c #189E83",
"rT 	c #209E86",
"sT 	c #1DA186",
"tT 	c #15B08A",
"uT 	c #11BB8D",
"vT 	c #067D6E",
"wT 	c #057C6B",
"xT 	c #0A917B",
"yT 	c #06917B",
"zT 	c #078C78",
"AT 	c #078373",
"BT 	c #076062",
"CT 	c #0B8B7C",
"DT 	c #0F6E69",
"ET 	c #084555",
"FT 	c #021934",
"GT 	c #053045",
"HT 	c #108E80",
"IT 	c #085D5B",
"JT 	c #06565C",
"KT 	c #085B5E",
"LT 	c #056061",
"MT 	c #056162",
"NT 	c #066262",
"OT 	c #068978",
"PT 	c #0B8E7A",
"QT 	c #097F70",
"RT 	c #022139",
"ST 	c #067465",
"TT 	c #07806D",
"UT 	c #07796C",
"VT 	c #078573",
"WT 	c #0A8E75",
"XT 	c #11AA84",
"YT 	c #17AE8A",
"ZT 	c #1FA086",
"`T 	c #1D9D84",
" U 	c #15A485",
".U 	c #1BAF8A",
"+U 	c #1BB58E",
"@U 	c #17BF93",
"#U 	c #1FEDAB",
"$U 	c #23FBB3",
"%U 	c #29FBB3",
"&U 	c #27EDA8",
"*U 	c #22CA94",
"=U 	c #066B5A",
"-U 	c #0BA278",
";U 	c #0AD596",
">U 	c #0CD998",
",U 	c #12DD9C",
"'U 	c #15DF9D",
")U 	c #1EF7AB",
"!U 	c #1FFBAC",
"~U 	c #21FBAD",
"{U 	c #25FBAD",
"]U 	c #2AFBAD",
"^U 	c #31FAAE",
"/U 	c #35F8AF",
"(U 	c #38F8B0",
"_U 	c #39F8B0",
":U 	c #38F8AE",
"<U 	c #3AF8AF",
"[U 	c #3DF8AE",
"}U 	c #38F3A3",
"|U 	c #2ABE85",
"1U 	c #0E6254",
"2U 	c #49B45E",
"3U 	c #47C866",
"4U 	c #36BB69",
"5U 	c #23A765",
"6U 	c #24A360",
"7U 	c #3AA35B",
"8U 	c #B8E95B",
"9U 	c #CEF354",
"0U 	c #DEF84E",
"aU 	c #EAFA49",
"bU 	c #F7FC4E",
"cU 	c #FAFD4E",
"dU 	c #F6FC4B",
"eU 	c #F7FC4A",
"fU 	c #FBFD49",
"gU 	c #F5FB47",
"hU 	c #F4FA46",
"iU 	c #F3FA45",
"jU 	c #F4FD45",
"kU 	c #EDFB41",
"lU 	c #C6EA4C",
"mU 	c #74AA50",
"nU 	c #2E7A4D",
"oU 	c #72C95F",
"pU 	c #69D866",
"qU 	c #63D35F",
"rU 	c #155A49",
"sU 	c #08675A",
"tU 	c #0B8E70",
"uU 	c #109074",
"vU 	c #0C9174",
"wU 	c #0E876E",
"xU 	c #0C997B",
"yU 	c #09A67F",
"zU 	c #0BA97F",
"AU 	c #0BAB81",
"BU 	c #0EAF84",
"CU 	c #0EB488",
"DU 	c #0FD99E",
"EU 	c #0BE3A3",
"FU 	c #0BCB98",
"GU 	c #0AD09A",
"HU 	c #0BD39C",
"IU 	c #0AD49C",
"JU 	c #0CC998",
"KU 	c #0DB489",
"LU 	c #11D399",
"MU 	c #11DA9A",
"NU 	c #0DDB99",
"OU 	c #0CE09E",
"PU 	c #0CF1AC",
"QU 	c #0EF1AC",
"RU 	c #0FF1AB",
"SU 	c #0DEFA8",
"TU 	c #11DB9B",
"UU 	c #14D397",
"VU 	c #11C58D",
"WU 	c #0C977C",
"XU 	c #0E9378",
"YU 	c #0C9879",
"ZU 	c #0C9B78",
"`U 	c #0D9B78",
" V 	c #0A8F73",
".V 	c #098269",
"+V 	c #11534B",
"@V 	c #3BB55C",
"#V 	c #4BD66C",
"$V 	c #66DF70",
"%V 	c #318452",
"&V 	c #30824D",
"*V 	c #65C258",
"=V 	c #C7EF42",
"-V 	c #E0F944",
";V 	c #F6FB47",
">V 	c #F9FC4A",
",V 	c #F9FD4C",
"'V 	c #F3FB4F",
")V 	c #F4FB56",
"!V 	c #F7FC59",
"~V 	c #F8FC59",
"{V 	c #F8FC58",
"]V 	c #FAFC57",
"^V 	c #F5FA57",
"/V 	c #839E4F",
"(V 	c #136D4B",
"_V 	c #20825A",
":V 	c #75C459",
"<V 	c #76C05B",
"[V 	c #1A8158",
"}V 	c #107255",
"|V 	c #28B781",
"1V 	c #38F8A9",
"2V 	c #37F9AD",
"3V 	c #32FBAC",
"4V 	c #2FFBAD",
"5V 	c #2CFAAF",
"6V 	c #29FBAF",
"7V 	c #28FCAF",
"8V 	c #27FCAF",
"9V 	c #24FCB0",
"0V 	c #20FCAF",
"aV 	c #1CFCAE",
"bV 	c #1AFCAD",
"cV 	c #1AFAAE",
"dV 	c #1FF3AB",
"eV 	c #1EF1A8",
"fV 	c #1FEFA9",
"gV 	c #2AF5B0",
"hV 	c #25D299",
"iV 	c #0A996F",
"jV 	c #074E4C",
"kV 	c #0F4D4F",
"lV 	c #114549",
"mV 	c #0D4144",
"nV 	c #189E76",
"oV 	c #23E4A4",
"pV 	c #27FBB3",
"qV 	c #21FBB3",
"rV 	c #19F5AE",
"sV 	c #13CC94",
"tV 	c #1BB68B",
"uV 	c #21A384",
"vV 	c #1CA284",
"wV 	c #139F80",
"xV 	c #14A384",
"yV 	c #14A584",
"zV 	c #13B68C",
"AV 	c #14BF92",
"BV 	c #0D8C76",
"CV 	c #0C8773",
"DV 	c #07766A",
"EV 	c #053340",
"FV 	c #0B4D52",
"GV 	c #0D7F72",
"HV 	c #07987D",
"IV 	c #099A7F",
"JV 	c #08997E",
"KV 	c #08766C",
"LV 	c #087568",
"MV 	c #055B60",
"NV 	c #06545C",
"OV 	c #0B4B59",
"PV 	c #07545B",
"QV 	c #09565B",
"RV 	c #074E58",
"SV 	c #054A56",
"TV 	c #054250",
"UV 	c #031432",
"VV 	c #074454",
"WV 	c #0D706B",
"XV 	c #075E5C",
"YV 	c #074F57",
"ZV 	c #0A4956",
"`V 	c #06585D",
" W 	c #055D5F",
".W 	c #067769",
"+W 	c #077468",
"@W 	c #079179",
"#W 	c #089B80",
"$W 	c #0C8B78",
"%W 	c #0C6B66",
"&W 	c #032035",
"*W 	c #066860",
"=W 	c #06766A",
"-W 	c #08786B",
";W 	c #0A8671",
">W 	c #11BE90",
",W 	c #12C193",
"'W 	c #16A383",
")W 	c #17A285",
"!W 	c #159E81",
"~W 	c #19A083",
"{W 	c #20A988",
"]W 	c #1DAC87",
"^W 	c #12C791",
"/W 	c #15E9A7",
"(W 	c #1EF9B2",
"_W 	c #26FCB4",
":W 	c #25ECAA",
"<W 	c #1AC68F",
"[W 	c #074543",
"}W 	c #0D4346",
"|W 	c #094A4D",
"1W 	c #068263",
"2W 	c #19B384",
"3W 	c #24E5A6",
"4W 	c #1FF2AA",
"5W 	c #1DF8AC",
"6W 	c #1FFAAD",
"7W 	c #1BFAAC",
"8W 	c #1BFBAD",
"9W 	c #1EFCAD",
"0W 	c #21FCAE",
"aW 	c #25FCB0",
"bW 	c #29FCB0",
"cW 	c #2BFBAF",
"dW 	c #2DFAAF",
"eW 	c #2FFAAE",
"fW 	c #32FAAC",
"gW 	c #37F8AE",
"hW 	c #3AF9A9",
"iW 	c #2BC78C",
"jW 	c #0B6755",
"kW 	c #148058",
"lW 	c #61B45F",
"mW 	c #87DA5D",
"nW 	c #349B5D",
"oW 	c #1A8450",
"pW 	c #396D45",
"qW 	c #E8F35B",
"rW 	c #F9FC57",
"sW 	c #F8FC57",
"tW 	c #F5FB55",
"uW 	c #F2FB4D",
"vW 	c #FBFD4C",
"wW 	c #F9FC49",
"xW 	c #F5FB49",
"yW 	c #F6FB46",
"zW 	c #F9FC46",
"AW 	c #EDFC42",
"BW 	c #DAF83E",
"CW 	c #85D856",
"DW 	c #449A4F",
"EW 	c #26784F",
"FW 	c #57C968",
"GW 	c #4DD36B",
"HW 	c #43C863",
"IW 	c #11564A",
"JW 	c #08725F",
"KW 	c #08876D",
"LW 	c #0C9977",
"MW 	c #0D9977",
"NW 	c #0C9677",
"OW 	c #0E8E74",
"PW 	c #0D947A",
"QW 	c #0FC38D",
"RW 	c #11C790",
"SW 	c #12CF94",
"TW 	c #0FE5A3",
"UW 	c #0DE7A5",
"VW 	c #0EEDAA",
"WW 	c #0CF6B0",
"XW 	c #0CEEA9",
"YW 	c #0BE29E",
"ZW 	c #10E4A0",
"`W 	c #10D99D",
" X 	c #0BBF90",
".X 	c #0FD293",
"+X 	c #0CDB9B",
"@X 	c #0BDE9D",
"#X 	c #0DE1A0",
"$X 	c #0CEAA6",
"%X 	c #0BF2A9",
"&X 	c #0CF1A8",
"*X 	c #0EDD9C",
"=X 	c #0CA47D",
"-X 	c #10977D",
";X 	c #0DA97F",
">X 	c #0CA87E",
",X 	c #0DA77F",
"'X 	c #0BA77D",
")X 	c #0BA079",
"!X 	c #0E9073",
"~X 	c #104D4A",
"{X 	c #2D9357",
"]X 	c #3CB365",
"^X 	c #49CC70",
"/X 	c #198256",
"(X 	c #247656",
"_X 	c #9DDD51",
":X 	c #C0F455",
"<X 	c #E0FA53",
"[X 	c #F5FC4C",
"}X 	c #F5FC4F",
"|X 	c #F6FC50",
"1X 	c #F9FC50",
"2X 	c #FAFC50",
"3X 	c #F9FC54",
"4X 	c #F3FB56",
"5X 	c #E6F858",
"6X 	c #EDFA5D",
"7X 	c #EFFB5F",
"8X 	c #F4FC5C",
"9X 	c #F9FC58",
"0X 	c #FAFC56",
"aX 	c #F5FA53",
"bX 	c #82A455",
"cX 	c #137B54",
"dX 	c #1E9063",
"eX 	c #40B666",
"fX 	c #3D9F5D",
"gX 	c #16674F",
"hX 	c #4DC37C",
"iX 	c #49E393",
"jX 	c #39FAA9",
"kX 	c #34FAAD",
"lX 	c #2FFBAC",
"mX 	c #28FBAE",
"nX 	c #26FCAF",
"oX 	c #24FCAF",
"pX 	c #22FCAF",
"qX 	c #1FFCAF",
"rX 	c #18FCAE",
"sX 	c #15FCAF",
"tX 	c #11E3A1",
"uX 	c #0EDD9B",
"vX 	c #13DC9C",
"wX 	c #28F5AF",
"xX 	c #25DC9D",
"yX 	c #0CB77E",
"zX 	c #06524A",
"AX 	c #094A49",
"BX 	c #0F4548",
"CX 	c #113F44",
"DX 	c #1E9D78",
"EX 	c #24DDA0",
"FX 	c #24F8B1",
"GX 	c #24FBB2",
"HX 	c #24F9B2",
"IX 	c #1AC996",
"JX 	c #1DB58E",
"KX 	c #19A382",
"LX 	c #16A182",
"MX 	c #13A884",
"NX 	c #14AD87",
"OX 	c #12AC87",
"PX 	c #10AA85",
"QX 	c #0EA483",
"RX 	c #0D8874",
"SX 	c #0C8671",
"TX 	c #0A7F6E",
"UX 	c #09786B",
"VX 	c #098673",
"WX 	c #098D76",
"XX 	c #032B3C",
"YX 	c #0A454D",
"ZX 	c #0C756D",
"`X 	c #098975",
" Y 	c #078C77",
".Y 	c #098871",
"+Y 	c #09515C",
"@Y 	c #09515E",
"#Y 	c #075B60",
"$Y 	c #075C5F",
"%Y 	c #07535A",
"&Y 	c #075059",
"*Y 	c #074957",
"=Y 	c #084A55",
"-Y 	c #043548",
";Y 	c #04263D",
">Y 	c #074B56",
",Y 	c #08505C",
"'Y 	c #084654",
")Y 	c #084F58",
"!Y 	c #065D5F",
"~Y 	c #0A535B",
"{Y 	c #08525D",
"]Y 	c #09525D",
"^Y 	c #08545E",
"/Y 	c #097066",
"(Y 	c #0A977B",
"_Y 	c #088F79",
":Y 	c #098B74",
"<Y 	c #0D7A70",
"[Y 	c #0C595C",
"}Y 	c #098572",
"|Y 	c #0A786B",
"1Y 	c #097F6D",
"2Y 	c #0D826F",
"3Y 	c #0D8975",
"4Y 	c #10A081",
"5Y 	c #10A883",
"6Y 	c #11AB87",
"7Y 	c #13AA86",
"8Y 	c #14A684",
"9Y 	c #17A182",
"0Y 	c #1CA484",
"aY 	c #1EA988",
"bY 	c #19C995",
"cY 	c #1FEDAA",
"dY 	c #24FCB3",
"eY 	c #25FBB3",
"fY 	c #25E5A6",
"gY 	c #1EC48F",
"hY 	c #144647",
"iY 	c #104548",
"jY 	c #064C48",
"kY 	c #0A9F6F",
"lY 	c #1EC98F",
"mY 	c #2DF7B1",
"nY 	c #1CE0A2",
"oY 	c #13DC9A",
"pY 	c #15DE9E",
"qY 	c #17F8AF",
"rY 	c #19FCAE",
"sY 	c #1FFCAE",
"tY 	c #22FDAF",
"uY 	c #25FCAF",
"vY 	c #26FCAE",
"wY 	c #29FBAE",
"xY 	c #2CFBAE",
"yY 	c #33FBAC",
"zY 	c #38FAA9",
"AY 	c #3CDC93",
"BY 	c #38A96A",
"CY 	c #1E7854",
"DY 	c #358857",
"EY 	c #4EB462",
"FY 	c #238D62",
"GY 	c #157F57",
"HY 	c #37764E",
"IY 	c #EAF457",
"JY 	c #F6FC5A",
"KY 	c #F2FB5D",
"LY 	c #F1FB5C",
"MY 	c #E7F756",
"NY 	c #EFF954",
"OY 	c #FAFC53",
"PY 	c #F4FB4A",
"QY 	c #F2FC4A",
"RY 	c #D1F74E",
"SY 	c #AEE84E",
"TY 	c #4A9456",
"UY 	c #1D7652",
"VY 	c #288453",
"WY 	c #50C96C",
"XY 	c #49CC6A",
"YY 	c #3FB95F",
"ZY 	c #12534B",
"`Y 	c #0E7968",
" Z 	c #0B9976",
".Z 	c #0B9F7A",
"+Z 	c #0DA07B",
"@Z 	c #0CA07B",
"#Z 	c #0E9E7B",
"$Z 	c #0E987C",
"%Z 	c #0C987B",
"&Z 	c #0CA37C",
"*Z 	c #12C48E",
"=Z 	c #0FDD9B",
"-Z 	c #0EEEA7",
";Z 	c #0BF3A9",
">Z 	c #0CF2AA",
",Z 	c #0DE2A2",
"'Z 	c #0BE1A0",
")Z 	c #0ADC9B",
"!Z 	c #0EDA98",
"~Z 	c #12D397",
"{Z 	c #0EBB8D",
"]Z 	c #10C38C",
"^Z 	c #10D196",
"/Z 	c #11D799",
"(Z 	c #12DC9F",
"_Z 	c #0FE4A3",
":Z 	c #0CEFA6",
"<Z 	c #0FF5A9",
"[Z 	c #0FBB8A",
"}Z 	c #109F7E",
"|Z 	c #159B80",
"1Z 	c #169A7F",
"2Z 	c #0FBB88",
"3Z 	c #0DAA81",
"4Z 	c #0DA37E",
"5Z 	c #0EB584",
"6Z 	c #0EBD85",
"7Z 	c #13B584",
"8Z 	c #0E4747",
"9Z 	c #0B574E",
"0Z 	c #1C7D55",
"aZ 	c #25AB62",
"bZ 	c #25A663",
"cZ 	c #198E5B",
"dZ 	c #1B574B",
"eZ 	c #A7DD54",
"fZ 	c #C1F45A",
"gZ 	c #CDF65E",
"hZ 	c #EDFA52",
"iZ 	c #F4FA54",
"jZ 	c #F3F957",
"kZ 	c #F0F957",
"lZ 	c #ECF858",
"mZ 	c #EDF857",
"nZ 	c #E9F758",
"oZ 	c #E7F758",
"pZ 	c #E6F659",
"qZ 	c #E8F860",
"rZ 	c #E7F861",
"sZ 	c #ECF85E",
"tZ 	c #F5FB5A",
"uZ 	c #F1F955",
"vZ 	c #DFF054",
"wZ 	c #67914F",
"xZ 	c #117955",
"yZ 	c #209C64",
"zZ 	c #4EC968",
"AZ 	c #43AF60",
"BZ 	c #1A604C",
"CZ 	c #67E795",
"DZ 	c #57F7A1",
"EZ 	c #36FAAB",
"FZ 	c #31FAAC",
"GZ 	c #2DFBAD",
"HZ 	c #2AFBAE",
"IZ 	c #27FBAE",
"JZ 	c #22FDAE",
"KZ 	c #1DFCAE",
"LZ 	c #19FCAC",
"MZ 	c #15FCAE",
"NZ 	c #0FF5AD",
"OZ 	c #0EEEA8",
"PZ 	c #1DF7AE",
"QZ 	c #1EDF9D",
"RZ 	c #0BC086",
"SZ 	c #0B6057",
"TZ 	c #0F5754",
"UZ 	c #0C4345",
"VZ 	c #07363A",
"WZ 	c #128E6E",
"XZ 	c #23D39A",
"YZ 	c #2EF6B1",
"ZZ 	c #27F9B1",
"`Z 	c #23F5AF",
" ` 	c #0EAB83",
".` 	c #0EA381",
"+` 	c #11A17F",
"@` 	c #10C391",
"#` 	c #0FB48C",
"$` 	c #0DA684",
"%` 	c #0F9A7E",
"&` 	c #0C8A76",
"*` 	c #098671",
"=` 	c #077F6D",
"-` 	c #067668",
";` 	c #098471",
">` 	c #078671",
",` 	c #052038",
"'` 	c #09434B",
")` 	c #098B76",
"!` 	c #088975",
"~` 	c #088475",
"{` 	c #085C61",
"]` 	c #076763",
"^` 	c #0C4854",
"/` 	c #0A6E66",
"(` 	c #0C8370",
"_` 	c #066665",
":` 	c #0C545C",
"<` 	c #08545D",
"[` 	c #07414F",
"}` 	c #08384A",
"|` 	c #06374B",
"1` 	c #04263E",
"2` 	c #08384B",
"3` 	c #084E56",
"4` 	c #08525A",
"5` 	c #08535C",
"6` 	c #0B535C",
"7` 	c #076A65",
"8` 	c #0A7269",
"9` 	c #0A6F68",
"0` 	c #0B4855",
"a` 	c #078072",
"b` 	c #0C786F",
"c` 	c #021730",
"d` 	c #041B34",
"e` 	c #054851",
"f` 	c #088471",
"g` 	c #088773",
"h` 	c #077669",
"i` 	c #0A826F",
"j` 	c #0C8B76",
"k` 	c #0F9B7F",
"l` 	c #0FA483",
"m` 	c #0EAF89",
"n` 	c #10BF8E",
"o` 	c #14A180",
"p` 	c #129F7F",
"q` 	c #13A181",
"r` 	c #10B086",
"s` 	c #1FE6A6",
"t` 	c #22F8AF",
"u` 	c #28F9B1",
"v` 	c #28DEA2",
"w` 	c #1BB88A",
"x` 	c #0D3D3E",
"y` 	c #0D4245",
"z` 	c #0E4A4C",
"A` 	c #0A5651",
"B` 	c #09A575",
"C` 	c #1BCC8F",
"D` 	c #22FAAF",
"E` 	c #14E5A3",
"F` 	c #0CE5A1",
"G` 	c #0FECA8",
"H` 	c #16F9AF",
"I` 	c #14FCB0",
"J` 	c #18FCAC",
"K` 	c #31FAAD",
"L` 	c #37FAAC",
"M` 	c #4EF7A3",
"N` 	c #68EE98",
"O` 	c #368A5E",
"P` 	c #369155",
"Q` 	c #51CF6C",
"R` 	c #29A065",
"S` 	c #148759",
"T` 	c #2F6E4F",
"U` 	c #DCEC54",
"V` 	c #F3F954",
"W` 	c #F2FB5C",
"X` 	c #ECFA60",
"Y` 	c #E9FA61",
"Z` 	c #E9F85B",
"`` 	c #EDF959",
"  .	c #EFF958",
". .	c #EEF956",
"+ .	c #F0FA57",
"@ .	c #EFFA57",
"# .	c #F2FA56",
"$ .	c #F7FB53",
"% .	c #F5FB50",
"& .	c #D3F85B",
"* .	c #C0F55C",
"= .	c #B1EB54",
"- .	c #3B7450",
"; .	c #158357",
"> .	c #28AE65",
", .	c #2CB266",
"' .	c #24935C",
") .	c #136351",
"! .	c #0D4B4A",
"~ .	c #158D70",
"{ .	c #0FB77F",
"] .	c #0DB283",
"^ .	c #0DAA82",
"/ .	c #0EA981",
"( .	c #0EB786",
"_ .	c #12A381",
": .	c #12987F",
"< .	c #0EA07E",
"[ .	c #10B889",
"} .	c #0ED295",
"| .	c #10F0A7",
"1 .	c #0AF1A7",
"2 .	c #0BEBA5",
"3 .	c #11DC9E",
"4 .	c #10DC9E",
"5 .	c #0ED698",
"6 .	c #0FC78D",
"7 .	c #0EC48C",
"8 .	c #0DB187",
"9 .	c #0DC08C",
"0 .	c #0FC08C",
"a .	c #10CD95",
"b .	c #13D398",
"c .	c #13DA9D",
"d .	c #12E2A1",
"e .	c #0CEAA5",
"f .	c #0DEAA4",
"g .	c #14F0A8",
"h .	c #17EFA6",
"i .	c #14D99B",
"j .	c #2AE8A3",
"k .	c #36E9A3",
"l .	c #36DF9A",
"m .	c #1FBB90",
"n .	c #11B78B",
"o .	c #11E097",
"p .	c #0FDB96",
"q .	c #17C38F",
"r .	c #0A4948",
"s .	c #064E4A",
"t .	c #1E7B53",
"u .	c #35C164",
"v .	c #219464",
"w .	c #157658",
"x .	c #094B4A",
"y .	c #3B8651",
"z .	c #489C55",
"A .	c #51B75C",
"B .	c #57B55B",
"C .	c #56B25E",
"D .	c #54AE5B",
"E .	c #52AF5C",
"F .	c #52AA5A",
"G .	c #4E9D55",
"H .	c #4C9E55",
"I .	c #4B9E52",
"J .	c #4B9B52",
"K .	c #4D9C52",
"L .	c #4F9D51",
"M .	c #5CA657",
"N .	c #B2D052",
"O .	c #9EBA51",
"P .	c #42824E",
"Q .	c #1C634D",
"R .	c #117752",
"S .	c #229D63",
"T .	c #51CD68",
"U .	c #48AE5D",
"V .	c #1D644C",
"W .	c #70EA99",
"X .	c #5CF8A3",
"Y .	c #34FAAC",
"Z .	c #31FBAC",
"` .	c #2CFBAC",
" ..	c #23FDAF",
"...	c #1DFCAF",
"+..	c #14FCAE",
"@..	c #11FBAE",
"#..	c #11F8AF",
"$..	c #17F4AE",
"%..	c #15E7A5",
"&..	c #1DF8AF",
"*..	c #1EDE9C",
"=..	c #0AA778",
"-..	c #096258",
";..	c #0E5854",
">..	c #0F4747",
",..	c #0D3E3E",
"'..	c #118A6A",
")..	c #20CC96",
"!..	c #32F4B0",
"~..	c #2BF9B0",
"{..	c #25F6AF",
"]..	c #10AE85",
"^..	c #0EA280",
"/..	c #0F9E7E",
"(..	c #0FA07E",
"_..	c #0FC794",
":..	c #10DEA1",
"<..	c #0EAB87",
"[..	c #0AA382",
"}..	c #0C9D7F",
"|..	c #0A8C77",
"1..	c #077868",
"2..	c #097769",
"3..	c #05645A",
"4..	c #031E32",
"5..	c #011330",
"6..	c #074149",
"7..	c #078A76",
"8..	c #078978",
"9..	c #068172",
"0..	c #096A67",
"a..	c #076768",
"b..	c #0A706C",
"c..	c #0C736C",
"d..	c #0A555F",
"e..	c #09555D",
"f..	c #08525B",
"g..	c #064954",
"h..	c #06384B",
"i..	c #083A4D",
"j..	c #054150",
"k..	c #09545B",
"l..	c #0B6A67",
"m..	c #0B766F",
"n..	c #086A69",
"o..	c #086664",
"p..	c #085C5D",
"q..	c #078474",
"r..	c #068C75",
"s..	c #0A796E",
"t..	c #095457",
"u..	c #06695D",
"v..	c #097C6C",
"w..	c #09836F",
"x..	c #0A8D76",
"y..	c #0E987D",
"z..	c #0A9F80",
"A..	c #11D69D",
"B..	c #0ED29A",
"C..	c #10A27F",
"D..	c #0FA07F",
"E..	c #0E9F7F",
"F..	c #0AA47E",
"G..	c #20E5A6",
"H..	c #2AF9B2",
"I..	c #31F7B2",
"J..	c #27D79D",
"K..	c #0FAD7F",
"L..	c #0A3C3C",
"M..	c #0D4444",
"N..	c #0F4B4C",
"O..	c #0C5F59",
"P..	c #099D72",
"Q..	c #17CA8E",
"R..	c #1DF8AE",
"S..	c #14E9A6",
"T..	c #13EDA8",
"U..	c #11F9B0",
"V..	c #12FBAF",
"W..	c #13FCAE",
"X..	c #17FCAD",
"Y..	c #21FCAF",
"Z..	c #2BFBAD",
"`..	c #30FAAD",
" +.	c #35FAAC",
".+.	c #51F8A3",
"++.	c #70F29C",
"@+.	c #3D8D5F",
"#+.	c #389053",
"$+.	c #56D46C",
"%+.	c #2CA364",
"&+.	c #14875A",
"*+.	c #195D4C",
"=+.	c #84AB4F",
"-+.	c #B9D153",
";+.	c #E5F259",
">+.	c #ACD65C",
",+.	c #9CCB59",
"'+.	c #9DCA5A",
")+.	c #99C858",
"!+.	c #99CA58",
"~+.	c #99C95A",
"{+.	c #A0D15C",
"]+.	c #A1D65F",
"^+.	c #A2D55E",
"/+.	c #A6D75F",
"(+.	c #A6DB5E",
"_+.	c #97DB5F",
":+.	c #8ACD5C",
"<+.	c #81BB54",
"[+.	c #29614C",
"}+.	c #106D51",
"|+.	c #209A64",
"1+.	c #2FB764",
"2+.	c #249558",
"3+.	c #09544C",
"4+.	c #084B4A",
"5+.	c #18A07D",
"6+.	c #0ED391",
"7+.	c #11D391",
"8+.	c #10BC8A",
"9+.	c #12B18A",
"0+.	c #1DCE92",
"a+.	c #28CF96",
"b+.	c #2ED399",
"c+.	c #15C191",
"d+.	c #15D498",
"e+.	c #14E2A1",
"f+.	c #10EDA5",
"g+.	c #0CEDA5",
"h+.	c #0FE8A4",
"i+.	c #13DB9E",
"j+.	c #11D89B",
"k+.	c #12D096",
"l+.	c #0DC28C",
"m+.	c #0EB187",
"n+.	c #0EBF8D",
"o+.	c #10C691",
"p+.	c #11CD95",
"q+.	c #12D598",
"r+.	c #14E7A4",
"s+.	c #13EDA5",
"t+.	c #12F0A8",
"u+.	c #0FF0A8",
"v+.	c #13F5AA",
"w+.	c #13F8AB",
"x+.	c #10E2A3",
"y+.	c #15EFA8",
"z+.	c #2BF4AB",
"A+.	c #5CF7AA",
"B+.	c #32DDA2",
"C+.	c #19DB9E",
"D+.	c #13EFA1",
"E+.	c #10EA9F",
"F+.	c #17D095",
"G+.	c #0A7C64",
"H+.	c #0B514E",
"I+.	c #125F52",
"J+.	c #178D62",
"K+.	c #198E60",
"L+.	c #147259",
"M+.	c #054C49",
"N+.	c #065348",
"O+.	c #095848",
"P+.	c #0A5B48",
"Q+.	c #0A5C4A",
"R+.	c #095B49",
"S+.	c #085A49",
"T+.	c #08594B",
"U+.	c #075848",
"V+.	c #065649",
"W+.	c #055549",
"X+.	c #075648",
"Y+.	c #095745",
"Z+.	c #085646",
"`+.	c #0A5849",
" @.	c #1E5948",
".@.	c #1A5949",
"+@.	c #095B4C",
"@@.	c #0C594E",
"#@.	c #177A53",
"$@.	c #22A260",
"%@.	c #41B567",
"&@.	c #3B9F60",
"*@.	c #227B59",
"=@.	c #5EE799",
"-@.	c #4FF5A3",
";@.	c #35FAAA",
">@.	c #30FAAA",
",@.	c #2CF9A9",
"'@.	c #2AF9A9",
")@.	c #28FAAB",
"!@.	c #28FCAD",
"~@.	c #53FBAE",
"{@.	c #48FBB0",
"]@.	c #1EFBB2",
"^@.	c #17FCB0",
"/@.	c #14FBAD",
"(@.	c #16F8B0",
"_@.	c #1CF6B0",
":@.	c #19E8A8",
"<@.	c #20F7AE",
"[@.	c #24E1A0",
"}@.	c #14B786",
"|@.	c #0F665D",
"1@.	c #0B5652",
"2@.	c #0B4848",
"3@.	c #0E403F",
"4@.	c #14896B",
"5@.	c #1CC892",
"6@.	c #2EF4AC",
"7@.	c #2BFAAB",
"8@.	c #27F6AB",
"9@.	c #11C794",
"0@.	c #0FAC86",
"a@.	c #0F987A",
"b@.	c #11A07E",
"c@.	c #13B98D",
"d@.	c #11C695",
"e@.	c #0FB68D",
"f@.	c #0CAE87",
"g@.	c #0BA583",
"h@.	c #0A8E76",
"i@.	c #098973",
"j@.	c #087E6C",
"k@.	c #011230",
"l@.	c #073F48",
"m@.	c #087169",
"n@.	c #068875",
"o@.	c #068976",
"p@.	c #068977",
"q@.	c #075E5E",
"r@.	c #057D70",
"s@.	c #06746C",
"t@.	c #076265",
"u@.	c #07555F",
"v@.	c #095761",
"w@.	c #095860",
"x@.	c #08515B",
"y@.	c #09555E",
"z@.	c #07535C",
"A@.	c #05384C",
"B@.	c #095660",
"C@.	c #09565F",
"D@.	c #075C61",
"E@.	c #058171",
"F@.	c #065B5D",
"G@.	c #068071",
"H@.	c #058776",
"I@.	c #058A76",
"J@.	c #085255",
"K@.	c #045753",
"L@.	c #0B7769",
"M@.	c #0A7E6C",
"N@.	c #098670",
"O@.	c #098F77",
"P@.	c #0CA081",
"Q@.	c #0AA784",
"R@.	c #0FAC88",
"S@.	c #10C695",
"T@.	c #11C392",
"U@.	c #139E7D",
"V@.	c #109A7C",
"W@.	c #10BF8F",
"X@.	c #22E9A5",
"Y@.	c #29FAAC",
"Z@.	c #2EF7AF",
"`@.	c #26D59C",
" #.	c #14AF84",
".#.	c #124342",
"+#.	c #0D4948",
"@#.	c #0A4849",
"##.	c #0A6058",
"$#.	c #0FA077",
"%#.	c #1ECD93",
"&#.	c #23FBB1",
"*#.	c #1BEEAB",
"=#.	c #1CF1AD",
"-#.	c #19F9B1",
";#.	c #12F8AF",
">#.	c #12FBAD",
",#.	c #19FCB1",
"'#.	c #32FCB0",
")#.	c #28FCAE",
"!#.	c #29FBAD",
"~#.	c #2AFAAB",
"{#.	c #2FFBAB",
"]#.	c #34FAAB",
"^#.	c #52F8A5",
"/#.	c #70F29E",
"(#.	c #3D9566",
"_#.	c #388F53",
":#.	c #55CE6B",
"<#.	c #2BA562",
"[#.	c #198958",
"}#.	c #0B564C",
"|#.	c #0E624D",
"1#.	c #2D6A4B",
"2#.	c #457149",
"3#.	c #1C644A",
"4#.	c #0D5E47",
"5#.	c #0D5D46",
"6#.	c #0C5D47",
"7#.	c #0B5E48",
"8#.	c #0C5E49",
"9#.	c #0D5F49",
"0#.	c #10644D",
"a#.	c #10674D",
"b#.	c #10674B",
"c#.	c #12684B",
"d#.	c #11674A",
"e#.	c #115E4A",
"f#.	c #0B5449",
"g#.	c #074C4A",
"h#.	c #0C5B50",
"i#.	c #1C8D64",
"j#.	c #219662",
"k#.	c #177357",
"l#.	c #0B4B4A",
"m#.	c #096056",
"n#.	c #19A882",
"o#.	c #0FDF99",
"p#.	c #10E99C",
"q#.	c #15D297",
"r#.	c #2ACA9C",
"s#.	c #59EEA5",
"t#.	c #42F3A8",
"u#.	c #21F4AA",
"v#.	c #11EAA7",
"w#.	c #13F4A9",
"x#.	c #13F7AB",
"y#.	c #0EEBA6",
"z#.	c #0FEBA5",
"A#.	c #12E8A2",
"B#.	c #13DC9D",
"C#.	c #12D79A",
"D#.	c #11CE95",
"E#.	c #0FC390",
"F#.	c #0EC08E",
"G#.	c #0EAE85",
"H#.	c #11B084",
"I#.	c #10C38F",
"J#.	c #10D096",
"K#.	c #12DA9B",
"L#.	c #15F6AB",
"M#.	c #12F7A9",
"N#.	c #14F6AA",
"O#.	c #0DE9A1",
"P#.	c #0CEBA4",
"Q#.	c #0EEDA6",
"R#.	c #0CD69B",
"S#.	c #13E9A5",
"T#.	c #18F4AA",
"U#.	c #20F7AC",
"V#.	c #1CF9AC",
"W#.	c #1AFAAA",
"X#.	c #19F7AA",
"Y#.	c #1DE3A2",
"Z#.	c #0D6157",
"`#.	c #147455",
" $.	c #21B564",
".$.	c #21B664",
"+$.	c #1A8D5B",
"@$.	c #0B604D",
"#$.	c #1CA362",
"$$.	c #1CA861",
"%$.	c #1DA662",
"&$.	c #2FB464",
"*$.	c #34B660",
"=$.	c #2BB161",
"-$.	c #25AD5E",
";$.	c #23AD5F",
">$.	c #28AD5D",
",$.	c #1C8855",
"'$.	c #1A9358",
")$.	c #26A75C",
"!$.	c #22A35B",
"~$.	c #20A25A",
"{$.	c #24A15B",
"]$.	c #13664C",
"^$.	c #0E674B",
"/$.	c #117650",
"($.	c #1F9E5A",
"_$.	c #26B160",
":$.	c #31BD65",
"<$.	c #1B6D4F",
"[$.	c #1E9C70",
"}$.	c #1FD98F",
"|$.	c #2CF0A1",
"1$.	c #39F3A7",
"2$.	c #42F2A6",
"3$.	c #2BE49D",
"4$.	c #21E09A",
"5$.	c #21DF97",
"6$.	c #20E19C",
"7$.	c #22ECA2",
"8$.	c #23F8A8",
"9$.	c #3CFAAC",
"0$.	c #36FAAD",
"a$.	c #1DF8AA",
"b$.	c #18F9AA",
"c$.	c #16F9AB",
"d$.	c #15F8AB",
"e$.	c #16F7AB",
"f$.	c #1DF7AD",
"g$.	c #27F3AE",
"h$.	c #25F3AA",
"i$.	c #28DD9D",
"j$.	c #15B886",
"k$.	c #0E5D54",
"l$.	c #0C3D40",
"m$.	c #09735E",
"n$.	c #16AD7F",
"o$.	c #2EEFA6",
"p$.	c #2CF8A9",
"q$.	c #2AF7A9",
"r$.	c #14C592",
"s$.	c #0DA282",
"t$.	c #10AC86",
"u$.	c #10B98C",
"v$.	c #0FBD8F",
"w$.	c #0CC190",
"x$.	c #0BB58A",
"y$.	c #099177",
"z$.	c #078A74",
"A$.	c #077E6C",
"B$.	c #04514F",
"C$.	c #01112F",
"D$.	c #083542",
"E$.	c #09615F",
"F$.	c #077F6F",
"G$.	c #068171",
"H$.	c #075359",
"I$.	c #0A6562",
"J$.	c #065E61",
"K$.	c #076A66",
"L$.	c #086F67",
"M$.	c #075B62",
"N$.	c #095D64",
"O$.	c #084D58",
"P$.	c #06414F",
"Q$.	c #04364A",
"R$.	c #09515B",
"S$.	c #095C63",
"T$.	c #085C63",
"U$.	c #07535F",
"V$.	c #086463",
"W$.	c #087C6F",
"X$.	c #094E57",
"Y$.	c #078574",
"Z$.	c #068572",
"`$.	c #0A6D68",
" %.	c #094B51",
".%.	c #054246",
"+%.	c #096D62",
"@%.	c #06826F",
"#%.	c #088671",
"$%.	c #0BA985",
"%%.	c #0AB689",
"&%.	c #0DC191",
"*%.	c #0DBE90",
"=%.	c #11AE86",
"-%.	c #0DA383",
";%.	c #0EC592",
">%.	c #25EAA4",
",%.	c #2DF9AA",
"'%.	c #2EF7AB",
")%.	c #1FC58E",
"!%.	c #0C9A76",
"~%.	c #0D3D3C",
"{%.	c #0D4848",
"]%.	c #0E4B4C",
"^%.	c #105D57",
"/%.	c #15A77C",
"(%.	c #20CF93",
"_%.	c #20F5AA",
":%.	c #22F0AC",
"<%.	c #1FF5AE",
"[%.	c #17F7AD",
"}%.	c #15FAAC",
"|%.	c #17FBAC",
"1%.	c #1CFBAE",
"2%.	c #3BFAAF",
"3%.	c #60FBAC",
"4%.	c #37FAAB",
"5%.	c #24F5A8",
"6%.	c #23ECA2",
"7%.	c #26E99E",
"8%.	c #27E99F",
"9%.	c #28EBA2",
"0%.	c #3EF6A9",
"a%.	c #3CF4A7",
"b%.	c #32EEA1",
"c%.	c #26C685",
"d%.	c #20A673",
"e%.	c #237E57",
"f%.	c #2AB063",
"g%.	c #25AB60",
"h%.	c #1D8F58",
"i%.	c #11704F",
"j%.	c #0B634B",
"k%.	c #0B5A48",
"l%.	c #1B8653",
"m%.	c #1A8C53",
"n%.	c #1B8953",
"o%.	c #1D8D55",
"p%.	c #188554",
"q%.	c #106D4E",
"r%.	c #1E9156",
"s%.	c #1A9357",
"t%.	c #1C9357",
"u%.	c #1E9659",
"v%.	c #259B5A",
"w%.	c #279B5A",
"x%.	c #18905A",
"y%.	c #158E58",
"z%.	c #168F5B",
"A%.	c #0D614E",
"B%.	c #0F6A51",
"C%.	c #20AD65",
"D%.	c #1EAA64",
"E%.	c #188359",
"F%.	c #0D4F4E",
"G%.	c #0D9F78",
"H%.	c #19C993",
"I%.	c #16F5A9",
"J%.	c #17F8A9",
"K%.	c #1BF8AB",
"L%.	c #21F8AD",
"M%.	c #35F8AD",
"N%.	c #29F8AD",
"O%.	c #12F6AB",
"P%.	c #0FCF98",
"Q%.	c #0FEAA5",
"R%.	c #10F1A8",
"S%.	c #0FF0A7",
"T%.	c #13F6AA",
"U%.	c #14FAAC",
"V%.	c #14F8AC",
"W%.	c #15E6A4",
"X%.	c #11C994",
"Y%.	c #11BC8C",
"Z%.	c #10A880",
"`%.	c #0CA47C",
" &.	c #0BD697",
".&.	c #0BD797",
"+&.	c #0CDC98",
"@&.	c #0AE09A",
"#&.	c #0BE39C",
"$&.	c #09E39C",
"%&.	c #09E59F",
"&&.	c #0AE6A1",
"*&.	c #0BEFA8",
"=&.	c #11E4A1",
"-&.	c #1DEBA4",
";&.	c #1FFAAB",
">&.	c #25F9AB",
",&.	c #22E89F",
"'&.	c #1EDC99",
")&.	c #0BB983",
"!&.	c #0D715F",
"~&.	c #0B5C55",
"{&.	c #0B6652",
"]&.	c #0A584E",
"^&.	c #074A4A",
"/&.	c #095249",
"(&.	c #0A5A4D",
"_&.	c #0A614C",
":&.	c #0E5849",
"<&.	c #105949",
"[&.	c #0E5647",
"}&.	c #0C5545",
"|&.	c #0C5544",
"1&.	c #0B5444",
"2&.	c #094B44",
"3&.	c #074C44",
"4&.	c #0A5044",
"5&.	c #095447",
"6&.	c #0B5648",
"7&.	c #105A4C",
"8&.	c #207854",
"9&.	c #1C6D52",
"0&.	c #0D464A",
"a&.	c #0C594C",
"b&.	c #0C624D",
"c&.	c #106853",
"d&.	c #107E61",
"e&.	c #15B982",
"f&.	c #1DF19F",
"g&.	c #24F3A1",
"h&.	c #20E49B",
"i&.	c #1DD393",
"j&.	c #1CE99E",
"k&.	c #1BEBA0",
"l&.	c #20E89D",
"m&.	c #2FDD9A",
"n&.	c #32DE9A",
"o&.	c #34E29C",
"p&.	c #35E89D",
"q&.	c #36EE9F",
"r&.	c #3AF0A4",
"s&.	c #3EF7A8",
"t&.	c #2EEAA3",
"u&.	c #18E4A0",
"v&.	c #1AEBA1",
"w&.	c #1AE79E",
"x&.	c #25DB9D",
"y&.	c #21C990",
"z&.	c #25B384",
"A&.	c #0C7760",
"B&.	c #044343",
"C&.	c #043F3F",
"D&.	c #05363B",
"E&.	c #065E50",
"F&.	c #0B8C69",
"G&.	c #1BB281",
"H&.	c #1BD28F",
"I&.	c #21F1A0",
"J&.	c #1CF1A5",
"K&.	c #1CD697",
"L&.	c #18BB8C",
"M&.	c #11AE87",
"N&.	c #0FAF86",
"O&.	c #10B188",
"P&.	c #0EC794",
"Q&.	c #0EC090",
"R&.	c #067164",
"S&.	c #045551",
"T&.	c #062C39",
"U&.	c #06514F",
"V&.	c #057162",
"W&.	c #067C6D",
"X&.	c #058873",
"Y&.	c #057168",
"Z&.	c #055B5D",
"`&.	c #05575C",
" *.	c #04565B",
".*.	c #054750",
"+*.	c #054350",
"@*.	c #043749",
"#*.	c #054251",
"$*.	c #085F62",
"%*.	c #076365",
"&*.	c #056361",
"**.	c #067D6F",
"=*.	c #057E6C",
"-*.	c #07605C",
";*.	c #083F47",
">*.	c #021130",
",*.	c #067365",
"'*.	c #05826F",
")*.	c #089277",
"!*.	c #0DB189",
"~*.	c #0BBD8D",
"{*.	c #0CC491",
"]*.	c #0FB88C",
"^*.	c #10B288",
"/*.	c #0EAF87",
"(*.	c #12A885",
"_*.	c #14B087",
":*.	c #1BE29F",
"<*.	c #23F0A2",
"[*.	c #25E99D",
"}*.	c #25D796",
"|*.	c #18AB7C",
"1*.	c #078266",
"2*.	c #07373B",
"3*.	c #064141",
"4*.	c #044242",
"5*.	c #044949",
"6*.	c #0E8568",
"7*.	c #22B082",
"8*.	c #25D798",
"9*.	c #2AEAA8",
"0*.	c #1FF1A7",
"a*.	c #19F4A9",
"b*.	c #18F4A9",
"c*.	c #1BF4A9",
"d*.	c #21F8A9",
"e*.	c #1FF2A4",
"f*.	c #1FEFA0",
"g*.	c #20EC9F",
"h*.	c #21E59C",
"i*.	c #1DDE99",
"j*.	c #1CD797",
"k*.	c #1EE49C",
"l*.	c #1CEA9F",
"m*.	c #1BE99E",
"n*.	c #2FD496",
"o*.	c #2AE09B",
"p*.	c #28F4A3",
"q*.	c #20F3A1",
"r*.	c #18CB8D",
"s*.	c #13584D",
"t*.	c #1F8056",
"u*.	c #1C8555",
"v*.	c #177F50",
"w*.	c #10634D",
"x*.	c #105D4C",
"y*.	c #125C4D",
"z*.	c #1C7952",
"A*.	c #157F51",
"B*.	c #1C7F4E",
"C*.	c #18794E",
"D*.	c #0F6649",
"E*.	c #1E804E",
"F*.	c #1B824F",
"G*.	c #1B834F",
"H*.	c #1F8451",
"I*.	c #258853",
"J*.	c #248A56",
"K*.	c #168153",
"L*.	c #138054",
"M*.	c #137F57",
"N*.	c #0B534B",
"O*.	c #0A574B",
"P*.	c #168155",
"Q*.	c #168354",
"R*.	c #116A52",
"S*.	c #0E5453",
"T*.	c #0DB281",
"U*.	c #1DD196",
"V*.	c #1FE9A1",
"W*.	c #20F8AA",
"X*.	c #1EFAAB",
"Y*.	c #1FF2A8",
"Z*.	c #1FD89C",
"`*.	c #15DE9D",
" =.	c #14DF9E",
".=.	c #0BE8A4",
"+=.	c #0BE5A0",
"@=.	c #09E49E",
"#=.	c #0DE79E",
"$=.	c #0CE89F",
"%=.	c #0FE59D",
"&=.	c #10DD9B",
"*=.	c #0CD698",
"==.	c #0CCE93",
"-=.	c #0CB686",
";=.	c #099976",
">=.	c #068268",
",=.	c #08A179",
"'=.	c #08B986",
")=.	c #09C489",
"!=.	c #09C688",
"~=.	c #0AC889",
"{=.	c #0ACB8C",
"]=.	c #0ACF8E",
"^=.	c #0BD18F",
"/=.	c #0AD390",
"(=.	c #09D694",
"_=.	c #0BD995",
":=.	c #0CD997",
"<=.	c #0CCD90",
"[=.	c #0FCC8D",
"}=.	c #14CE8F",
"|=.	c #23CD8E",
"1=.	c #1AC486",
"2=.	c #10BE82",
"3=.	c #09B07C",
"4=.	c #077A61",
"5=.	c #056D5B",
"6=.	c #06725B",
"7=.	c #076352",
"8=.	c #05554D",
"9=.	c #095245",
"0=.	c #0E7354",
"a=.	c #139B63",
"b=.	c #118F62",
"c=.	c #1A9066",
"d=.	c #17785B",
"e=.	c #0F6152",
"f=.	c #0C6052",
"g=.	c #0D614F",
"h=.	c #0B5F4F",
"i=.	c #106550",
"j=.	c #1A7658",
"k=.	c #1D7759",
"l=.	c #2E8E5B",
"m=.	c #3AAE61",
"n=.	c #2DAC61",
"o=.	c #27965C",
"p=.	c #093D48",
"q=.	c #07504B",
"r=.	c #095C50",
"s=.	c #086552",
"t=.	c #0A8B66",
"u=.	c #11A574",
"v=.	c #12B17B",
"w=.	c #12B27D",
"x=.	c #12B17D",
"y=.	c #12B07C",
"z=.	c #11AF7C",
"A=.	c #0EA275",
"B=.	c #12996F",
"C=.	c #2BC78B",
"D=.	c #32D18E",
"E=.	c #36D491",
"F=.	c #3CC88A",
"G=.	c #40C88C",
"H=.	c #46C98C",
"I=.	c #4DC98D",
"J=.	c #35AF7D",
"K=.	c #0AAA79",
"L=.	c #0DA676",
"M=.	c #0C956E",
"N=.	c #097C64",
"O=.	c #11926F",
"P=.	c #1A856D",
"Q=.	c #08514C",
"R=.	c #034B49",
"S=.	c #044C48",
"T=.	c #044A48",
"U=.	c #065652",
"V=.	c #0A9971",
"W=.	c #15C78D",
"X=.	c #12EFA0",
"Y=.	c #12F09D",
"Z=.	c #12EA9C",
"`=.	c #13D595",
" -.	c #12D295",
".-.	c #11C891",
"+-.	c #14BA8D",
"@-.	c #14AE88",
"#-.	c #0C997C",
"$-.	c #078973",
"%-.	c #078B73",
"&-.	c #088B73",
"*-.	c #06846E",
"=-.	c #05675D",
"--.	c #042738",
";-.	c #044B4B",
">-.	c #055F59",
",-.	c #067362",
"'-.	c #068E74",
")-.	c #068770",
"!-.	c #047F6E",
"~-.	c #057567",
"{-.	c #057666",
"]-.	c #06625E",
"^-.	c #04474E",
"/-.	c #03464E",
"(-.	c #053E4C",
"_-.	c #043142",
":-.	c #02182E",
"<-.	c #041B32",
"[-.	c #042E3F",
"}-.	c #042F3E",
"|-.	c #04404C",
"1-.	c #05434E",
"2-.	c #05444E",
"3-.	c #04464F",
"4-.	c #056760",
"5-.	c #056661",
"6-.	c #056763",
"7-.	c #056A65",
"8-.	c #067B6C",
"9-.	c #068772",
"0-.	c #067867",
"a-.	c #055551",
"b-.	c #06323C",
"c-.	c #051C32",
"d-.	c #03102F",
"e-.	c #055C58",
"f-.	c #057B69",
"g-.	c #0B967B",
"h-.	c #15B28A",
"i-.	c #16C996",
"j-.	c #13BD8C",
"k-.	c #12BE8C",
"l-.	c #1ADB97",
"m-.	c #16EC9C",
"n-.	c #16F3A2",
"o-.	c #19E49A",
"p-.	c #11BD83",
"q-.	c #0B705E",
"r-.	c #08564E",
"s-.	c #044244",
"t-.	c #034141",
"u-.	c #044443",
"v-.	c #034446",
"w-.	c #064E4B",
"x-.	c #1D876C",
"y-.	c #1AB582",
"z-.	c #169E7A",
"A-.	c #0E9E73",
"B-.	c #16C688",
"C-.	c #10BA82",
"D-.	c #32BC85",
"E-.	c #5FE49C",
"F-.	c #56E39C",
"G-.	c #4FE29B",
"H-.	c #4BE09A",
"I-.	c #46E49C",
"J-.	c #43E39A",
"K-.	c #3BDF99",
"L-.	c #24C387",
"M-.	c #14C087",
"N-.	c #16D894",
"O-.	c #17D291",
"P-.	c #18D593",
"Q-.	c #1AD893",
"R-.	c #18D892",
"S-.	c #17CC8B",
"T-.	c #0EAC76",
"U-.	c #0C755A",
"V-.	c #0A6854",
"W-.	c #09604F",
"X-.	c #248458",
"Y-.	c #34B864",
"Z-.	c #298E5A",
"`-.	c #1F7552",
" ;.	c #0F6050",
".;.	c #0D5D4E",
"+;.	c #0A564B",
"@;.	c #065048",
"#;.	c #065249",
"$;.	c #065349",
"%;.	c #07504A",
"&;.	c #0D5D4F",
"*;.	c #126955",
"=;.	c #0D6F56",
"-;.	c #0F825A",
";;.	c #0C7355",
">;.	c #0A5949",
",;.	c #07715C",
"';.	c #08715F",
");.	c #0AB780",
"!;.	c #16CA8C",
"~;.	c #19D591",
"{;.	c #2EE49D",
"];.	c #1CE69E",
"^;.	c #17E49B",
"/;.	c #12E09A",
"(;.	c #0FE39D",
"_;.	c #10E39E",
":;.	c #0BE29C",
"<;.	c #0BDB95",
"[;.	c #0BDA95",
"};.	c #0AD894",
"|;.	c #09D593",
"1;.	c #09D290",
"2;.	c #09CF90",
"3;.	c #09CC90",
"4;.	c #0BBD89",
"5;.	c #099A77",
"6;.	c #068369",
"7;.	c #094748",
"8;.	c #056359",
"9;.	c #056A5A",
"0;.	c #045D4F",
"a;.	c #045E51",
"b;.	c #046152",
"c;.	c #036353",
"d;.	c #046553",
"e;.	c #046754",
"f;.	c #046856",
"g;.	c #046956",
"h;.	c #046252",
"i;.	c #046353",
"j;.	c #046554",
"k;.	c #056552",
"l;.	c #066653",
"m;.	c #066755",
"n;.	c #056858",
"o;.	c #065E54",
"p;.	c #045750",
"q;.	c #034949",
"r;.	c #044648",
"s;.	c #053C45",
"t;.	c #073A41",
"u;.	c #107355",
"v;.	c #19A465",
"w;.	c #24C170",
"x;.	c #35C671",
"y;.	c #3EC66A",
"z;.	c #42C86C",
"A;.	c #4DC966",
"B;.	c #46BF69",
"C;.	c #4DC469",
"D;.	c #69D865",
"E;.	c #71D25F",
"F;.	c #6BC360",
"G;.	c #2B9257",
"H;.	c #105646",
"I;.	c #0C4D4A",
"J;.	c #053B48",
"K;.	c #0B684E",
"L;.	c #0C694F",
"M;.	c #0B6A4F",
"N;.	c #0A6850",
"O;.	c #064C46",
"P;.	c #034946",
"Q;.	c #034B45",
"R;.	c #034845",
"S;.	c #034547",
"T;.	c #055C4F",
"U;.	c #06634E",
"V;.	c #066450",
"W;.	c #065A4D",
"X;.	c #055A4E",
"Y;.	c #045A4D",
"Z;.	c #045C4E",
"`;.	c #045E50",
" >.	c #046052",
".>.	c #044B4A",
"+>.	c #034344",
"@>.	c #034545",
"#>.	c #044645",
"$>.	c #034745",
"%>.	c #044A47",
"&>.	c #034A47",
"*>.	c #034847",
"=>.	c #043A40",
"->.	c #03333F",
";>.	c #0C5A54",
">>.	c #10A67F",
",>.	c #0BAC7D",
"'>.	c #0CB07E",
")>.	c #0BB984",
"!>.	c #0BC48B",
"~>.	c #0EC38C",
"{>.	c #0A9D7E",
"]>.	c #079D7E",
"^>.	c #06977B",
"/>.	c #069679",
"(>.	c #07816A",
"_>.	c #03303B",
":>.	c #010F2E",
"<>.	c #030E2C",
"[>.	c #03132B",
"}>.	c #052537",
"|>.	c #065650",
"1>.	c #065A52",
"2>.	c #05665B",
"3>.	c #07514F",
"4>.	c #075350",
"5>.	c #074844",
"6>.	c #09544E",
"7>.	c #0A675B",
"8>.	c #075E54",
"9>.	c #0C4B4B",
"0>.	c #052C3A",
"a>.	c #052C3B",
"b>.	c #053041",
"c>.	c #053E45",
"d>.	c #084549",
"e>.	c #075751",
"f>.	c #086159",
"g>.	c #09625A",
"h>.	c #086B59",
"i>.	c #07695A",
"j>.	c #047765",
"k>.	c #057764",
"l>.	c #067560",
"m>.	c #054B4B",
"n>.	c #043943",
"o>.	c #03313E",
"p>.	c #06584F",
"q>.	c #078169",
"r>.	c #099D7F",
"s>.	c #0CC58E",
"t>.	c #0CD895",
"u>.	c #0CD693",
"v>.	c #0BD08E",
"w>.	c #0CCE8D",
"x>.	c #10CC90",
"y>.	c #109878",
"z>.	c #076F60",
"A>.	c #053040",
"B>.	c #044D49",
"C>.	c #044D4A",
"D>.	c #074F4C",
"E>.	c #05564D",
"F>.	c #06795D",
"G>.	c #097D5F",
"H>.	c #117E5F",
"I>.	c #0F7C5E",
"J>.	c #0D7B5F",
"K>.	c #0E7A5D",
"L>.	c #0D8C65",
"M>.	c #0C8B63",
"N>.	c #0C8161",
"O>.	c #07544F",
"P>.	c #044D48",
"Q>.	c #055049",
"R>.	c #045248",
"S>.	c #045249",
"T>.	c #055249",
"U>.	c #07624F",
"V>.	c #0B684F",
"W>.	c #09674F",
"X>.	c #0A644D",
"Y>.	c #09594C",
"Z>.	c #063F48",
"`>.	c #125B4F",
" ,.	c #197750",
".,.	c #37A95D",
"+,.	c #5AC063",
"@,.	c #65C161",
"#,.	c #56BF64",
"$,.	c #45B266",
"%,.	c #2CA065",
"&,.	c #33A761",
"*,.	c #33AB65",
"=,.	c #2FA665",
"-,.	c #2EB66E",
";,.	c #27C174",
">,.	c #1ABC71",
",,.	c #15905F",
"',.	c #0D6C4F",
"),.	c #0A4243",
"!,.	c #064C4A",
"~,.	c #04594F",
"{,.	c #078466",
"],.	c #088463",
"^,.	c #088561",
"/,.	c #0A8663",
"(,.	c #078666",
"_,.	c #068666",
":,.	c #068566",
"<,.	c #068F6D",
"[,.	c #069A73",
"},.	c #069971",
"|,.	c #06986F",
"1,.	c #06966C",
"2,.	c #06936C",
"3,.	c #068F6A",
"4,.	c #088B65",
"5,.	c #078A66",
"6,.	c #078B68",
"7,.	c #08886A",
"8,.	c #076057",
"9,.	c #055650",
"0,.	c #086A5B",
"a,.	c #076F5E",
"b,.	c #0A846B",
"c,.	c #088567",
"d,.	c #078569",
"e,.	c #098569",
"f,.	c #08886B",
"g,.	c #078A6C",
"h,.	c #0A906E",
"i,.	c #0C9470",
"j,.	c #119F75",
"k,.	c #0E745E",
"l,.	c #05584F",
"m,.	c #0B6455",
"n,.	c #5A9167",
"o,.	c #6BA572",
"p,.	c #66A573",
"q,.	c #5EA675",
"r,.	c #4DA376",
"s,.	c #309E74",
"t,.	c #147561",
"u,.	c #086958",
"v,.	c #04675B",
"w,.	c #05554E",
"x,.	c #06504C",
"y,.	c #084746",
"z,.	c #094E49",
"A,.	c #1D6E51",
"B,.	c #3FAC5A",
"C,.	c #4CB75A",
"D,.	c #67C054",
"E,.	c #69BF55",
"F,.	c #69BE57",
"G,.	c #68BC54",
"H,.	c #2F714F",
"I,.	c #19574E",
"J,.	c #064446",
"K,.	c #044144",
"L,.	c #034246",
"M,.	c #064346",
"N,.	c #064647",
"O,.	c #076052",
"P,.	c #066654",
"Q,.	c #076857",
"R,.	c #1A9D77",
"S,.	c #1BA379",
"T,.	c #1AA67B",
"U,.	c #1CA67C",
"V,.	c #1BA57C",
"W,.	c #17A67C",
"X,.	c #16A679",
"Y,.	c #14A278",
"Z,.	c #0A7964",
"`,.	c #077460",
" '.	c #057660",
".'.	c #067660",
"+'.	c #06745C",
"@'.	c #06735D",
"#'.	c #075C57",
"$'.	c #055855",
"%'.	c #055852",
"&'.	c #044C4A",
"*'.	c #034948",
"='.	c #034848",
"-'.	c #045852",
";'.	c #03554F",
">'.	c #03504B",
",'.	c #03514B",
"''.	c #05363D",
")'.	c #063C40",
"!'.	c #043F45",
"~'.	c #044248",
"{'.	c #055251",
"]'.	c #067B65",
"^'.	c #057E68",
"/'.	c #057C67",
"('.	c #067A64",
"_'.	c #057963",
":'.	c #057864",
"<'.	c #056455",
"['.	c #043E3D",
"}'.	c #010E2D",
"|'.	c #010F2D",
"1'.	c #021331",
"2'.	c #031A2F",
"3'.	c #04172E",
"4'.	c #030D2D",
"5'.	c #03092A",
"6'.	c #020628",
"7'.	c #031A31",
"8'.	c #031231",
"9'.	c #071F35",
"0'.	c #073B3F",
"a'.	c #05393D",
"b'.	c #042236",
"c'.	c #032F3B",
"d'.	c #042D38",
"e'.	c #041C32",
"f'.	c #040E2C",
"g'.	c #043F3E",
"h'.	c #06705D",
"i'.	c #069074",
"j'.	c #069377",
"k'.	c #069678",
"l'.	c #079678",
"m'.	c #077560",
"n'.	c #086E5D",
"o'.	c #086558",
"p'.	c #086056",
"q'.	c #065E56",
"r'.	c #05313D",
"s'.	c #043A3F",
"t'.	c #054E48",
"u'.	c #03514C",
"v'.	c #04554F",
"w'.	c #034747",
"x'.	c #034444",
"y'.	c #024545",
"z'.	c #034445",
"A'.	c #044447",
"B'.	c #034D4A",
"C'.	c #034E4A",
"D'.	c #044E4B",
"E'.	c #054D4B",
"F'.	c #095950",
"G'.	c #0A5C51",
"H'.	c #0A5E52",
"I'.	c #095D53",
"J'.	c #095D52",
"K'.	c #085D51",
"L'.	c #075D4F",
"M'.	c #095B50",
"N'.	c #08584C",
"O'.	c #075749",
"P'.	c #075549",
"Q'.	c #074E46",
"R'.	c #074645",
"S'.	c #043D43",
"T'.	c #0B4E49",
"U'.	c #3E7952",
"V'.	c #4D9757",
"W'.	c #72D25B",
"X'.	c #74DB61",
"Y'.	c #72D962",
"Z'.	c #72DC60",
"`'.	c #62D862",
" ).	c #4DD167",
".).	c #33A360",
"+).	c #1C8356",
"@).	c #116F50",
"#).	c #0B4747",
"$).	c #073D43",
"%).	c #063F43",
"&).	c #055E54",
"*).	c #115553",
"=).	c #1D5C56",
"-).	c #276156",
";).	c #2A5F55",
">).	c #2B5E54",
",).	c #2B5B51",
"').	c #0D4C49",
")).	c #054847",
"!).	c #09594F",
"~).	c #07564C",
"{).	c #08524C",
"]).	c #05514A",
"^).	c #054F4A",
"/).	c #054D49",
"().	c #054B48",
"_).	c #054948",
":).	c #064D4C",
"<).	c #065451",
"[).	c #054F4D",
"}).	c #074045",
"|).	c #06343D",
"1).	c #089778",
"2).	c #0D7D65",
"3).	c #0BB588",
"4).	c #09AE82",
"5).	c #07AE82",
"6).	c #07B285",
"7).	c #0BC892",
"8).	c #09BA88",
"9).	c #08B283",
"0).	c #08C68E",
"a).	c #0CD597",
"b).	c #14EAA2",
"c).	c #12C38E",
"d).	c #11BC8B",
"e).	c #1AD396",
"f).	c #5FE8A0",
"g).	c #70F6A5",
"h).	c #6AF7A5",
"i).	c #61F8A5",
"j).	c #51F6A5",
"k).	c #3AF2A4",
"l).	c #29DC9C",
"m).	c #22C08E",
"n).	c #077564",
"o).	c #087462",
"p).	c #077562",
"q).	c #075755",
"r).	c #064447",
"s).	c #064646",
"t).	c #094B46",
"u).	c #094A4B",
"v).	c #06474A",
"w).	c #0A6357",
"x).	c #0D8D6D",
"y).	c #0F8E6E",
"z).	c #0D916F",
"A).	c #0E9070",
"B).	c #0FB983",
"C).	c #11C186",
"D).	c #11C38B",
"E).	c #12D393",
"F).	c #14D695",
"G).	c #1CD599",
"H).	c #48F4AC",
"I).	c #58F7AD",
"J).	c #60F8AC",
"K).	c #67F9AC",
"L).	c #4AF8B0",
"M).	c #23F6B1",
"N).	c #1CF4AB",
"O).	c #18F3A5",
"P).	c #1AECA2",
"Q).	c #15AE87",
"R).	c #0FA982",
"S).	c #11AD83",
"T).	c #1FD69B",
"U).	c #1FDD9C",
"V).	c #20DD9D",
"W).	c #18D299",
"X).	c #15CE95",
"Y).	c #13C992",
"Z).	c #10A981",
"`).	c #0F8A72",
" !.	c #055A53",
".!.	c #03544D",
"+!.	c #024947",
"@!.	c #04333F",
"#!.	c #0B3F44",
"$!.	c #0C4947",
"%!.	c #0B514A",
"&!.	c #084849",
"*!.	c #07484B",
"=!.	c #064A4C",
"-!.	c #05494B",
";!.	c #05494C",
">!.	c #043843",
",!.	c #033442",
"'!.	c #032B39",
")!.	c #032B36",
"!!.	c #042B37",
"~!.	c #041836",
"{!.	c #030F29",
"]!.	c #020526",
"^!.	c #020F29",
"/!.	c #041D35",
"(!.	c #051B33",
"_!.	c #031631",
":!.	c #031F2F",
"<!.	c #032836",
"[!.	c #033642",
"}!.	c #084948",
"|!.	c #05323E",
"1!.	c #045A53",
"2!.	c #05514F",
"3!.	c #0A655B",
"4!.	c #0D856E",
"5!.	c #119F7B",
"6!.	c #11A881",
"7!.	c #14A782",
"8!.	c #18BE8B",
"9!.	c #18C18B",
"0!.	c #18BF8D",
"a!.	c #0FAC82",
"b!.	c #0CA57E",
"c!.	c #11A381",
"d!.	c #1BDF9D",
"e!.	c #1EF1A5",
"f!.	c #20F2A9",
"g!.	c #24F4AC",
"h!.	c #34F4AF",
"i!.	c #54F4AC",
"j!.	c #4BF4AD",
"k!.	c #47F3AA",
"l!.	c #3EF1AB",
"m!.	c #24C490",
"n!.	c #12B582",
"o!.	c #12B381",
"p!.	c #109B74",
"q!.	c #0F9670",
"r!.	c #0D9470",
"s!.	c #0B7561",
"t!.	c #0A745F",
"u!.	c #0A715D",
"v!.	c #0B705D",
"w!.	c #085E55",
"x!.	c #165049",
"y!.	c #19534A",
"z!.	c #195646",
"A!.	c #195645",
"B!.	c #145147",
"C!.	c #0F4C46",
"D!.	c #044048",
"E!.	c #05444A",
"F!.	c #076E5D",
"G!.	c #076F5D",
"H!.	c #056E5F",
"I!.	c #179A76",
"J!.	c #24BF8B",
"K!.	c #3EE29A",
"L!.	c #5CF0A0",
"M!.	c #7BF59F",
"N!.	c #84F49F",
"O!.	c #8BF39F",
"P!.	c #8BEB9B",
"Q!.	c #2AB684",
"R!.	c #0FA37B",
"S!.	c #12A87F",
"T!.	c #1AE5A0",
"U!.	c #10DB9B",
"V!.	c #0DD096",
"W!.	c #09BD8B",
"X!.	c #0ABF8E",
"Y!.	c #0BBF8D",
"Z!.	c #0DC590",
"`!.	c #0ABD8C",
" ~.	c #09B88A",
".~.	c #09B787",
"+~.	c #0DB88A",
"@~.	c #0C9272",
"#~.	c #099677",
"$~.	c #0A8B72",
"%~.	c #0BA280",
"&~.	c #0E9B7B",
"*~.	c #10B48A",
"=~.	c #0FB98D",
"-~.	c #0FBA8D",
";~.	c #0EC08D",
">~.	c #0AD494",
",~.	c #0BDA99",
"'~.	c #0BDA9A",
")~.	c #0EC690",
"!~.	c #13DB9C",
"~~.	c #13EBA5",
"{~.	c #11E3A0",
"]~.	c #0FE3A0",
"^~.	c #0EE29F",
"/~.	c #0DE5A0",
"(~.	c #12ECA6",
"_~.	c #16EDA3",
":~.	c #19EAA1",
"<~.	c #18DF9D",
"[~.	c #19D799",
"}~.	c #1AE8A4",
"|~.	c #1AE8A5",
"1~.	c #1AE9A6",
"2~.	c #14C08D",
"3~.	c #0A8F6C",
"4~.	c #06464B",
"5~.	c #044344",
"6~.	c #024648",
"7~.	c #03494B",
"8~.	c #064B4F",
"9~.	c #0D705F",
"0~.	c #0EA87C",
"a~.	c #13B686",
"b~.	c #14DD9E",
"c~.	c #0DEFA2",
"d~.	c #10E29D",
"e~.	c #12DC9D",
"f~.	c #0EF2AA",
"g~.	c #0CF6AA",
"h~.	c #11F3A9",
"i~.	c #1FF8AC",
"j~.	c #26F8AE",
"k~.	c #2CF8AE",
"l~.	c #32F6AC",
"m~.	c #25F6AB",
"n~.	c #16F6AE",
"o~.	c #1FDB9F",
"p~.	c #22DD9E",
"q~.	c #25E6A4",
"r~.	c #24E0A2",
"s~.	c #1EE2A1",
"t~.	c #15E5A3",
"u~.	c #1EFAAD",
"v~.	c #16F6AD",
"w~.	c #10F8AB",
"x~.	c #0FF6AB",
"y~.	c #13E5A5",
"z~.	c #16C394",
"A~.	c #097C66",
"B~.	c #024647",
"C~.	c #034749",
"D~.	c #155851",
"E~.	c #41CB96",
"F~.	c #33DE9D",
"G~.	c #2BDE9D",
"H~.	c #24DE9B",
"I~.	c #20DD9B",
"J~.	c #1ADC9A",
"K~.	c #17DC99",
"L~.	c #13D597",
"M~.	c #10C791",
"N~.	c #0DAD82",
"O~.	c #0AA680",
"P~.	c #0D9577",
"Q~.	c #10AA82",
"R~.	c #0FAE82",
"S~.	c #10AE83",
"T~.	c #0EB185",
"U~.	c #0BB58B",
"V~.	c #0AB089",
"W~.	c #09A582",
"X~.	c #0C9D7D",
"Y~.	c #0B9C7B",
"Z~.	c #0B9A79",
"`~.	c #0A8D72",
" {.	c #0A776A",
".{.	c #05424D",
"+{.	c #042C3D",
"@{.	c #054A52",
"#{.	c #064F56",
"${.	c #04424F",
"%{.	c #054651",
"&{.	c #032B3A",
"*{.	c #075555",
"={.	c #088669",
"-{.	c #078A6D",
";{.	c #098A71",
">{.	c #088F74",
",{.	c #0A9779",
"'{.	c #0B9878",
"){.	c #0C9476",
"!{.	c #0E9271",
"~{.	c #0E916E",
"{{.	c #0E8F70",
"]{.	c #0C7B67",
"^{.	c #087564",
"/{.	c #077A66",
"({.	c #07806A",
"_{.	c #0A856B",
":{.	c #0D9B76",
"<{.	c #0EAD7F",
"[{.	c #12B683",
"}{.	c #16B784",
"|{.	c #1AB685",
"1{.	c #1FB886",
"2{.	c #24B685",
"3{.	c #2AB685",
"4{.	c #2DAE84",
"5{.	c #145D57",
"6{.	c #033E43",
"7{.	c #024948",
"8{.	c #075F56",
"9{.	c #109879",
"0{.	c #13D49C",
"a{.	c #17F4AB",
"b{.	c #20F9AD",
"c{.	c #23F9AC",
"d{.	c #22F6AB",
"e{.	c #18DC9F",
"f{.	c #15D097",
"g{.	c #19CD97",
"h{.	c #19E3A0",
"i{.	c #17E5A0",
"j{.	c #16E2A1",
"k{.	c #1AF3AD",
"l{.	c #2FF7AF",
"m{.	c #5BF8AC",
"n{.	c #53F9AD",
"o{.	c #4AF9AF",
"p{.	c #3CF8AD",
"q{.	c #23F4AA",
"r{.	c #11F5A8",
"s{.	c #12DF9C",
"t{.	c #10DD99",
"u{.	c #0EED9E",
"v{.	c #12D195",
"w{.	c #11B988",
"x{.	c #0D7F65",
"y{.	c #084A4E",
"z{.	c #024547",
"A{.	c #024345",
"B{.	c #034348",
"C{.	c #096B5B",
"D{.	c #0D9471",
"E{.	c #17C491",
"F{.	c #17C592",
"G{.	c #18C692",
"H{.	c #16C38E",
"I{.	c #1FD699",
"J{.	c #21E9A3",
"K{.	c #21F5A9",
"L{.	c #20F6A9",
"M{.	c #20F6AB",
"N{.	c #1EECA4",
"O{.	c #1FEBA4",
"P{.	c #20EBA4",
"Q{.	c #16E9A3",
"R{.	c #14EAA4",
"S{.	c #13DF9F",
"T{.	c #10D297",
"U{.	c #0AD898",
"V{.	c #09C88F",
"W{.	c #0ACA90",
"X{.	c #0AC88F",
"Y{.	c #0BCF94",
"Z{.	c #0CC38F",
"`{.	c #0CB78A",
" ].	c #0CB488",
".].	c #0EB68B",
"+].	c #0F9074",
"@].	c #0A9B7B",
"#].	c #0B9377",
"$].	c #0AB086",
"%].	c #0EA580",
"&].	c #0DA982",
"*].	c #0EBD8D",
"=].	c #09B285",
"-].	c #09B284",
";].	c #0CB788",
">].	c #0BB88A",
",].	c #0BB887",
"'].	c #0DC38D",
")].	c #0CCA94",
"!].	c #0DCE97",
"~].	c #0FCE96",
"{].	c #0ED095",
"]].	c #0ADA9A",
"^].	c #0AD999",
"/].	c #0CE09C",
"(].	c #0ADD99",
"_].	c #0CD294",
":].	c #09D395",
"<].	c #0DC990",
"[].	c #0FB182",
"}].	c #16CB90",
"|].	c #17D699",
"1].	c #14F2A9",
"2].	c #14E2A0",
"3].	c #14B185",
"4].	c #0B5853",
"5].	c #095150",
"6].	c #0D685B",
"7].	c #119472",
"8].	c #14A97F",
"9].	c #13B385",
"0].	c #14D49A",
"a].	c #0CEFA3",
"b].	c #0BF2A6",
"c].	c #09F3A7",
"d].	c #0AF3A9",
"e].	c #10E4A1",
"f].	c #0EF2A9",
"g].	c #0CEDA4",
"h].	c #0FE7A2",
"i].	c #0CEFA7",
"j].	c #0CF2A8",
"k].	c #0FF3AA",
"l].	c #30F4AB",
"m].	c #38F4AC",
"n].	c #3EF5AC",
"o].	c #41F0A9",
"p].	c #36ECA7",
"q].	c #12E5A2",
"r].	c #15D696",
"s].	c #19E6A1",
"t].	c #16E8A2",
"u].	c #12EEA6",
"v].	c #10F5AC",
"w].	c #19D79B",
"x].	c #08A176",
"y].	c #024546",
"z].	c #1C6C53",
"A].	c #35AD74",
"B].	c #79F3A5",
"C].	c #47F5A7",
"D].	c #23F4A6",
"E].	c #1AF3A2",
"F].	c #15E29B",
"G].	c #10D594",
"H].	c #0FD594",
"I].	c #0FD195",
"J].	c #0FCD94",
"K].	c #0DC691",
"L].	c #0DBC8E",
"M].	c #0BAD85",
"N].	c #0BA27E",
"O].	c #0C9B7B",
"P].	c #0D9C7B",
"Q].	c #0D9A7B",
"R].	c #0B9979",
"S].	c #10A581",
"T].	c #17B589",
"U].	c #0AA17F",
"V].	c #0A8373",
"W].	c #086B66",
"X].	c #066B66",
"Y].	c #066B65",
"Z].	c #076563",
"`].	c #095F62",
" ^.	c #054853",
".^.	c #030D2B",
"+^.	c #021029",
"@^.	c #052838",
"#^.	c #076B67",
"$^.	c #08565F",
"%^.	c #08525C",
"&^.	c #094F5B",
"*^.	c #074152",
"=^.	c #07505B",
"-^.	c #07535D",
";^.	c #07585D",
">^.	c #076969",
",^.	c #05323C",
"'^.	c #09776C",
")^.	c #0B7C6D",
"!^.	c #0AA886",
"~^.	c #14C290",
"{^.	c #13C18E",
"]^.	c #0CAB82",
"^^.	c #0CAD83",
"/^.	c #0EAC84",
"(^.	c #0FAD85",
"_^.	c #0BAC84",
":^.	c #0AB388",
"<^.	c #0AB88B",
"[^.	c #0DC291",
"}^.	c #0DCC95",
"|^.	c #11D699",
"1^.	c #11DF9D",
"2^.	c #11E59D",
"3^.	c #13E69D",
"4^.	c #17E89E",
"5^.	c #1CF0A0",
"6^.	c #22F2A5",
"7^.	c #34F3A6",
"8^.	c #68F4A7",
"9^.	c #369A71",
"0^.	c #14634F",
"a^.	c #078A6A",
"b^.	c #14BE8C",
"c^.	c #18F7B0",
"d^.	c #0FF6AD",
"e^.	c #0DF7AB",
"f^.	c #12F3A9",
"g^.	c #17F3A8",
"h^.	c #1AF1A6",
"i^.	c #18EBA1",
"j^.	c #15EBA5",
"k^.	c #29EBA7",
"l^.	c #45F0AA",
"m^.	c #45F2AB",
"n^.	c #3EF0AB",
"o^.	c #37EDA9",
"p^.	c #19F2AA",
"q^.	c #0EF2A8",
"r^.	c #0CF1A7",
"s^.	c #11F1AA",
"t^.	c #0FF3A9",
"u^.	c #0FEDA6",
"v^.	c #0CECA6",
"w^.	c #0BF5AB",
"x^.	c #0DEDA6",
"y^.	c #0DEEA5",
"z^.	c #0DF3A5",
"A^.	c #13DE9E",
"B^.	c #14CA94",
"C^.	c #14BB8A",
"D^.	c #12A77C",
"E^.	c #0F7963",
"F^.	c #0A4E50",
"G^.	c #064B4D",
"H^.	c #024447",
"I^.	c #064449",
"J^.	c #0F7C66",
"K^.	c #0DA37B",
"L^.	c #10CA90",
"M^.	c #17F6AB",
"N^.	c #16EEA6",
"O^.	c #16E8A0",
"P^.	c #13D095",
"Q^.	c #0ECA91",
"R^.	c #0CCA91",
"S^.	c #0ECC92",
"T^.	c #0DD595",
"U^.	c #0DE49F",
"V^.	c #0BDE9B",
"W^.	c #0ADF9C",
"X^.	c #0BDE9C",
"Y^.	c #0CDA9A",
"Z^.	c #10D799",
"`^.	c #11D398",
" /.	c #0FCD96",
"./.	c #0AD096",
"+/.	c #0DCF94",
"@/.	c #0CC48D",
"#/.	c #0AB887",
"$/.	c #0AB486",
"%/.	c #10B489",
"&/.	c #0BA37F",
"*/.	c #0B9E7C",
"=/.	c #07846D",
"-/.	c #099D7D",
";/.	c #0AA780",
">/.	c #0DB286",
",/.	c #0DAF85",
"'/.	c #0BB085",
")/.	c #0CB285",
"!/.	c #0DB587",
"~/.	c #0EB688",
"{/.	c #0CB689",
"]/.	c #0CBE8E",
"^/.	c #0ACA94",
"//.	c #0AC28D",
"(/.	c #0EBB88",
"_/.	c #09A77B",
":/.	c #09AB7F",
"</.	c #0EA47D",
"[/.	c #0FB284",
"}/.	c #0DB784",
"|/.	c #0BB784",
"1/.	c #0BBA87",
"2/.	c #0FB586",
"3/.	c #10A77E",
"4/.	c #13AF82",
"5/.	c #15B98A",
"6/.	c #15D098",
"7/.	c #1AEFAA",
"8/.	c #1CF2A9",
"9/.	c #19C487",
"0/.	c #18A779",
"a/.	c #084347",
"b/.	c #0E8F6F",
"c/.	c #0F9372",
"d/.	c #107A67",
"e/.	c #137665",
"f/.	c #118069",
"g/.	c #179F7C",
"h/.	c #11D697",
"i/.	c #0EE29D",
"j/.	c #0BE6A0",
"k/.	c #0DE7A1",
"l/.	c #0DE8A1",
"m/.	c #0CE7A1",
"n/.	c #0AE79F",
"o/.	c #09E69F",
"p/.	c #0AE49F",
"q/.	c #09ECA4",
"r/.	c #09F2A8",
"s/.	c #0AF5AC",
"t/.	c #09EBA1",
"u/.	c #09EAA0",
"v/.	c #09EAA1",
"w/.	c #09D595",
"x/.	c #0AC990",
"y/.	c #0DBD8B",
"z/.	c #0FD69C",
"A/.	c #14E09D",
"B/.	c #12E19D",
"C/.	c #11E19D",
"D/.	c #12E6A1",
"E/.	c #17F8AC",
"F/.	c #18E19C",
"G/.	c #0CB380",
"H/.	c #034D49",
"I/.	c #024445",
"J/.	c #38986D",
"K/.	c #55EC9D",
"L/.	c #6AF9AA",
"M/.	c #54F5A9",
"N/.	c #3AF0A5",
"O/.	c #21CE94",
"P/.	c #16BE8D",
"Q/.	c #0CB486",
"R/.	c #09B085",
"S/.	c #08AD85",
"T/.	c #0C9F80",
"U/.	c #0F8F79",
"V/.	c #0C7A6C",
"W/.	c #097D6C",
"X/.	c #087B6B",
"Y/.	c #097265",
"Z/.	c #08776C",
"`/.	c #067C6E",
" (.	c #086961",
".(.	c #066A66",
"+(.	c #066B67",
"@(.	c #075F60",
"#(.	c #044B54",
"$(.	c #03213C",
"%(.	c #062F3E",
"&(.	c #08444D",
"*(.	c #06474E",
"=(.	c #096967",
"-(.	c #0E545F",
";(.	c #0B4C58",
">(.	c #0B4A58",
",(.	c #094857",
"'(.	c #094453",
")(.	c #0A4A58",
"!(.	c #0C535E",
"~(.	c #0A6064",
"{(.	c #09897B",
"](.	c #064F53",
"^(.	c #053440",
"/(.	c #062E3C",
"((.	c #020F2C",
"_(.	c #076060",
":(.	c #066966",
"<(.	c #076C65",
"[(.	c #097B6B",
"}(.	c #0A7667",
"|(.	c #087C6B",
"1(.	c #0C8270",
"2(.	c #0F917A",
"3(.	c #0CA582",
"4(.	c #0AAE85",
"5(.	c #09B386",
"6(.	c #0AB586",
"7(.	c #0CB786",
"8(.	c #11BA89",
"9(.	c #1DE09D",
"0(.	c #2FEFA4",
"a(.	c #4DF5A9",
"b(.	c #76FAA9",
"c(.	c #54E99B",
"d(.	c #42B97D",
"e(.	c #024446",
"f(.	c #034646",
"g(.	c #08976F",
"h(.	c #14CA8E",
"i(.	c #1BFAAE",
"j(.	c #13EEA7",
"k(.	c #16DC9B",
"l(.	c #16D999",
"m(.	c #17D899",
"n(.	c #12C692",
"o(.	c #0DD094",
"p(.	c #12DC9A",
"q(.	c #11EBA3",
"r(.	c #11EEA3",
"s(.	c #10EFA4",
"t(.	c #0CF5AB",
"u(.	c #09F6AB",
"v(.	c #0AF2A8",
"w(.	c #0CE09D",
"x(.	c #09E29D",
"y(.	c #0BEAA2",
"z(.	c #0DE6A0",
"A(.	c #0FE4A0",
"B(.	c #0BEDA5",
"C(.	c #0AECA3",
"D(.	c #0BEBA2",
"E(.	c #0DEBA1",
"F(.	c #15C38F",
"G(.	c #129C77",
"H(.	c #147964",
"I(.	c #117564",
"J(.	c #0D7864",
"K(.	c #0C8367",
"L(.	c #0D705C",
"M(.	c #119B72",
"N(.	c #1DE2A2",
"O(.	c #18F0AA",
"P(.	c #16EFA9",
"Q(.	c #14E1A2",
"R(.	c #18BD8E",
"S(.	c #16A47D",
"T(.	c #129C78",
"U(.	c #10B587",
"V(.	c #0BD092",
"W(.	c #0BCE90",
"X(.	c #0FAD80",
"Y(.	c #0DB888",
"Z(.	c #0AC08B",
"`(.	c #09BC87",
" _.	c #0DC18B",
"._.	c #0ACD95",
"+_.	c #0AC592",
"@_.	c #0CB086",
"#_.	c #0DB789",
"$_.	c #0FBB8C",
"%_.	c #0BB285",
"&_.	c #09B185",
"*_.	c #0CB186",
"=_.	c #0FB889",
"-_.	c #0DA980",
";_.	c #0AA37E",
">_.	c #0A9F7D",
",_.	c #0C9B7C",
"'_.	c #0AB087",
")_.	c #0CAF86",
"!_.	c #0DB087",
"~_.	c #10B287",
"{_.	c #0FC18F",
"]_.	c #0EC290",
"^_.	c #0DC08F",
"/_.	c #0EBE8D",
"(_.	c #0DBF8B",
"__.	c #09B887",
":_.	c #0ABB8B",
"<_.	c #0E9F7C",
"[_.	c #0CA27C",
"}_.	c #0EA27B",
"|_.	c #0CA27F",
"1_.	c #12AE83",
"2_.	c #12CF91",
"3_.	c #0ED496",
"4_.	c #0BD596",
"5_.	c #0ED498",
"6_.	c #10E3A3",
"7_.	c #18EAA8",
"8_.	c #24F1A9",
"9_.	c #37F09D",
"0_.	c #43CF91",
"a_.	c #094547",
"b_.	c #064043",
"c_.	c #17CD94",
"d_.	c #16ECA2",
"e_.	c #0FDD9E",
"f_.	c #0FB386",
"g_.	c #0F9C7C",
"h_.	c #12635E",
"i_.	c #0D856D",
"j_.	c #11A17C",
"k_.	c #0ED69B",
"l_.	c #0AE39E",
"m_.	c #09E29E",
"n_.	c #0ADD9C",
"o_.	c #08D998",
"p_.	c #09DA9A",
"q_.	c #0BDA9E",
"r_.	c #0FDE9C",
"s_.	c #09F0A5",
"t_.	c #0AF1A8",
"u_.	c #0FE09C",
"v_.	c #14ECA5",
"w_.	c #17CD92",
"x_.	c #098469",
"y_.	c #024143",
"z_.	c #033D3E",
"A_.	c #369E72",
"B_.	c #4FF4A7",
"C_.	c #4AE6A0",
"D_.	c #3BC88E",
"E_.	c #1BB083",
"F_.	c #119377",
"G_.	c #0D8B74",
"H_.	c #0B8671",
"I_.	c #0A8670",
"J_.	c #0A7E6E",
"K_.	c #0A816E",
"L_.	c #077B6C",
"M_.	c #087C6D",
"N_.	c #087A6C",
"O_.	c #067C6F",
"P_.	c #067D71",
"Q_.	c #056865",
"R_.	c #056965",
"S_.	c #044951",
"T_.	c #063D49",
"U_.	c #095661",
"V_.	c #086261",
"W_.	c #0D736C",
"X_.	c #0D6969",
"Y_.	c #0B5D62",
"Z_.	c #0D525D",
"`_.	c #0A4252",
" :.	c #083447",
".:.	c #093E4D",
"+:.	c #0B4958",
"@:.	c #0D515D",
"#:.	c #0B5D63",
"$:.	c #0D746F",
"%:.	c #0C6C68",
"&:.	c #096260",
"*:.	c #03444F",
"=:.	c #065458",
"-:.	c #056A66",
";:.	c #065F5F",
">:.	c #077B6F",
",:.	c #087B6C",
"':.	c #09786A",
"):.	c #0A7E6D",
"!:.	c #0B8270",
"~:.	c #0B8F75",
"{:.	c #0C9175",
"]:.	c #0C9376",
"^:.	c #14A27E",
"/:.	c #27C18D",
"(:.	c #40DB98",
"_:.	c #54F4A8",
"::.	c #52F6A8",
"<:.	c #4AC98E",
"[:.	c #094341",
"}:.	c #024244",
"|:.	c #024346",
"1:.	c #098668",
"2:.	c #15C28A",
"3:.	c #17F8AD",
"4:.	c #12E7A1",
"5:.	c #0EE09C",
"6:.	c #0BE19D",
"7:.	c #0BECA4",
"8:.	c #0AEFA3",
"9:.	c #0CEEA4",
"0:.	c #0ED294",
"a:.	c #0ABC8B",
"b:.	c #0BD99B",
"c:.	c #09DE9C",
"d:.	c #09DF9B",
"e:.	c #09E3A0",
"f:.	c #0AE8A3",
"g:.	c #09E8A1",
"h:.	c #09E6A0",
"i:.	c #09E5A0",
"j:.	c #0AE7A1",
"k:.	c #0BE49F",
"l:.	c #0BE39E",
"m:.	c #10C18E",
"n:.	c #10A57D",
"o:.	c #136F63",
"p:.	c #0E7B69",
"q:.	c #0F8C70",
"r:.	c #12BB8B",
"s:.	c #16D296",
"t:.	c #15D89A",
"u:.	c #0B5951",
"v:.	c #2D9C74",
"w:.	c #32E999",
"x:.	c #24F1A7",
"y:.	c #1BEDA9",
"z:.	c #12E8A6",
"A:.	c #0FD299",
"B:.	c #0ECC91",
"C:.	c #0ED091",
"D:.	c #0CA47E",
"E:.	c #0BA37D",
"F:.	c #0DA27B",
"G:.	c #0DA17C",
"H:.	c #09B286",
"I:.	c #0CB988",
"J:.	c #0BBF8C",
"K:.	c #0BC692",
"L:.	c #0BC491",
"M:.	c #0DBC8B",
"N:.	c #0EB487",
"O:.	c #0FB287",
"P:.	c #0AA982",
"Q:.	c #088F76",
"R:.	c #0C9678",
"S:.	c #0BB287",
"T:.	c #0BB589",
"U:.	c #0CA581",
"V:.	c #0DAF86",
"W:.	c #0BB188",
"X:.	c #0FB88B",
"Y:.	c #0DBB8D",
"Z:.	c #0CB386",
"`:.	c #0FA882",
" <.	c #0EA07D",
".<.	c #0DA27D",
"+<.	c #0DA27E",
"@<.	c #0CA17E",
"#<.	c #10A17D",
"$<.	c #14C18F",
"%<.	c #13C991",
"&<.	c #12CC95",
"*<.	c #11E0A2",
"=<.	c #15E5A2",
"-<.	c #20E59E",
";<.	c #31BB85",
"><.	c #369F79",
",<.	c #1CD195",
"'<.	c #18F5A7",
")<.	c #14EDA8",
"!<.	c #0CE1A0",
"~<.	c #0ED299",
"{<.	c #0E9478",
"]<.	c #0FAF87",
"^<.	c #12E4A4",
"/<.	c #0FE9A1",
"(<.	c #0AEDA5",
"_<.	c #09ECA5",
":<.	c #09EDA5",
"<<.	c #09EDA4",
"[<.	c #0AE9A5",
"}<.	c #0AE4A1",
"|<.	c #09E8A2",
"1<.	c #0AE8A2",
"2<.	c #0AE19D",
"3<.	c #0AE7A2",
"4<.	c #0AE7A3",
"5<.	c #0AE09E",
"6<.	c #0ADD9D",
"7<.	c #0ADB9B",
"8<.	c #0ACF90",
"9<.	c #078268",
"0<.	c #04383D",
"a<.	c #043A3E",
"b<.	c #033E3F",
"c<.	c #05393B",
"d<.	c #289E72",
"e<.	c #3BEFA1",
"f<.	c #1AC890",
"g<.	c #12BA8B",
"h<.	c #0BAA84",
"i<.	c #0D8E78",
"j<.	c #0B977B",
"k<.	c #07A17D",
"l<.	c #07A27D",
"m<.	c #097C6E",
"n<.	c #087B6D",
"o<.	c #097B6D",
"p<.	c #0B7D6E",
"q<.	c #09796D",
"r<.	c #0A796C",
"s<.	c #087A6D",
"t<.	c #08786E",
"u<.	c #076966",
"v<.	c #056765",
"w<.	c #044F55",
"x<.	c #04424C",
"y<.	c #095962",
"z<.	c #0C746C",
"A<.	c #0C6768",
"B<.	c #0D5E63",
"C<.	c #0F545D",
"D<.	c #0D4957",
"E<.	c #0C4957",
"F<.	c #114A58",
"G<.	c #154655",
"H<.	c #164453",
"I<.	c #123D50",
"J<.	c #0E4253",
"K<.	c #0A4757",
"L<.	c #0E4D59",
"M<.	c #0E555D",
"N<.	c #0C6567",
"O<.	c #096B67",
"P<.	c #0A6A67",
"Q<.	c #0A5C62",
"R<.	c #065357",
"S<.	c #066765",
"T<.	c #097A71",
"U<.	c #08806F",
"V<.	c #0A7A6D",
"W<.	c #06796B",
"X<.	c #089E7C",
"Y<.	c #079B7A",
"Z<.	c #09967B",
"`<.	c #0D8D78",
" [.	c #0B9D7C",
".[.	c #18AC82",
"+[.	c #22BB8A",
"@[.	c #39E69C",
"#[.	c #36CA8D",
"$[.	c #083E3E",
"%[.	c #033F3F",
"&[.	c #057964",
"*[.	c #0CA67B",
"=[.	c #0CD292",
"-[.	c #0ADE9C",
";[.	c #0AEAA4",
">[.	c #0AEBA4",
",[.	c #0BE8A1",
"'[.	c #0CECA2",
")[.	c #0FEBA4",
"![.	c #0DE09F",
"~[.	c #0BDD9D",
"{[.	c #09DD9B",
"][.	c #09DA9B",
"^[.	c #0ADC9C",
"/[.	c #0AE5A0",
"([.	c #0EE29E",
"_[.	c #13D79C",
":[.	c #12BA8E",
"<[.	c #0D9276",
"[[.	c #128F76",
"}[.	c #0FBA8A",
"|[.	c #0CE29F",
"1[.	c #0FE7A5",
"2[.	c #14F1A6",
"3[.	c #1AEBA5",
"4[.	c #0D5D52",
"5[.	c #339473",
"6[.	c #41D994",
"7[.	c #2BECA2",
"8[.	c #1CEAA5",
"9[.	c #12E5A5",
"0[.	c #0FD094",
"a[.	c #11CC95",
"b[.	c #13AD81",
"c[.	c #11A37E",
"d[.	c #11AB86",
"e[.	c #0EB387",
"f[.	c #0CAE83",
"g[.	c #0DB687",
"h[.	c #0EBC8E",
"i[.	c #10BE8F",
"j[.	c #0EB388",
"k[.	c #0FB187",
"l[.	c #0EB087",
"m[.	c #0CAD86",
"n[.	c #0AAC85",
"o[.	c #0CB088",
"p[.	c #0BB086",
"q[.	c #0AAB83",
"r[.	c #0D9F7D",
"s[.	c #089074",
"t[.	c #06836C",
"u[.	c #08856D",
"v[.	c #0A8970",
"w[.	c #08A07D",
"x[.	c #0BA47C",
"y[.	c #077C66",
"z[.	c #067E68",
"A[.	c #077E69",
"B[.	c #07836D",
"C[.	c #0CBE8B",
"D[.	c #0AC08C",
"E[.	c #0DA07D",
"F[.	c #0BA17D",
"G[.	c #0EA27C",
"H[.	c #13A880",
"I[.	c #15A980",
"J[.	c #16AD83",
"K[.	c #13D99D",
"L[.	c #12E29D",
"M[.	c #12DA95",
"N[.	c #0A7962",
"O[.	c #053E41",
"P[.	c #1ED093",
"Q[.	c #1CF7A7",
"R[.	c #19F6AA",
"S[.	c #0FDA9B",
"T[.	c #0AD799",
"U[.	c #0CC592",
"V[.	c #0DD69A",
"W[.	c #0DF8AB",
"X[.	c #0BF8A8",
"Y[.	c #09F8AB",
"Z[.	c #08F7AB",
"`[.	c #08F7AA",
" }.	c #07F7AA",
".}.	c #08F8AB",
"+}.	c #09F8AC",
"@}.	c #08F8AC",
"#}.	c #09F4A9",
"$}.	c #0AEBA2",
"%}.	c #0CE3A0",
"&}.	c #0BDB9D",
"*}.	c #0DD59B",
"=}.	c #09D094",
"-}.	c #09CE91",
";}.	c #0CB283",
">}.	c #062D35",
",}.	c #033D40",
"'}.	c #05353A",
")}.	c #16906C",
"!}.	c #1FDB99",
"~}.	c #14DC9A",
"{}.	c #10D097",
"]}.	c #0D937A",
"^}.	c #08A27E",
"/}.	c #08A780",
"(}.	c #0B9379",
"_}.	c #0A8C75",
":}.	c #097F6F",
"<}.	c #09786C",
"[}.	c #09716B",
"}}.	c #0B6F6A",
"|}.	c #09746C",
"1}.	c #086764",
"2}.	c #056363",
"3}.	c #065057",
"4}.	c #053D47",
"5}.	c #040B26",
"6}.	c #075A61",
"7}.	c #0B7D73",
"8}.	c #0B736E",
"9}.	c #0B6565",
"0}.	c #0D6567",
"a}.	c #0E4956",
"b}.	c #16505C",
"c}.	c #1A535D",
"d}.	c #124F58",
"e}.	c #0D4F58",
"f}.	c #0F535D",
"g}.	c #17555F",
"h}.	c #164F5B",
"i}.	c #0E4856",
"j}.	c #0C4955",
"k}.	c #0C595E",
"l}.	c #0C6365",
"m}.	c #0A6E6A",
"n}.	c #0D7F74",
"o}.	c #055156",
"p}.	c #055258",
"q}.	c #056463",
"r}.	c #0A736C",
"s}.	c #0B706C",
"t}.	c #08746C",
"u}.	c #0A786C",
"v}.	c #0A786D",
"w}.	c #097A6D",
"x}.	c #097B6E",
"y}.	c #0A8170",
"z}.	c #0B8773",
"A}.	c #07A780",
"B}.	c #0A9D7D",
"C}.	c #0E8D78",
"D}.	c #0EC994",
"E}.	c #13DB9B",
"F}.	c #29E39C",
"G}.	c #23BF8A",
"H}.	c #083B3B",
"I}.	c #033C3E",
"J}.	c #033B40",
"K}.	c #052A33",
"L}.	c #066455",
"M}.	c #0B9A74",
"N}.	c #0AD192",
"O}.	c #0AD395",
"P}.	c #0AD899",
"Q}.	c #0BDC9E",
"R}.	c #0CD99D",
"S}.	c #0CDA9C",
"T}.	c #0BDF9E",
"U}.	c #0DE29F",
"V}.	c #0CE49F",
"W}.	c #09EAA3",
"X}.	c #09F4AA",
"Y}.	c #09F7AB",
"Z}.	c #09F7AC",
"`}.	c #09F7AD",
" |.	c #0BF7A8",
".|.	c #0EDC9E",
"+|.	c #0CA781",
"@|.	c #0CD095",
"#|.	c #0AD498",
"$|.	c #0BD599",
"%|.	c #16F2A9",
"&|.	c #1AF8A8",
"*|.	c #1EEBA3",
"=|.	c #0F5D51",
"-|.	c #023E43",
";|.	c #0D7560",
">|.	c #13CF8F",
",|.	c #12E29C",
"'|.	c #17BE8E",
")|.	c #16B386",
"!|.	c #16AC84",
"~|.	c #0FA27D",
"{|.	c #0CA17D",
"]|.	c #0DA07C",
"^|.	c #0FA07C",
"/|.	c #0CBC8E",
"(|.	c #0DBE8C",
"_|.	c #089575",
":|.	c #0BA17B",
"<|.	c #089978",
"[|.	c #0B9E7D",
"}|.	c #099F7C",
"||.	c #0B9F7D",
"1|.	c #08846E",
"2|.	c #034A48",
"3|.	c #054F4F",
"4|.	c #075753",
"5|.	c #077662",
"6|.	c #0C8D70",
"7|.	c #054143",
"8|.	c #065F52",
"9|.	c #075E52",
"0|.	c #09715E",
"a|.	c #0B926E",
"b|.	c #099F73",
"c|.	c #08A075",
"d|.	c #09A274",
"e|.	c #0BA074",
"f|.	c #0B8A6D",
"g|.	c #098B6E",
"h|.	c #078B6D",
"i|.	c #098B6D",
"j|.	c #0E9B77",
"k|.	c #0DA176",
"l|.	c #0DA377",
"m|.	c #0FAD7E",
"n|.	c #12B383",
"o|.	c #13BD87",
"p|.	c #13C68C",
"q|.	c #10C58C",
"r|.	c #14B483",
"s|.	c #0A4F4B",
"t|.	c #043D42",
"u|.	c #053D3F",
"v|.	c #21CE92",
"w|.	c #20F6A7",
"x|.	c #1FF9AC",
"y|.	c #15F6A9",
"z|.	c #0DF1A8",
"A|.	c #0CE9A4",
"B|.	c #10E7A5",
"C|.	c #0FF1A8",
"D|.	c #0CE19D",
"E|.	c #0BE59F",
"F|.	c #0BEFA5",
"G|.	c #08F6A8",
"H|.	c #08F6A7",
"I|.	c #08F7A8",
"J|.	c #07F6A8",
"K|.	c #09F5A9",
"L|.	c #09E7A2",
"M|.	c #0ADB9D",
"N|.	c #0BD095",
"O|.	c #0ACD94",
"P|.	c #09CC92",
"Q|.	c #0ACB90",
"R|.	c #0EAF82",
"S|.	c #057766",
"T|.	c #03333E",
"U|.	c #023B43",
"V|.	c #04303A",
"W|.	c #0B5E54",
"X|.	c #0B866A",
"Y|.	c #099471",
"Z|.	c #0AA67F",
"`|.	c #0EA882",
" 1.	c #0DAB85",
".1.	c #099B7B",
"+1.	c #0B997A",
"@1.	c #09A480",
"#1.	c #09A57F",
"$1.	c #0C8C75",
"%1.	c #0A8A75",
"&1.	c #0B8574",
"*1.	c #076E65",
"=1.	c #0B756A",
"-1.	c #0B7A6D",
";1.	c #097167",
">1.	c #096963",
",1.	c #054C53",
"'1.	c #051E32",
")1.	c #040924",
"!1.	c #05303A",
"~1.	c #0B7E74",
"{1.	c #0E716E",
"]1.	c #0F6768",
"^1.	c #186E6E",
"/1.	c #16696A",
"(1.	c #185E64",
"_1.	c #15535D",
":1.	c #144D59",
"<1.	c #19535E",
"[1.	c #17525D",
"}1.	c #124E59",
"|1.	c #0F4C57",
"11.	c #16525D",
"21.	c #17515C",
"31.	c #134B57",
"41.	c #16525C",
"51.	c #125F63",
"61.	c #156A6A",
"71.	c #10686A",
"81.	c #0C6969",
"91.	c #0D7F76",
"01.	c #086666",
"a1.	c #042336",
"b1.	c #055056",
"c1.	c #086663",
"d1.	c #096D67",
"e1.	c #0A7A6C",
"f1.	c #09776D",
"g1.	c #0C726A",
"h1.	c #087569",
"i1.	c #0A7A6E",
"j1.	c #0B7C6E",
"k1.	c #09A17E",
"l1.	c #09A37F",
"m1.	c #09A17F",
"n1.	c #0C957A",
"o1.	c #0E947B",
"p1.	c #0C927C",
"q1.	c #0EBB8C",
"r1.	c #0EB687",
"s1.	c #0DB081",
"t1.	c #0F9673",
"u1.	c #07343A",
"v1.	c #033842",
"w1.	c #042935",
"x1.	c #05655A",
"y1.	c #0B9874",
"z1.	c #09CF94",
"A1.	c #0BD196",
"B1.	c #0DD095",
"C1.	c #0BD197",
"D1.	c #0ADB9E",
"E1.	c #08F3A7",
"F1.	c #08F7A9",
"G1.	c #07F7A9",
"H1.	c #08F6A9",
"I1.	c #0DF6AA",
"J1.	c #0CE7A2",
"K1.	c #0DEBA5",
"L1.	c #12F0A6",
"M1.	c #1BF7AA",
"N1.	c #1EF7A8",
"O1.	c #20EBA2",
"P1.	c #0F5D4F",
"Q1.	c #033F41",
"R1.	c #023D41",
"S1.	c #043C42",
"T1.	c #08534D",
"U1.	c #18CB90",
"V1.	c #13DB9A",
"W1.	c #16C38D",
"X1.	c #15B988",
"Y1.	c #11B686",
"Z1.	c #0FAE80",
"`1.	c #0EAB7E",
" 2.	c #0EA980",
".2.	c #0BA07C",
"+2.	c #089E7A",
"@2.	c #099E7A",
"#2.	c #0CB582",
"$2.	c #0BBA86",
"%2.	c #0DB583",
"&2.	c #0D9874",
"*2.	c #098E6E",
"=2.	c #098268",
"-2.	c #066D5B",
";2.	c #065C52",
">2.	c #05514E",
",2.	c #054949",
"'2.	c #0B8A6C",
")2.	c #0A9673",
"!2.	c #087B67",
"~2.	c #077061",
"{2.	c #065F57",
"]2.	c #055953",
"^2.	c #045A52",
"/2.	c #045C55",
"(2.	c #043440",
"_2.	c #043541",
":2.	c #044348",
"<2.	c #03273A",
"[2.	c #03343E",
"}2.	c #03353D",
"|2.	c #053E3F",
"12.	c #043E3F",
"22.	c #054141",
"32.	c #05504D",
"42.	c #04504A",
"52.	c #065950",
"62.	c #055F52",
"72.	c #046253",
"82.	c #066656",
"92.	c #056E5A",
"02.	c #06745D",
"a2.	c #07725D",
"b2.	c #096457",
"c2.	c #053D48",
"d2.	c #033A44",
"e2.	c #0D434A",
"f2.	c #10454C",
"g2.	c #0C4148",
"h2.	c #1DB885",
"i2.	c #1EE7A0",
"j2.	c #20F5AC",
"k2.	c #15F4A7",
"l2.	c #12F4A6",
"m2.	c #14F6AB",
"n2.	c #10C68E",
"o2.	c #16CC92",
"p2.	c #13DC99",
"q2.	c #0EE09A",
"r2.	c #0AE99C",
"s2.	c #0DE99A",
"t2.	c #09E99E",
"u2.	c #08EA9F",
"v2.	c #08EBA1",
"w2.	c #08ECA2",
"x2.	c #09EBA2",
"y2.	c #08ECA3",
"z2.	c #08EBA3",
"A2.	c #08ECA1",
"B2.	c #09E6A1",
"C2.	c #09E19E",
"D2.	c #09D598",
"E2.	c #09CB93",
"F2.	c #09C48E",
"G2.	c #0AC28A",
"H2.	c #0DAB7E",
"I2.	c #08695E",
"J2.	c #02323F",
"K2.	c #033340",
"L2.	c #065D53",
"M2.	c #095E5B",
"N2.	c #0AA176",
"O2.	c #0AAD79",
"P2.	c #0AB07F",
"Q2.	c #0A9075",
"R2.	c #0A8672",
"S2.	c #0D826D",
"T2.	c #0A9376",
"U2.	c #079477",
"V2.	c #069376",
"W2.	c #069175",
"X2.	c #088170",
"Y2.	c #0C8A75",
"Z2.	c #0C8571",
"`2.	c #0A6561",
" 3.	c #03072A",
".3.	c #12625F",
"+3.	c #156D6B",
"@3.	c #117670",
"#3.	c #0C6F69",
"$3.	c #156868",
"%3.	c #146063",
"&3.	c #165D62",
"*3.	c #15525C",
"=3.	c #0E4250",
"-3.	c #0E4551",
";3.	c #124A55",
">3.	c #124A56",
",3.	c #114A55",
"'3.	c #0F4653",
")3.	c #134D59",
"!3.	c #166667",
"~3.	c #17696A",
"{3.	c #186B6C",
"]3.	c #106E6C",
"^3.	c #13706E",
"/3.	c #12746C",
"(3.	c #085152",
"_3.	c #042334",
":3.	c #040929",
"<3.	c #041A2E",
"[3.	c #043A42",
"}3.	c #05474F",
"|3.	c #054B53",
"13.	c #064D55",
"23.	c #09585A",
"33.	c #096F66",
"43.	c #0B7F6E",
"53.	c #0B8471",
"63.	c #087467",
"73.	c #0B8C77",
"83.	c #08997C",
"93.	c #079C7D",
"03.	c #089E7E",
"a3.	c #079E7C",
"b3.	c #0A9D7C",
"c3.	c #0D8B73",
"d3.	c #09957B",
"e3.	c #0EBB89",
"f3.	c #0CC387",
"g3.	c #0DC285",
"h3.	c #0C806A",
"i3.	c #08645D",
"j3.	c #064547",
"k3.	c #063B44",
"l3.	c #033640",
"m3.	c #033441",
"n3.	c #032837",
"o3.	c #0B9B76",
"p3.	c #0CC98F",
"q3.	c #0AC78E",
"r3.	c #0ACF94",
"s3.	c #08F0A5",
"t3.	c #08F1A5",
"u3.	c #08F0A4",
"v3.	c #08F0A3",
"w3.	c #09F0A3",
"x3.	c #0AEFA0",
"y3.	c #0BEF9F",
"z3.	c #0AF0A1",
"A3.	c #0CE59C",
"B3.	c #0FD996",
"C3.	c #11C68D",
"D3.	c #11DE9E",
"E3.	c #11F5AB",
"F3.	c #11F6A8",
"G3.	c #13F6A8",
"H3.	c #20F8AD",
"I3.	c #22F4A8",
"J3.	c #25DF9D",
"K3.	c #10564E",
"L3.	c #0D4349",
"M3.	c #073E45",
"N3.	c #07454A",
"O3.	c #0C715D",
"P3.	c #0C8D69",
"Q3.	c #0A926C",
"R3.	c #0A8868",
"S3.	c #097D62",
"T3.	c #08765D",
"U3.	c #09725A",
"V3.	c #096A58",
"W3.	c #09524C",
"X3.	c #07534D",
"Y3.	c #07584E",
"Z3.	c #075850",
"`3.	c #075048",
" 4.	c #054A43",
".4.	c #054944",
"+4.	c #054744",
"@4.	c #064544",
"#4.	c #043C41",
"$4.	c #084C4D",
"%4.	c #055550",
"&4.	c #055353",
"*4.	c #064D4F",
"=4.	c #054149",
"-4.	c #043C43",
";4.	c #022238",
">4.	c #02233A",
",4.	c #02273A",
"'4.	c #03293B",
")4.	c #022638",
"!4.	c #042838",
"~4.	c #032A3A",
"{4.	c #03323C",
"]4.	c #043640",
"^4.	c #062D3B",
"/4.	c #06514E",
"(4.	c #053842",
"_4.	c #073C45",
":4.	c #0B3F49",
"<4.	c #0E424E",
"[4.	c #156055",
"}4.	c #157E66",
"|4.	c #1C9A78",
"14.	c #16AC83",
"24.	c #1FBD8C",
"34.	c #23E9A5",
"44.	c #22E6A1",
"54.	c #20DC99",
"64.	c #11A97D",
"74.	c #0DA47A",
"84.	c #079E74",
"94.	c #069D74",
"04.	c #079D74",
"a4.	c #06A177",
"b4.	c #06A67C",
"c4.	c #07AB7D",
"d4.	c #07B685",
"e4.	c #07B886",
"f4.	c #07B786",
"g4.	c #09A07A",
"h4.	c #079272",
"i4.	c #07876B",
"j4.	c #085E56",
"k4.	c #06474C",
"l4.	c #022739",
"m4.	c #022738",
"n4.	c #022537",
"o4.	c #043946",
"p4.	c #0B635D",
"q4.	c #0F7C68",
"r4.	c #0C7F67",
"s4.	c #0A7D67",
"t4.	c #087B66",
"u4.	c #057763",
"v4.	c #087162",
"w4.	c #0A695E",
"x4.	c #08585A",
"y4.	c #053847",
"z4.	c #042B3D",
"A4.	c #022135",
"B4.	c #031129",
"C4.	c #0F3D4B",
"D4.	c #115C59",
"E4.	c #0A5758",
"F4.	c #0A5455",
"G4.	c #0A3E4A",
"H4.	c #0D3A4B",
"I4.	c #0A3949",
"J4.	c #093849",
"K4.	c #0E3B4C",
"L4.	c #114050",
"M4.	c #114252",
"N4.	c #0F4051",
"O4.	c #073848",
"P4.	c #0B394A",
"Q4.	c #104050",
"R4.	c #124151",
"S4.	c #0E424F",
"T4.	c #0B434E",
"U4.	c #0D4651",
"V4.	c #085254",
"W4.	c #0B615E",
"X4.	c #0D6162",
"Y4.	c #125756",
"Z4.	c #0F464E",
"`4.	c #05283B",
" 5.	c #040B2A",
".5.	c #032436",
"+5.	c #053947",
"@5.	c #033C48",
"#5.	c #06414D",
"$5.	c #084751",
"%5.	c #096663",
"&5.	c #0C7367",
"*5.	c #0C836F",
"=5.	c #09826D",
"-5.	c #08826D",
";5.	c #08826C",
">5.	c #087E6A",
",5.	c #05816A",
"'5.	c #07826B",
")5.	c #0A866D",
"!5.	c #0B876E",
"~5.	c #0C866D",
"{5.	c #0D846E",
"]5.	c #0C7467",
"^5.	c #08695C",
"/5.	c #06685A",
"(5.	c #055954",
"_5.	c #033B47",
":5.	c #033542",
"<5.	c #022637",
"[5.	c #02293A",
"}5.	c #096C5C",
"|5.	c #0A9571",
"15.	c #07A27A",
"25.	c #07AA81",
"35.	c #0AB788",
"45.	c #08CD93",
"55.	c #08CF92",
"65.	c #07CD92",
"75.	c #08CC92",
"85.	c #08CB92",
"95.	c #09C890",
"05.	c #07BF89",
"a5.	c #08BC85",
"b5.	c #08BB84",
"c5.	c #09BB82",
"d5.	c #09BA82",
"e5.	c #0ABA85",
"f5.	c #10BE89",
"g5.	c #17C38B",
"h5.	c #1DD195",
"i5.	c #1EDD9D",
"j5.	c #22F4AC",
"k5.	c #20F4A9",
"l5.	c #1DE09F",
"m5.	c #15CF94",
"n5.	c #1EC690",
"o5.	c #18B585",
"p5.	c #179571",
"q5.	c #104B51",
"r5.	c #0E444D",
"s5.	c #093F47",
"t5.	c #05504F",
"u5.	c #064D4E",
"v5.	c #073640",
"w5.	c #043941",
"x5.	c #03393F",
"y5.	c #04393F",
"z5.	c #04333C",
"A5.	c #042F3A",
"B5.	c #042E3A",
"C5.	c #042D3A",
"D5.	c #042B39",
"E5.	c #032637",
"F5.	c #022137",
"G5.	c #086C5C",
"H5.	c #07685B",
"I5.	c #08675B",
"J5.	c #076B5B",
"K5.	c #096E5E",
"L5.	c #087260",
"M5.	c #0B7665",
"N5.	c #02313F",
"O5.	c #023240",
"P5.	c #03323F",
"Q5.	c #033341",
"R5.	c #05323F",
"S5.	c #083641",
"T5.	c #093741",
"U5.	c #083742",
"V5.	c #0A3943",
"W5.	c #11424B",
"X5.	c #13454E",
"Y5.	c #0D4249",
"Z5.	c #053A45",
"`5.	c #093E48",
" 6.	c #11424E",
".6.	c #114551",
"+6.	c #105D5D",
"@6.	c #0E7561",
"#6.	c #0A9870",
"$6.	c #0A976E",
"%6.	c #099D71",
"&6.	c #0AA274",
"*6.	c #07856B",
"=6.	c #05856A",
"-6.	c #058569",
";6.	c #058468",
">6.	c #06866A",
",6.	c #05876B",
"'6.	c #05856B",
")6.	c #04846A",
"!6.	c #04836B",
"~6.	c #04836A",
"{6.	c #048169",
"]6.	c #047562",
"^6.	c #046E5D",
"/6.	c #055753",
"(6.	c #054E51",
"_6.	c #042D3D",
":6.	c #03353E",
"<6.	c #042938",
"[6.	c #022B3B",
"}6.	c #021D37",
"|6.	c #030628",
"16.	c #030627",
"26.	c #113748",
"36.	c #105352",
"46.	c #155D5B",
"56.	c #11384E",
"66.	c #0F374B",
"76.	c #10394D",
"86.	c #0A3445",
"96.	c #063242",
"06.	c #063644",
"a6.	c #063743",
"b6.	c #083D4A",
"c6.	c #0B3F4F",
"d6.	c #103A4E",
"e6.	c #113A4D",
"f6.	c #11364C",
"g6.	c #155D5E",
"h6.	c #0E635C",
"i6.	c #123E49",
"j6.	c #113043",
"k6.	c #051C36",
"l6.	c #030629",
"m6.	c #030A2B",
"n6.	c #040B2B",
"o6.	c #021C33",
"p6.	c #04263C",
"q6.	c #04293C",
"r6.	c #043340",
"s6.	c #053742",
"t6.	c #063A43",
"u6.	c #073B44",
"v6.	c #073948",
"w6.	c #04303C",
"x6.	c #022436",
"y6.	c #042B3A",
"z6.	c #055050",
"A6.	c #067B64",
"B6.	c #068167",
"C6.	c #078E70",
"D6.	c #078E6F",
"E6.	c #068F70",
"F6.	c #069070",
"G6.	c #069270",
"H6.	c #059271",
"I6.	c #069272",
"J6.	c #069371",
"K6.	c #059270",
"L6.	c #059371",
"M6.	c #059573",
"N6.	c #069473",
"O6.	c #069673",
"P6.	c #10B37F",
"Q6.	c #11B57F",
"R6.	c #14B07E",
"S6.	c #16B180",
"T6.	c #159675",
"U6.	c #117468",
"V6.	c #134B53",
"W6.	c #13434F",
"X6.	c #10414A",
"Y6.	c #073B46",
"Z6.	c #083D48",
"`6.	c #0F424D",
" 7.	c #0B3D49",
".7.	c #03313F",
"+7.	c #02313E",
"@7.	c #022A3A",
"#7.	c #064147",
"$7.	c #054749",
"%7.	c #043A41",
"&7.	c #033840",
"*7.	c #053D42",
"=7.	c #053941",
"-7.	c #0B9276",
";7.	c #0E9878",
">7.	c #0DA17D",
",7.	c #0CAF84",
"'7.	c #15C595",
")7.	c #08836E",
"!7.	c #076156",
"~7.	c #02263A",
"{7.	c #022639",
"]7.	c #02273B",
"^7.	c #0B6A59",
"/7.	c #0C6953",
"(7.	c #186952",
"_7.	c #4DAA69",
":7.	c #83BB73",
"<7.	c #8ABD6F",
"[7.	c #87BD6B",
"}7.	c #85BD69",
"|7.	c #84BE6C",
"17.	c #85C170",
"27.	c #7FBF6C",
"37.	c #64B569",
"47.	c #41AF70",
"57.	c #2F946C",
"67.	c #1F7162",
"77.	c #114C4F",
"87.	c #10444B",
"97.	c #093A44",
"07.	c #03313D",
"a7.	c #042F3D",
"b7.	c #033440",
"c7.	c #043441",
"d7.	c #043140",
"e7.	c #033040",
"f7.	c #033142",
"g7.	c #041F37",
"h7.	c #010E2C",
"i7.	c #010D2C",
"j7.	c #06303B",
"k7.	c #074047",
"l7.	c #08484D",
"m7.	c #06414A",
"n7.	c #053140",
"o7.	c #041831",
"p7.	c #061B2F",
"q7.	c #062035",
"r7.	c #051D34",
"s7.	c #0A1F35",
"t7.	c #11263B",
"u7.	c #12283C",
"v7.	c #0A1B31",
"w7.	c #071A30",
"x7.	c #123044",
"y7.	c #103045",
"z7.	c #09293D",
"A7.	c #07293E",
"B7.	c #0B2F42",
"C7.	c #0A2E3E",
"D7.	c #0A1A35",
"E7.	c #06102B",
"F7.	c #040A27",
"G7.	c #042136",
"H7.	c #042439",
"I7.	c #052E3D",
"J7.	c #05333E",
"K7.	c #032F3C",
"L7.	c #02273D",
"M7.	c #03273D",
"N7.	c #04283D",
"O7.	c #033641",
"P7.	c #023741",
"Q7.	c #023740",
"R7.	c #033741",
"S7.	c #033940",
"T7.	c #043940",
"U7.	c #083D45",
"V7.	c #10414C",
"W7.	c #125053",
"X7.	c #156758",
"Y7.	c #29805B",
"Z7.	c #3E825A",
"`7.	c #5D8B5B",
" 8.	c #5E8F60",
".8.	c #5F8C5C",
"+8.	c #618858",
"@8.	c #618857",
"#8.	c #608959",
"$8.	c #5E8859",
"%8.	c #3D7F5A",
"&8.	c #1A5649",
"*8.	c #06514D",
"=8.	c #022F3E",
"-8.	c #063E43",
";8.	c #077467",
">8.	c #12A784",
",8.	c #0FB58A",
"'8.	c #0CA881",
")8.	c #0D9576",
"!8.	c #09886D",
"~8.	c #0A9379",
"{8.	c #0B8F76",
"]8.	c #0D8E76",
"^8.	c #0E977A",
"/8.	c #10997A",
"(8.	c #13A17E",
"_8.	c #2DD195",
":8.	c #32D39A",
"<8.	c #099475",
"[8.	c #078F6C",
"}8.	c #0D8168",
"|8.	c #06504E",
"18.	c #096859",
"28.	c #0B9F79",
"38.	c #089F76",
"48.	c #0CAB7F",
"58.	c #13CE94",
"68.	c #11D293",
"78.	c #17D497",
"88.	c #32E295",
"98.	c #45E395",
"08.	c #4BE497",
"a8.	c #4CE396",
"b8.	c #4BE297",
"c8.	c #4CE198",
"d8.	c #52E6A0",
"e8.	c #6DF4A5",
"f8.	c #6DF6A6",
"g8.	c #6DF5A6",
"h8.	c #69EFA4",
"i8.	c #58E49D",
"j8.	c #29D192",
"k8.	c #14A77A",
"l8.	c #044D4F",
"m8.	c #033C45",
"n8.	c #023B41",
"o8.	c #06524D",
"p8.	c #09725D",
"q8.	c #0A715E",
"r8.	c #0C7D68",
"s8.	c #0B8A70",
"t8.	c #0C8A70",
"u8.	c #0C8A72",
"v8.	c #0D8C72",
"w8.	c #0F8B72",
"x8.	c #0F8C72",
"y8.	c #0C826B",
"z8.	c #0A7C69",
"A8.	c #0B7869",
"B8.	c #067969",
"C8.	c #065F5B",
"D8.	c #055758",
"E8.	c #054B4F",
"F8.	c #054A4E",
"G8.	c #044B4E",
"H8.	c #033644",
"I8.	c #033645",
"J8.	c #033745",
"K8.	c #023644",
"L8.	c #033443",
"M8.	c #033444",
"N8.	c #033445",
"O8.	c #095352",
"P8.	c #17B083",
"Q8.	c #149A7A",
"R8.	c #09786E",
"S8.	c #06776B",
"T8.	c #067368",
"U8.	c #066F69",
"V8.	c #096F69",
"W8.	c #0C6362",
"X8.	c #0D545C",
"Y8.	c #0B4C56",
"Z8.	c #0A3D4C",
"`8.	c #042B3E",
" 9.	c #04233B",
".9.	c #09283F",
"+9.	c #0D2941",
"@9.	c #09283C",
"#9.	c #082839",
"$9.	c #0E263A",
"%9.	c #10233C",
"&9.	c #0C213A",
"*9.	c #051C34",
"=9.	c #041E34",
"-9.	c #063848",
";9.	c #083F4C",
">9.	c #08474F",
",9.	c #065D5C",
"'9.	c #04635F",
")9.	c #066A63",
"!9.	c #076D65",
"~9.	c #14A179",
"{9.	c #094E4B",
"]9.	c #04223A",
"^9.	c #02293D",
"/9.	c #023140",
"(9.	c #055D57",
"_9.	c #05645B",
":9.	c #075957",
"<9.	c #075855",
"[9.	c #085B55",
"}9.	c #0D665D",
"|9.	c #0F675E",
"19.	c #0B685D",
"29.	c #09685D",
"39.	c #09675D",
"49.	c #09675C",
"59.	c #08675C",
"69.	c #08665A",
"79.	c #096456",
"89.	c #066555",
"99.	c #05504B",
"09.	c #02333D",
"a9.	c #02343F",
"b9.	c #032234",
"c9.	c #033E46",
"d9.	c #096B58",
"e9.	c #128968",
"f9.	c #21AC7C",
"g9.	c #47C58E",
"h9.	c #5FD796",
"i9.	c #69EB9C",
"j9.	c #70ED99",
"k9.	c #85F597",
"l9.	c #7BE994",
"m9.	c #75E28A",
"n9.	c #71E187",
"o9.	c #75E489",
"p9.	c #77E48B",
"q9.	c #7BE48E",
"r9.	c #53DF8D",
"s9.	c #24BF84",
"t9.	c #10B883",
"u9.	c #12B682",
"v9.	c #0D9A75",
"w9.	c #078165",
"x9.	c #086659",
"y9.	c #074849",
"z9.	c #054144",
"A9.	c #08504C",
"B9.	c #087C61",
"C9.	c #069576",
"D9.	c #17BF8F",
"E9.	c #1BD098",
"F9.	c #0DBC8C",
"G9.	c #0FA782",
"H9.	c #0D8D75",
"I9.	c #0A8D74",
"J9.	c #0A8871",
"K9.	c #06806C",
"L9.	c #0C8B75",
"M9.	c #0E927A",
"N9.	c #0E977D",
"O9.	c #0F9A7C",
"P9.	c #109A7D",
"Q9.	c #149F7E",
"R9.	c #12B088",
"S9.	c #63DF99",
"T9.	c #6BE89F",
"U9.	c #149370",
"V9.	c #068464",
"W9.	c #097665",
"X9.	c #087662",
"Y9.	c #13BC89",
"Z9.	c #14C990",
"`9.	c #0FC990",
" 0.	c #0DC890",
".0.	c #0CCB94",
"+0.	c #0FD49A",
"@0.	c #11DD9D",
"#0.	c #19DD9E",
"$0.	c #2EEAA2",
"%0.	c #36EFA6",
"&0.	c #35EDA3",
"*0.	c #34ECA1",
"=0.	c #38EDA5",
"-0.	c #3CF0A7",
";0.	c #3BF0A8",
">0.	c #30E7A0",
",0.	c #2FE8A0",
"'0.	c #31E99E",
")0.	c #26E09A",
"!0.	c #1CDC97",
"~0.	c #15DA97",
"{0.	c #0AB784",
"]0.	c #09A67B",
"^0.	c #067C67",
"/0.	c #024144",
"(0.	c #067761",
"_0.	c #067D62",
":0.	c #09926D",
"<0.	c #10B485",
"[0.	c #11D196",
"}0.	c #10D295",
"|0.	c #0FD496",
"10.	c #0FD799",
"20.	c #0DD799",
"30.	c #0CD699",
"40.	c #0CD799",
"50.	c #0FDB9C",
"60.	c #0BD69A",
"70.	c #0BCE94",
"80.	c #09C490",
"90.	c #08BB8A",
"00.	c #08BA88",
"a0.	c #08B885",
"b0.	c #08B684",
"c0.	c #09B581",
"d0.	c #0AB581",
"e0.	c #0AA97C",
"f0.	c #08A57C",
"g0.	c #0AA079",
"h0.	c #0A9F78",
"i0.	c #0F9F79",
"j0.	c #06866C",
"k0.	c #057E6A",
"l0.	c #047B69",
"m0.	c #047E6B",
"n0.	c #04816B",
"o0.	c #04816C",
"p0.	c #046D63",
"q0.	c #056660",
"r0.	c #04595A",
"s0.	c #045658",
"t0.	c #03494F",
"u0.	c #064D52",
"v0.	c #10A17A",
"w0.	c #138872",
"x0.	c #096161",
"y0.	c #086661",
"z0.	c #096862",
"A0.	c #137670",
"B0.	c #12736E",
"C0.	c #136B68",
"D0.	c #0E6C67",
"E0.	c #096660",
"F0.	c #065759",
"G0.	c #053B4A",
"H0.	c #053544",
"I0.	c #063F4A",
"J0.	c #053F4A",
"K0.	c #09575A",
"L0.	c #125F61",
"M0.	c #136164",
"N0.	c #106767",
"O0.	c #126F6D",
"P0.	c #127973",
"Q0.	c #076D66",
"R0.	c #11796C",
"S0.	c #18C68F",
"T0.	c #09665C",
"U0.	c #06283F",
"V0.	c #031A30",
"W0.	c #044D53",
"X0.	c #045257",
"Y0.	c #045156",
"Z0.	c #045456",
"`0.	c #035757",
" a.	c #035957",
".a.	c #03625A",
"+a.	c #03645A",
"@a.	c #03635A",
"#a.	c #04625A",
"$a.	c #056A5C",
"%a.	c #057060",
"&a.	c #047362",
"*a.	c #077261",
"=a.	c #06876C",
"-a.	c #06886C",
";a.	c #078A6E",
">a.	c #068B6E",
",a.	c #068D6F",
"'a.	c #079072",
")a.	c #069577",
"!a.	c #089F7D",
"~a.	c #0AAC84",
"{a.	c #0BB88B",
"]a.	c #0CC08D",
"^a.	c #11CF97",
"/a.	c #0EC48F",
"(a.	c #0EC28E",
"_a.	c #10C28E",
":a.	c #10AF84",
"<a.	c #0A725F",
"[a.	c #046055",
"}a.	c #04524D",
"|a.	c #055957",
"1a.	c #088B6A",
"2a.	c #0AAF7F",
"3a.	c #1BD693",
"4a.	c #2EDF99",
"5a.	c #3FE49C",
"6a.	c #49F1A5",
"7a.	c #48F1A5",
"8a.	c #45F0A5",
"9a.	c #40F1AA",
"0a.	c #42F2AA",
"aa.	c #40F2A8",
"ba.	c #3CF1A5",
"ca.	c #3CF2A3",
"da.	c #35EFA1",
"ea.	c #1FE19F",
"fa.	c #11DC9D",
"ga.	c #10DC9B",
"ha.	c #0ECD94",
"ia.	c #0AAB7E",
"ja.	c #0BAE7F",
"ka.	c #10AA7F",
"la.	c #0FA57E",
"ma.	c #0A705F",
"na.	c #075C55",
"oa.	c #088C6A",
"pa.	c #0B9672",
"qa.	c #49CB92",
"ra.	c #67E49C",
"sa.	c #19BA8D",
"ta.	c #12A681",
"ua.	c #119B7D",
"va.	c #0E977B",
"wa.	c #0C9379",
"xa.	c #0A9278",
"ya.	c #0E8270",
"za.	c #10917B",
"Aa.	c #0F997D",
"Ba.	c #119B7E",
"Ca.	c #129D7F",
"Da.	c #12A983",
"Ea.	c #62DD98",
"Fa.	c #69E89B",
"Ga.	c #179F73",
"Ha.	c #067960",
"Ia.	c #043A3C",
"Ja.	c #099170",
"Ka.	c #18D79B",
"La.	c #1ADF9E",
"Ma.	c #0BD096",
"Na.	c #0CCD96",
"Oa.	c #0CC18D",
"Pa.	c #11C894",
"Qa.	c #1ACC9A",
"Ra.	c #1BC292",
"Sa.	c #19DDA1",
"Ta.	c #18DA9E",
"Ua.	c #1ADA9D",
"Va.	c #1DCC96",
"Wa.	c #16C792",
"Xa.	c #11C48D",
"Ya.	c #11C48C",
"Za.	c #17CA91",
"`a.	c #1BD398",
" b.	c #11C88E",
".b.	c #0BC58A",
"+b.	c #0BC68C",
"@b.	c #0BC88E",
"#b.	c #0CCD94",
"$b.	c #0EC692",
"%b.	c #0FBE8C",
"&b.	c #085953",
"*b.	c #094D4C",
"=b.	c #096C5B",
"-b.	c #0B755F",
";b.	c #0B7B64",
">b.	c #129570",
",b.	c #16C18B",
"'b.	c #0FE59B",
")b.	c #10E79E",
"!b.	c #10E99F",
"~b.	c #12E9A1",
"{b.	c #0DCD92",
"]b.	c #0DCB91",
"^b.	c #0CCB92",
"/b.	c #0AB785",
"(b.	c #08B685",
"_b.	c #08B686",
":b.	c #07B586",
"<b.	c #07B385",
"[b.	c #07AF82",
"}b.	c #07AE80",
"|b.	c #07AA7C",
"1b.	c #07A77A",
"2b.	c #07A67A",
"3b.	c #07A379",
"4b.	c #07A177",
"5b.	c #069F78",
"6b.	c #079B76",
"7b.	c #079A75",
"8b.	c #0D9A78",
"9b.	c #07876F",
"0b.	c #05846D",
"ab.	c #05826E",
"bb.	c #058670",
"cb.	c #068872",
"db.	c #0BBA90",
"eb.	c #0CB990",
"fb.	c #09917B",
"gb.	c #068771",
"hb.	c #040C2C",
"ib.	c #06635C",
"jb.	c #0E8F77",
"kb.	c #0C9D7E",
"lb.	c #0B6866",
"mb.	c #0C5D63",
"nb.	c #0D575D",
"ob.	c #0E5C5F",
"pb.	c #0C6163",
"qb.	c #0D6667",
"rb.	c #15706D",
"sb.	c #17716E",
"tb.	c #16716E",
"ub.	c #126F6B",
"vb.	c #0F6965",
"wb.	c #146D67",
"xb.	c #126C66",
"yb.	c #08625F",
"zb.	c #074555",
"Ab.	c #064756",
"Bb.	c #04394A",
"Cb.	c #076965",
"Db.	c #086A64",
"Eb.	c #0F7368",
"Fb.	c #13766C",
"Gb.	c #106F69",
"Hb.	c #116F6A",
"Ib.	c #14706C",
"Jb.	c #136F6B",
"Kb.	c #16726E",
"Lb.	c #0E6565",
"Mb.	c #0A565D",
"Nb.	c #0C585E",
"Ob.	c #0A706B",
"Pb.	c #09826E",
"Qb.	c #075152",
"Rb.	c #031D2F",
"Sb.	c #041130",
"Tb.	c #04645E",
"Ub.	c #057466",
"Vb.	c #0A9A7E",
"Wb.	c #08A181",
"Xb.	c #08A684",
"Yb.	c #069478",
"Zb.	c #058D74",
"`b.	c #058B72",
" c.	c #079475",
".c.	c #12B185",
"+c.	c #0EB987",
"@c.	c #0BB987",
"#c.	c #0ABC88",
"$c.	c #09BF88",
"%c.	c #0AC087",
"&c.	c #0BC68A",
"*c.	c #09C68A",
"=c.	c #09C88C",
"-c.	c #08CB8E",
";c.	c #08CC91",
">c.	c #08CD92",
",c.	c #08CE93",
"'c.	c #09D095",
")c.	c #0AD295",
"!c.	c #0BD295",
"~c.	c #0DD195",
"{c.	c #0ED99A",
"]c.	c #0DDA99",
"^c.	c #11E7A1",
"/c.	c #0FE79D",
"(c.	c #10E29C",
"_c.	c #10E09B",
":c.	c #13D496",
"<c.	c #13B381",
"[c.	c #0C9770",
"}c.	c #0B8B6A",
"|c.	c #088265",
"1c.	c #095550",
"2c.	c #064349",
"3c.	c #033E45",
"4c.	c #0EA47F",
"5c.	c #0BB886",
"6c.	c #0CC28F",
"7c.	c #0ED196",
"8c.	c #0ED293",
"9c.	c #0ED090",
"0c.	c #10D190",
"ac.	c #10D08F",
"bc.	c #13CF90",
"cc.	c #20DB9C",
"dc.	c #20DA9B",
"ec.	c #18D292",
"fc.	c #16D192",
"gc.	c #18D195",
"hc.	c #20D69B",
"ic.	c #20DD9F",
"jc.	c #15D89B",
"kc.	c #14DEA1",
"lc.	c #15CF96",
"mc.	c #18D39D",
"nc.	c #11D29B",
"oc.	c #0ECD95",
"pc.	c #0DD199",
"qc.	c #0BDA9C",
"rc.	c #10D194",
"sc.	c #19DD9C",
"tc.	c #19E4A1",
"uc.	c #0DA079",
"vc.	c #045649",
"wc.	c #031C32",
"xc.	c #056457",
"yc.	c #0F9970",
"zc.	c #52CE8E",
"Ac.	c #6EE79D",
"Bc.	c #1DAD84",
"Cc.	c #12A07F",
"Dc.	c #129B7D",
"Ec.	c #0F987D",
"Fc.	c #10947C",
"Gc.	c #0F8372",
"Hc.	c #0B806E",
"Ic.	c #0A7B6C",
"Jc.	c #0E7F6F",
"Kc.	c #0F8170",
"Lc.	c #0F967C",
"Mc.	c #0F987E",
"Nc.	c #10997F",
"Oc.	c #119C80",
"Pc.	c #10A780",
"Qc.	c #59DA95",
"Rc.	c #65E698",
"Sc.	c #169B6F",
"Tc.	c #06404D",
"Uc.	c #04373D",
"Vc.	c #09856A",
"Wc.	c #16CA95",
"Xc.	c #14D89B",
"Yc.	c #0DC891",
"Zc.	c #0EC391",
"`c.	c #13C596",
" d.	c #11C793",
".d.	c #1AC897",
"+d.	c #20C997",
"@d.	c #1EDDA3",
"#d.	c #1FC395",
"$d.	c #16967D",
"%d.	c #169C7F",
"&d.	c #18BA90",
"*d.	c #16BB8F",
"=d.	c #14BA8E",
"-d.	c #0FB88A",
";d.	c #0AB889",
">d.	c #0BB78A",
",d.	c #0CB88B",
"'d.	c #10BB8F",
")d.	c #10C492",
"!d.	c #14C895",
"~d.	c #0C5E56",
"{d.	c #074748",
"]d.	c #0C705F",
"^d.	c #1DC995",
"/d.	c #1CD398",
"(d.	c #14BF89",
"_d.	c #0EB083",
":d.	c #0EAA81",
"<d.	c #0AAC82",
"[d.	c #0E9577",
"}d.	c #0F9170",
"|d.	c #0D9271",
"1d.	c #0A9272",
"2d.	c #0A9273",
"3d.	c #088E73",
"4d.	c #089176",
"5d.	c #078F75",
"6d.	c #079076",
"7d.	c #079177",
"8d.	c #069176",
"9d.	c #069076",
"0d.	c #068F76",
"ad.	c #078A73",
"bd.	c #07816D",
"cd.	c #057F6C",
"dd.	c #04796A",
"ed.	c #047769",
"fd.	c #05796B",
"gd.	c #067A6D",
"hd.	c #0B7E6F",
"id.	c #087F6E",
"jd.	c #097F6E",
"kd.	c #056D62",
"ld.	c #053945",
"md.	c #042C3E",
"nd.	c #032535",
"od.	c #051C2B",
"pd.	c #18BE93",
"qd.	c #19C99B",
"rd.	c #157D75",
"sd.	c #1A6D6B",
"td.	c #18726E",
"ud.	c #1A6F6D",
"vd.	c #176D6D",
"wd.	c #146B69",
"xd.	c #156B6B",
"yd.	c #156C6B",
"zd.	c #136565",
"Ad.	c #115D5F",
"Bd.	c #095A5C",
"Cd.	c #08575A",
"Dd.	c #06374A",
"Ed.	c #074E57",
"Fd.	c #136061",
"Gd.	c #146565",
"Hd.	c #14706D",
"Id.	c #16716F",
"Jd.	c #15716E",
"Kd.	c #14706E",
"Ld.	c #15706E",
"Md.	c #176F6E",
"Nd.	c #166E6D",
"Od.	c #166466",
"Pd.	c #136165",
"Qd.	c #0F6869",
"Rd.	c #16B48E",
"Sd.	c #16CA9A",
"Td.	c #0D8371",
"Ud.	c #052931",
"Vd.	c #053745",
"Wd.	c #06645F",
"Xd.	c #0BA181",
"Yd.	c #0A8572",
"Zd.	c #067A6C",
"`d.	c #067568",
" e.	c #047869",
".e.	c #047969",
"+e.	c #047B6A",
"@e.	c #057F6B",
"#e.	c #05806C",
"$e.	c #06816C",
"%e.	c #058E74",
"&e.	c #069477",
"*e.	c #079375",
"=e.	c #0A9F7C",
"-e.	c #099F7B",
";e.	c #0DB284",
">e.	c #0EB785",
",e.	c #0FB885",
"'e.	c #11B784",
")e.	c #13AC80",
"!e.	c #0F997A",
"~e.	c #0A8E73",
"{e.	c #0C9875",
"]e.	c #10A67B",
"^e.	c #16B483",
"/e.	c #18B688",
"(e.	c #0A5450",
"_e.	c #06353F",
":e.	c #13BC8D",
"<e.	c #10C892",
"[e.	c #0FC894",
"}e.	c #0EC291",
"|e.	c #0BBB8C",
"1e.	c #0BB989",
"2e.	c #09B988",
"3e.	c #17BE8F",
"4e.	c #15BB8E",
"5e.	c #16BB8E",
"6e.	c #18B48D",
"7e.	c #18A785",
"8e.	c #16AF87",
"9e.	c #1EE1A5",
"0e.	c #21C495",
"ae.	c #1DC898",
"be.	c #0EC18F",
"ce.	c #10C393",
"de.	c #0CC492",
"ee.	c #0CC28E",
"fe.	c #15D499",
"ge.	c #17DC9F",
"he.	c #0E9F7A",
"ie.	c #045B4F",
"je.	c #12A374",
"ke.	c #53D18C",
"le.	c #6CE69C",
"me.	c #1AAD84",
"ne.	c #119F81",
"oe.	c #119A7F",
"pe.	c #0F937C",
"qe.	c #0F8472",
"re.	c #0D806E",
"se.	c #0C7A6D",
"te.	c #0F8071",
"ue.	c #0F8272",
"ve.	c #0E957C",
"we.	c #0E957D",
"xe.	c #0F967E",
"ye.	c #0F997E",
"ze.	c #0F9F7E",
"Ae.	c #28CB8B",
"Be.	c #37D792",
"Ce.	c #0C8466",
"De.	c #04544F",
"Ee.	c #042A43",
"Fe.	c #040C24",
"Ge.	c #032533",
"He.	c #075851",
"Ie.	c #0EC08B",
"Je.	c #10CB90",
"Ke.	c #16A07A",
"Le.	c #15B68A",
"Me.	c #10B789",
"Ne.	c #0DB385",
"Oe.	c #0DC08D",
"Pe.	c #14C493",
"Qe.	c #17C996",
"Re.	c #20C597",
"Se.	c #1DB18F",
"Te.	c #1AB08D",
"Ue.	c #17B68E",
"Ve.	c #09B487",
"We.	c #09BB8A",
"Xe.	c #08BC8B",
"Ye.	c #0ABD8D",
"Ze.	c #0BBA8C",
"`e.	c #0DB58A",
" f.	c #0EB689",
".f.	c #0FB588",
"+f.	c #16B98D",
"@f.	c #0F5A54",
"#f.	c #0D775D",
"$f.	c #0FCC8F",
"%f.	c #14BF8A",
"&f.	c #18B187",
"*f.	c #0FA17D",
"=f.	c #0EA37F",
"-f.	c #0EAA83",
";f.	c #10B78A",
">f.	c #0C9078",
",f.	c #0B8972",
"'f.	c #0C8870",
")f.	c #098970",
"!f.	c #068F75",
"~f.	c #098873",
"{f.	c #0A8873",
"]f.	c #0A8673",
"^f.	c #077F6C",
"/f.	c #067466",
"(f.	c #076760",
"_f.	c #06776A",
":f.	c #06796C",
"<f.	c #07796D",
"[f.	c #08746A",
"}f.	c #09786D",
"|f.	c #097A6E",
"1f.	c #09796E",
"2f.	c #06615D",
"3f.	c #045757",
"4f.	c #07846E",
"5f.	c #10B68D",
"6f.	c #15C198",
"7f.	c #13887A",
"8f.	c #16887C",
"9f.	c #148276",
"0f.	c #0E6D66",
"af.	c #0D6A65",
"bf.	c #116D6A",
"cf.	c #196769",
"df.	c #145F63",
"ef.	c #0B5A5D",
"ff.	c #0B5359",
"gf.	c #0B4E57",
"hf.	c #052C44",
"if.	c #05293E",
"jf.	c #063144",
"kf.	c #062E43",
"lf.	c #052A3F",
"mf.	c #062E45",
"nf.	c #07394B",
"of.	c #0A5158",
"pf.	c #09565A",
"qf.	c #0C565A",
"rf.	c #0F5B5F",
"sf.	c #0F5B60",
"tf.	c #115C60",
"uf.	c #1A6667",
"vf.	c #186869",
"wf.	c #0E756B",
"xf.	c #137E73",
"yf.	c #188479",
"zf.	c #168178",
"Af.	c #19C097",
"Bf.	c #14D49F",
"Cf.	c #053136",
"Df.	c #056A61",
"Ef.	c #05796C",
"Ff.	c #057568",
"Gf.	c #04796B",
"Hf.	c #077569",
"If.	c #07786A",
"Jf.	c #08806D",
"Kf.	c #09816E",
"Lf.	c #0B816F",
"Mf.	c #0A8471",
"Nf.	c #098E75",
"Of.	c #078E75",
"Pf.	c #078C73",
"Qf.	c #088C71",
"Rf.	c #0B8B70",
"Sf.	c #0E8B73",
"Tf.	c #0EB788",
"Uf.	c #0FAA80",
"Vf.	c #1AB989",
"Wf.	c #1AD196",
"Xf.	c #12BF88",
"Yf.	c #0F8E6D",
"Zf.	c #0A333C",
"`f.	c #16AF88",
" g.	c #0DB78B",
".g.	c #0BB98A",
"+g.	c #0AB88A",
"@g.	c #0AB688",
"#g.	c #0CB589",
"$g.	c #11B58A",
"%g.	c #14B68C",
"&g.	c #17AA89",
"*g.	c #1BA187",
"=g.	c #23BB93",
"-g.	c #1BD8A0",
";g.	c #19C794",
">g.	c #14C694",
",g.	c #10C28F",
"'g.	c #12C492",
")g.	c #14C393",
"!g.	c #13BE8B",
"~g.	c #12CC91",
"{g.	c #11D498",
"]g.	c #0B7461",
"^g.	c #043D3F",
"/g.	c #030F27",
"(g.	c #3BC184",
"_g.	c #3FDD94",
":g.	c #13AA80",
"<g.	c #10987F",
"[g.	c #0F977E",
"}g.	c #0F8473",
"|g.	c #0F8072",
"1g.	c #107E71",
"2g.	c #0E8572",
"3g.	c #0E8D77",
"4g.	c #0C8E77",
"5g.	c #0C8F77",
"6g.	c #10886C",
"7g.	c #1C8A6E",
"8g.	c #086B5D",
"9g.	c #063E42",
"0g.	c #0C8B6B",
"ag.	c #0E9476",
"bg.	c #0F846D",
"cg.	c #186B62",
"dg.	c #135E5A",
"eg.	c #196761",
"fg.	c #179A78",
"gg.	c #18B689",
"hg.	c #19CB98",
"ig.	c #1CDB9E",
"jg.	c #13D998",
"kg.	c #12DA99",
"lg.	c #13D89A",
"mg.	c #0DD697",
"ng.	c #09D695",
"og.	c #08D596",
"pg.	c #0ACE93",
"qg.	c #0AB687",
"rg.	c #0AB789",
"sg.	c #09B789",
"tg.	c #0CBC8D",
"ug.	c #0E5B54",
"vg.	c #0B6556",
"wg.	c #0AA87F",
"xg.	c #0E997A",
"yg.	c #0C977B",
"zg.	c #087F6C",
"Ag.	c #08846F",
"Bg.	c #088872",
"Cg.	c #0C7D6D",
"Dg.	c #0B806F",
"Eg.	c #0C8774",
"Fg.	c #0D8472",
"Gg.	c #0E7E6E",
"Hg.	c #0C806E",
"Ig.	c #0A695F",
"Jg.	c #09615C",
"Kg.	c #05766B",
"Lg.	c #08786D",
"Mg.	c #075456",
"Ng.	c #03464B",
"Og.	c #06454C",
"Pg.	c #031633",
"Qg.	c #093445",
"Rg.	c #0E8976",
"Sg.	c #13927C",
"Tg.	c #11957F",
"Ug.	c #0E897A",
"Vg.	c #0E8378",
"Wg.	c #137D76",
"Xg.	c #196968",
"Yg.	c #12716C",
"Zg.	c #117C73",
"`g.	c #126766",
" h.	c #0B5D60",
".h.	c #084952",
"+h.	c #041D37",
"@h.	c #05283E",
"#h.	c #083A4E",
"$h.	c #0B3E50",
"%h.	c #0A3F51",
"&h.	c #07354A",
"*h.	c #072F44",
"=h.	c #042039",
"-h.	c #043042",
";h.	c #074B53",
">h.	c #0A4B54",
",h.	c #085056",
"'h.	c #08585C",
")h.	c #0C5E60",
"!h.	c #156667",
"~h.	c #107871",
"{h.	c #0C756C",
"]h.	c #166463",
"^h.	c #157F76",
"/h.	c #128379",
"(h.	c #0C8477",
"_h.	c #109D85",
":h.	c #11A486",
"<h.	c #084048",
"[h.	c #042438",
"}h.	c #074B51",
"|h.	c #034B4F",
"1h.	c #055356",
"2h.	c #09726A",
"3h.	c #08776E",
"4h.	c #09776E",
"5h.	c #0A786E",
"6h.	c #08796D",
"7h.	c #055F5A",
"8h.	c #065E59",
"9h.	c #0D806F",
"0h.	c #0C8473",
"ah.	c #0B7F6F",
"bh.	c #0A7E6F",
"ch.	c #0B7E6D",
"dh.	c #0C7F6F",
"eh.	c #088B74",
"fh.	c #088771",
"gh.	c #088670",
"hh.	c #09816D",
"ih.	c #0C9C7E",
"jh.	c #0D987B",
"kh.	c #0F9879",
"lh.	c #0CB284",
"mh.	c #0B8A6A",
"nh.	c #0B313B",
"oh.	c #14AF87",
"ph.	c #0EB58B",
"qh.	c #0AC190",
"rh.	c #08BD8C",
"sh.	c #08BC8C",
"th.	c #0ABC8A",
"uh.	c #08CA8F",
"vh.	c #08CB90",
"wh.	c #17C795",
"xh.	c #18D29A",
"yh.	c #14D196",
"zh.	c #17D196",
"Ah.	c #18CA98",
"Bh.	c #18C091",
"Ch.	c #15AE83",
"Dh.	c #178A70",
"Eh.	c #108069",
"Fh.	c #17836B",
"Gh.	c #147668",
"Hh.	c #0F9677",
"Ih.	c #0DB685",
"Jh.	c #085E54",
"Kh.	c #229C74",
"Lh.	c #1DAB7C",
"Mh.	c #0D9376",
"Nh.	c #0D927A",
"Oh.	c #0D917A",
"Ph.	c #0E917A",
"Qh.	c #0E8E78",
"Rh.	c #0F8C77",
"Sh.	c #0E796E",
"Th.	c #0B7466",
"Uh.	c #097867",
"Vh.	c #097C6A",
"Wh.	c #077C6A",
"Xh.	c #077D69",
"Yh.	c #095A5A",
"Zh.	c #054E52",
"`h.	c #055D56",
" i.	c #021F34",
".i.	c #032638",
"+i.	c #07343E",
"@i.	c #065351",
"#i.	c #095154",
"$i.	c #0F4E53",
"%i.	c #0A3444",
"&i.	c #0D4B4F",
"*i.	c #127162",
"=i.	c #16A27F",
"-i.	c #14A57F",
";i.	c #079C76",
">i.	c #079C75",
",i.	c #069D78",
"'i.	c #08A47C",
")i.	c #08A079",
"!i.	c #079E79",
"~i.	c #0FAD82",
"{i.	c #0DAC7F",
"]i.	c #0AA27C",
"^i.	c #0C4F4B",
"/i.	c #0A4A48",
"(i.	c #087963",
"_i.	c #0A8369",
":i.	c #0C846C",
"<i.	c #09826C",
"[i.	c #0B7767",
"}i.	c #0B5F5B",
"|i.	c #06605C",
"1i.	c #07625B",
"2i.	c #09635C",
"3i.	c #0A6A60",
"4i.	c #086C60",
"5i.	c #0A7062",
"6i.	c #0B7969",
"7i.	c #0B7B6B",
"8i.	c #0A7B6A",
"9i.	c #0E816F",
"0i.	c #0D8270",
"ai.	c #0C8271",
"bi.	c #0C796A",
"ci.	c #087868",
"di.	c #097668",
"ei.	c #077266",
"fi.	c #086863",
"gi.	c #076E64",
"hi.	c #076F65",
"ii.	c #067064",
"ji.	c #067166",
"ki.	c #077066",
"li.	c #077067",
"mi.	c #085757",
"ni.	c #05444B",
"oi.	c #0B2538",
"pi.	c #081E35",
"qi.	c #062234",
"ri.	c #144050",
"si.	c #108070",
"ti.	c #0A7D6F",
"ui.	c #0B8173",
"vi.	c #0E8277",
"wi.	c #128076",
"xi.	c #0B6362",
"yi.	c #0F5E60",
"zi.	c #0B4C53",
"Ai.	c #06464D",
"Bi.	c #043644",
"Ci.	c #07434B",
"Di.	c #041432",
"Ei.	c #072D41",
"Fi.	c #07374C",
"Gi.	c #083448",
"Hi.	c #072D43",
"Ii.	c #041C36",
"Ji.	c #063341",
"Ki.	c #065054",
"Li.	c #084E54",
"Mi.	c #043144",
"Ni.	c #08484F",
"Oi.	c #0E6161",
"Pi.	c #116B69",
"Qi.	c #126C6A",
"Ri.	c #0B766E",
"Si.	c #0F8076",
"Ti.	c #108B7E",
"Ui.	c #0E8C7C",
"Vi.	c #0E8A79",
"Wi.	c #108F7A",
"Xi.	c #154C56",
"Yi.	c #08293E",
"Zi.	c #085B59",
"`i.	c #07766B",
" j.	c #06786B",
".j.	c #067169",
"+j.	c #076360",
"@j.	c #087D6D",
"#j.	c #0D8873",
"$j.	c #0D8773",
"%j.	c #0F8672",
"&j.	c #0C7E6D",
"*j.	c #097968",
"=j.	c #0A7969",
"-j.	c #097365",
";j.	c #077065",
">j.	c #0E7E6C",
",j.	c #0B8D72",
"'j.	c #099679",
")j.	c #0A9579",
"!j.	c #0B9579",
"~j.	c #0B9877",
"{j.	c #088E71",
"]j.	c #0A6F5E",
"^j.	c #0C2C38",
"/j.	c #0EAB84",
"(j.	c #10BE8E",
"_j.	c #0CB387",
":j.	c #09B186",
"<j.	c #07B286",
"[j.	c #08AF84",
"}j.	c #07AF84",
"|j.	c #08B084",
"1j.	c #09B687",
"2j.	c #09B689",
"3j.	c #06BC8A",
"4j.	c #07BC87",
"5j.	c #06BC87",
"6j.	c #0DBC89",
"7j.	c #17C28E",
"8j.	c #16B98C",
"9j.	c #139575",
"0j.	c #127161",
"aj.	c #104950",
"bj.	c #124C54",
"cj.	c #105558",
"dj.	c #0A7365",
"ej.	c #085C52",
"fj.	c #042C38",
"gj.	c #075E5B",
"hj.	c #0B8973",
"ij.	c #0C8471",
"jj.	c #0D7E6E",
"kj.	c #0F7D6F",
"lj.	c #0E746A",
"mj.	c #04474B",
"nj.	c #053B40",
"oj.	c #043C40",
"pj.	c #034C4E",
"qj.	c #052536",
"rj.	c #03152D",
"sj.	c #07303F",
"tj.	c #083243",
"uj.	c #093342",
"vj.	c #032E3F",
"wj.	c #053042",
"xj.	c #093448",
"yj.	c #124A53",
"zj.	c #136960",
"Aj.	c #0A645D",
"Bj.	c #05615A",
"Cj.	c #05615B",
"Dj.	c #044D52",
"Ej.	c #045153",
"Fj.	c #045256",
"Gj.	c #045356",
"Hj.	c #045656",
"Ij.	c #055A55",
"Jj.	c #045651",
"Kj.	c #033B44",
"Lj.	c #05464C",
"Mj.	c #044A4D",
"Nj.	c #054B4E",
"Oj.	c #06444D",
"Pj.	c #065C59",
"Qj.	c #055C57",
"Rj.	c #055B57",
"Sj.	c #065755",
"Tj.	c #055553",
"Uj.	c #055451",
"Vj.	c #055350",
"Wj.	c #054E4F",
"Xj.	c #06494D",
"Yj.	c #064A4E",
"Zj.	c #064B4C",
"`j.	c #043847",
" k.	c #06263B",
".k.	c #0D1D33",
"+k.	c #101731",
"@k.	c #0E122E",
"#k.	c #08132D",
"$k.	c #082335",
"%k.	c #123E4D",
"&k.	c #11635F",
"*k.	c #0B6363",
"=k.	c #116968",
"-k.	c #0C6361",
";k.	c #032D41",
">k.	c #021232",
",k.	c #062B40",
"'k.	c #042B40",
")k.	c #02263D",
"!k.	c #053746",
"~k.	c #065556",
"{k.	c #053845",
"]k.	c #05434D",
"^k.	c #09645F",
"/k.	c #0D6C68",
"(k.	c #05645F",
"_k.	c #0C665F",
":k.	c #164954",
"<k.	c #0B3543",
"[k.	c #050F29",
"}k.	c #090E2A",
"|k.	c #0E142E",
"1k.	c #111A31",
"2k.	c #08273B",
"3k.	c #03253A",
"4k.	c #075958",
"5k.	c #065A57",
"6k.	c #065A56",
"7k.	c #065955",
"8k.	c #065853",
"9k.	c #065854",
"0k.	c #065856",
"ak.	c #065C58",
"bk.	c #066158",
"ck.	c #06625A",
"dk.	c #076A5F",
"ek.	c #076C60",
"fk.	c #076C5F",
"gk.	c #076C61",
"hk.	c #085453",
"ik.	c #064A4F",
"jk.	c #05494E",
"kk.	c #06484E",
"lk.	c #05474D",
"mk.	c #04484E",
"nk.	c #06484C",
"ok.	c #054347",
"pk.	c #054045",
"qk.	c #06333E",
"rk.	c #061C30",
"sk.	c #055B54",
"tk.	c #066758",
"uk.	c #07715F",
"vk.	c #076A5D",
"wk.	c #06675D",
"xk.	c #05665C",
"yk.	c #05665D",
"zk.	c #04665C",
"Ak.	c #05635A",
"Bk.	c #066F61",
"Ck.	c #067463",
"Dk.	c #067062",
"Ek.	c #067361",
"Fk.	c #067462",
"Gk.	c #0D7966",
"Hk.	c #157E6A",
"Ik.	c #15605D",
"Jk.	c #0B3548",
"Kk.	c #063143",
"Lk.	c #053141",
"Mk.	c #022839",
"Nk.	c #065150",
"Ok.	c #065653",
"Pk.	c #065754",
"Qk.	c #054E4C",
"Rk.	c #045B58",
"Sk.	c #031D31",
"Tk.	c #021E32",
"Uk.	c #021E31",
"Vk.	c #021F32",
"Wk.	c #04142F",
"Xk.	c #0E1F37",
"Yk.	c #112539",
"Zk.	c #0E2336",
"`k.	c #122839",
" l.	c #132A3C",
".l.	c #0A3244",
"+l.	c #052E3F",
"@l.	c #0A373F",
"#l.	c #245D4F",
"$l.	c #266150",
"%l.	c #27614F",
"&l.	c #27624F",
"*l.	c #26634F",
"=l.	c #236351",
"-l.	c #1E6351",
";l.	c #186352",
">l.	c #166253",
",l.	c #146053",
"'l.	c #116052",
")l.	c #0F6051",
"!l.	c #0F5F52",
"~l.	c #0D5F52",
"{l.	c #0A6053",
"]l.	c #0A6155",
"^l.	c #0A6257",
"/l.	c #096157",
"(l.	c #0A504A",
"_l.	c #084C48",
":l.	c #084A4A",
"<l.	c #033541",
"[l.	c #04534F",
"}l.	c #04524E",
"|l.	c #043742",
"1l.	c #053241",
"2l.	c #063240",
"3l.	c #063141",
"4l.	c #063041",
"5l.	c #062F40",
"6l.	c #052E40",
"7l.	c #062D41",
"8l.	c #052C3F",
"9l.	c #042A3E",
"0l.	c #042038",
"al.	c #072237",
"bl.	c #0D1832",
"cl.	c #0F1634",
"dl.	c #0D1432",
"el.	c #0F1834",
"fl.	c #0E1E37",
"gl.	c #0C2A41",
"hl.	c #0E3040",
"il.	c #0D3442",
"jl.	c #0E394A",
"kl.	c #083446",
"ll.	c #042E40",
"ml.	c #021834",
"nl.	c #03203B",
"ol.	c #0B4953",
"pl.	c #0F4C56",
"ql.	c #0F4E54",
"rl.	c #114D4F",
"sl.	c #0E3446",
"tl.	c #0A263B",
"ul.	c #0E1833",
"vl.	c #0F1633",
"wl.	c #101734",
"xl.	c #0B1831",
"yl.	c #033843",
"zl.	c #023A44",
"Al.	c #054A4D",
"Bl.	c #045150",
"Cl.	c #035150",
"Dl.	c #044F51",
"El.	c #033E48",
"Fl.	c #034049",
"Gl.	c #023944",
"Hl.	c #05424A",
"Il.	c #04464C",
"Jl.	c #033F49",
"Kl.	c #052132",
"Ll.	c #04333D",
"Ml.	c #04353F",
"Nl.	c #043E48",
"Ol.	c #063D47",
"Pl.	c #073D47",
"Ql.	c #083D47",
"Rl.	c #0A3D47",
"Sl.	c #0D3C47",
"Tl.	c #0F3C46",
"Ul.	c #103E46",
"Vl.	c #123E47",
"Wl.	c #103C46",
"Xl.	c #073441",
"Yl.	c #062F41",
"Zl.	c #102F41",
"`l.	c #112F3E",
" m.	c #0E2C3E",
".m.	c #0F2C3E",
"+m.	c #0B2439",
"@m.	c #042E38",
"#m.	c #02323A",
"$m.	c #032F39",
"%m.	c #032D38",
"&m.	c #031F30",
"*m.	c #03112B",
"=m.	c #042638",
"-m.	c #0E5F51",
";m.	c #168668",
">m.	c #198A68",
",m.	c #1D9069",
"'m.	c #23946A",
")m.	c #37996B",
"!m.	c #3F9A69",
"~m.	c #439B68",
"{m.	c #4D9B6A",
"]m.	c #5EA571",
"^m.	c #67AD74",
"/m.	c #69AE75",
"(m.	c #5BAA70",
"_m.	c #52A86D",
":m.	c #4DAB72",
"<m.	c #45AA74",
"[m.	c #39A670",
"}m.	c #279F76",
"|m.	c #5DD593",
"1m.	c #62DB90",
"2m.	c #62D68F",
"3m.	c #60D48D",
"4m.	c #5CD48E",
"5m.	c #57D48E",
"6m.	c #4BD48F",
"7m.	c #3FD38F",
"8m.	c #39D28E",
"9m.	c #35D38F",
"0m.	c #32D28E",
"am.	c #2ED18E",
"bm.	c #2CD18F",
"cm.	c #28D291",
"dm.	c #22CF90",
"em.	c #20D191",
"fm.	c #1DD394",
"gm.	c #1BDC9D",
"hm.	c #14C891",
"im.	c #11C38F",
"jm.	c #10B78B",
"km.	c #0E9D7B",
"lm.	c #0D7E69",
"mm.	c #0B625B",
"nm.	c #0A5856",
"om.	c #085856",
"pm.	c #085C58",
"qm.	c #055854",
"rm.	c #063E45",
"sm.	c #062638",
"tm.	c #07484D",
"um.	c #085755",
"vm.	c #095A56",
"wm.	c #095956",
"xm.	c #097462",
"ym.	c #0B7964",
"zm.	c #097863",
"Am.	c #08765F",
"Bm.	c #086555",
"Cm.	c #031329",
"Dm.	c #030E2B",
"Em.	c #051930",
"Fm.	c #052237",
"Gm.	c #052538",
"Hm.	c #062639",
"Im.	c #051F33",
"Jm.	c #0D3845",
"Km.	c #134D53",
"Lm.	c #0F3D49",
"Mm.	c #06283A",
"Nm.	c #072A3C",
"Om.	c #0F4B52",
"Pm.	c #156362",
"Qm.	c #115C5E",
"Rm.	c #08494E",
"Sm.	c #053942",
"Tm.	c #010C2B",
"Um.	c #062A37",
"Vm.	c #053642",
"Wm.	c #04323F",
"Xm.	c #042A3B",
"Ym.	c #043945",
"Zm.	c #032133",
"`m.	c #032434",
" n.	c #052334",
".n.	c #041C30",
"+n.	c #072338",
"@n.	c #0D3242",
"#n.	c #133A4A",
"$n.	c #113646",
"%n.	c #0C2037",
"&n.	c #061931",
"*n.	c #0D2038",
"=n.	c #122A3F",
"-n.	c #0F263A",
";n.	c #06182E",
">n.	c #051D32",
",n.	c #051A31",
"'n.	c #051B31",
")n.	c #051B30",
"!n.	c #051C31",
"~n.	c #031C30",
"{n.	c #031C2F",
"]n.	c #041D2F",
"^n.	c #07373C",
"/n.	c #084747",
"(n.	c #084A49",
"_n.	c #0A4B4A",
":n.	c #074549",
"<n.	c #084248",
"[n.	c #073943",
"}n.	c #073642",
"|n.	c #072C3C",
"1n.	c #021D32",
"2n.	c #063541",
"3n.	c #073942",
"4n.	c #09564F",
"5n.	c #11A980",
"6n.	c #12AE82",
"7n.	c #19C28D",
"8n.	c #1CC88D",
"9n.	c #1FC88A",
"0n.	c #22C787",
"an.	c #26C887",
"bn.	c #2CC988",
"cn.	c #2EC885",
"dn.	c #32C986",
"en.	c #36C986",
"fn.	c #3AC985",
"gn.	c #3ECA85",
"hn.	c #49CB85",
"in.	c #59CC84",
"jn.	c #60CC85",
"kn.	c #61CC83",
"ln.	c #65CD85",
"mn.	c #66CE85",
"nn.	c #60C785",
"on.	c #338864",
"pn.	c #206E55",
"qn.	c #297159",
"rn.	c #2D7157",
"sn.	c #2E6C51",
"tn.	c #31674D",
"un.	c #356A50",
"vn.	c #376B51",
"wn.	c #33634E",
"xn.	c #275245",
"yn.	c #1F4D41",
"zn.	c #1D4D42",
"An.	c #194D43",
"Bn.	c #134B45",
"Cn.	c #104945",
"Dn.	c #0E4845",
"En.	c #0B4846",
"Fn.	c #093D40",
"Gn.	c #04122D",
"Hn.	c #04122C",
"In.	c #041E32",
"Jn.	c #047567",
"Kn.	c #077464",
"Ln.	c #10826C",
"Mn.	c #1AA381",
"Nn.	c #1FA986",
"On.	c #1EAB85",
"Pn.	c #20AF85",
"Qn.	c #35B589",
"Rn.	c #3AB889",
"Sn.	c #3FB98A",
"Tn.	c #44B98A",
"Un.	c #4BBC89",
"Vn.	c #4CBA89",
"Wn.	c #4EBE8A",
"Xn.	c #45BE8B",
"Yn.	c #41BF8B",
"Zn.	c #3BBC89",
"`n.	c #35BC86",
" o.	c #2FBB85",
".o.	c #15B689",
"+o.	c #1ABB8B",
"@o.	c #17BB8A",
"#o.	c #11B587",
"$o.	c #0FB689",
"%o.	c #0DB78A",
"&o.	c #0CB58A",
"*o.	c #10A17E",
"=o.	c #0E806E",
"-o.	c #0CA382",
";o.	c #12BC8E",
">o.	c #0EB78C",
",o.	c #14B28B",
"'o.	c #3BCB90",
")o.	c #40D393",
"!o.	c #3CD595",
"~o.	c #31D293",
"{o.	c #24D091",
"]o.	c #1ECD91",
"^o.	c #0BA47F",
"/o.	c #079F7A",
"(o.	c #067A69",
"_o.	c #07313C",
":o.	c #0C675F",
"<o.	c #0A9D7B",
"[o.	c #09A17C",
"}o.	c #089F7C",
"|o.	c #07AD87",
"1o.	c #08AB86",
"2o.	c #078C6F",
"3o.	c #077363",
"4o.	c #05454D",
"5o.	c #010E2F",
"6o.	c #032432",
"7o.	c #126963",
"8o.	c #177C6C",
"9o.	c #1A997E",
"0o.	c #146C64",
"ao.	c #0C655E",
"bo.	c #0B5D5D",
"co.	c #0E6767",
"do.	c #146665",
"eo.	c #126162",
"fo.	c #136163",
"go.	c #15736F",
"ho.	c #148379",
"io.	c #0BA382",
"jo.	c #08A580",
"ko.	c #05826D",
"lo.	c #010D2E",
"mo.	c #062132",
"no.	c #127666",
"oo.	c #138E77",
"po.	c #0D997A",
"qo.	c #099D7A",
"ro.	c #099877",
"so.	c #068A73",
"to.	c #057A6B",
"uo.	c #087767",
"vo.	c #087D6A",
"wo.	c #0A7F6D",
"xo.	c #0F7969",
"yo.	c #12685B",
"zo.	c #072B38",
"Ao.	c #020B2D",
"Bo.	c #010C2E",
"Co.	c #05454F",
"Do.	c #056A5F",
"Eo.	c #08856F",
"Fo.	c #0C977F",
"Go.	c #14867B",
"Ho.	c #137B75",
"Io.	c #0E5057",
"Jo.	c #0D4E56",
"Ko.	c #13595E",
"Lo.	c #116A6A",
"Mo.	c #0D5D61",
"No.	c #064E52",
"Oo.	c #0B5351",
"Po.	c #136A62",
"Qo.	c #105459",
"Ro.	c #010D2B",
"So.	c #010D2D",
"To.	c #043C48",
"Uo.	c #079875",
"Vo.	c #07A782",
"Wo.	c #09AD88",
"Xo.	c #099276",
"Yo.	c #099174",
"Zo.	c #08474E",
"`o.	c #030E27",
" p.	c #079175",
".p.	c #14A982",
"+p.	c #19B084",
"@p.	c #1FAE82",
"#p.	c #2BB687",
"$p.	c #2FB686",
"%p.	c #31B584",
"&p.	c #18B58C",
"*p.	c #11C08F",
"=p.	c #10B88C",
"-p.	c #0DAE87",
";p.	c #10A37F",
">p.	c #11B588",
",p.	c #12B587",
"'p.	c #13B688",
")p.	c #15B588",
"!p.	c #19B687",
"~p.	c #1AB587",
"{p.	c #1BB485",
"]p.	c #1DB486",
"^p.	c #22BC8A",
"/p.	c #25C490",
"(p.	c #1FC08E",
"_p.	c #37C78A",
":p.	c #48CC88",
"<p.	c #52CF8C",
"[p.	c #59D18E",
"}p.	c #5FD18C",
"|p.	c #70D491",
"1p.	c #71D391",
"2p.	c #6DD08F",
"3p.	c #5DCE8E",
"4p.	c #54CE8F",
"5p.	c #50CD8E",
"6p.	c #47CB8E",
"7p.	c #33C58C",
"8p.	c #25BE89",
"9p.	c #22BA89",
"0p.	c #20B488",
"ap.	c #169D7A",
"bp.	c #07514D",
"cp.	c #045D57",
"dp.	c #066762",
"ep.	c #076B63",
"fp.	c #076C63",
"gp.	c #0B7568",
"hp.	c #107B6C",
"ip.	c #158472",
"jp.	c #178774",
"kp.	c #178675",
"lp.	c #0E8A73",
"mp.	c #14997C",
"np.	c #199E7F",
"op.	c #149C7C",
"pp.	c #0B9779",
"qp.	c #0C9779",
"rp.	c #0C9778",
"sp.	c #0B9879",
"tp.	c #0C987A",
"up.	c #0CAE84",
"vp.	c #0CAE85",
"wp.	c #0BAF85",
"xp.	c #0CB085",
"yp.	c #0CAF85",
"zp.	c #0A9374",
"Ap.	c #0B9375",
"Bp.	c #0CA887",
"Cp.	c #0B776A",
"Dp.	c #0E977C",
"Ep.	c #0EA987",
"Fp.	c #15A882",
"Gp.	c #16AA80",
"Hp.	c #14AA80",
"Ip.	c #10AA81",
"Jp.	c #13A67E",
"Kp.	c #10D29C",
"Lp.	c #0CDC9F",
"Mp.	c #0ADA9E",
"Np.	c #0AAC87",
"Op.	c #051D2E",
"Pp.	c #0B5F53",
"Qp.	c #10A885",
"Rp.	c #0AA783",
"Sp.	c #08A883",
"Tp.	c #051F34",
"Up.	c #07524F",
"Vp.	c #0C7664",
"Wp.	c #109073",
"Xp.	c #11AB84",
"Yp.	c #11C090",
"Zp.	c #19CE99",
"`p.	c #23D49D",
" q.	c #21D39C",
".q.	c #1ED198",
"+q.	c #1DBA8E",
"@q.	c #1DBE91",
"#q.	c #1CB48C",
"$q.	c #157F74",
"%q.	c #16977E",
"&q.	c #13B68B",
"*q.	c #0EBE91",
"=q.	c #0AAA84",
"-q.	c #066663",
";q.	c #066C65",
">q.	c #020E2F",
",q.	c #085E5E",
"'q.	c #0C937B",
")q.	c #0EA284",
"!q.	c #0E9E82",
"~q.	c #0C7769",
"{q.	c #067B6F",
"]q.	c #066E66",
"^q.	c #075F5D",
"/q.	c #075C5C",
"(q.	c #078972",
"_q.	c #078B72",
":q.	c #0A8A72",
"<q.	c #0C9F7F",
"[q.	c #0CA985",
"}q.	c #0FA185",
"|q.	c #085756",
"1q.	c #055B59",
"2q.	c #057169",
"3q.	c #05756A",
"4q.	c #08947A",
"5q.	c #079C7A",
"6q.	c #08B489",
"7q.	c #0FAE89",
"8q.	c #12AE88",
"9q.	c #12AC86",
"0q.	c #13987D",
"aq.	c #10726C",
"bq.	c #179A7D",
"cq.	c #18B088",
"dq.	c #1CB58C",
"eq.	c #1FC895",
"fq.	c #1EC894",
"gq.	c #21C493",
"hq.	c #1AB98C",
"iq.	c #0FA67F",
"jq.	c #0D866E",
"kq.	c #095A51",
"lq.	c #084E4B",
"mq.	c #050E2B",
"nq.	c #052435",
"oq.	c #085956",
"pq.	c #0A856E",
"qq.	c #089173",
"rq.	c #0C9A7C",
"sq.	c #0A987B",
"tq.	c #09987B",
"uq.	c #089D7D",
"vq.	c #12967A",
"wq.	c #0F7466",
"xq.	c #041827",
"yq.	c #0A8E79",
"zq.	c #09C994",
"Aq.	c #09D398",
"Bq.	c #0CD39B",
"Cq.	c #18C08C",
"Dq.	c #1BC289",
"Eq.	c #22C58C",
"Fq.	c #2DC58D",
"Gq.	c #32C48C",
"Hq.	c #33C18B",
"Iq.	c #15AD88",
"Jq.	c #0EA484",
"Kq.	c #0B8B74",
"Lq.	c #0BA380",
"Mq.	c #0AA17C",
"Nq.	c #0CB68A",
"Oq.	c #0BB689",
"Pq.	c #0BB789",
"Qq.	c #0CB688",
"Rq.	c #0DB287",
"Sq.	c #0CA27E",
"Tq.	c #0F9F7C",
"Uq.	c #139E7E",
"Vq.	c #159D7C",
"Wq.	c #1BA281",
"Xq.	c #1BA081",
"Yq.	c #159A7E",
"Zq.	c #13957B",
"`q.	c #189078",
" r.	c #18917A",
".r.	c #188E79",
"+r.	c #11816F",
"@r.	c #067767",
"#r.	c #067265",
"$r.	c #086D62",
"%r.	c #076A63",
"&r.	c #086C64",
"*r.	c #096C65",
"=r.	c #0B6D67",
"-r.	c #0F716A",
";r.	c #12746B",
">r.	c #14776B",
",r.	c #117E6E",
"'r.	c #128270",
")r.	c #158674",
"!r.	c #188877",
"~r.	c #189880",
"{r.	c #1A9C82",
"]r.	c #12987C",
"^r.	c #0B957A",
"/r.	c #0C967B",
"(r.	c #0D967C",
"_r.	c #0C9579",
":r.	c #0C9478",
"<r.	c #0C9378",
"[r.	c #0C9178",
"}r.	c #0B9177",
"|r.	c #099279",
"1r.	c #0B967A",
"2r.	c #0B997B",
"3r.	c #0D997C",
"4r.	c #0BA784",
"5r.	c #0BA881",
"6r.	c #0AAA81",
"7r.	c #0AAA83",
"8r.	c #0BA983",
"9r.	c #0CA983",
"0r.	c #0CA882",
"ar.	c #0AC291",
"br.	c #0ACC95",
"cr.	c #099F7F",
"dr.	c #05404D",
"er.	c #043747",
"fr.	c #12BF8F",
"gr.	c #0EAF85",
"hr.	c #0AA681",
"ir.	c #06A481",
"jr.	c #06997A",
"kr.	c #0A8F75",
"lr.	c #0A9177",
"mr.	c #09997B",
"nr.	c #0CAB8A",
"or.	c #05675F",
"pr.	c #24B98A",
"qr.	c #1DD298",
"rr.	c #1DE0A2",
"sr.	c #16CE98",
"tr.	c #15C694",
"ur.	c #11C092",
"vr.	c #15B38B",
"wr.	c #1DB891",
"xr.	c #20B791",
"yr.	c #1B9E85",
"zr.	c #17927B",
"Ar.	c #128472",
"Br.	c #108475",
"Cr.	c #138275",
"Dr.	c #0F806D",
"Er.	c #0E8972",
"Fr.	c #0A6764",
"Gr.	c #096665",
"Hr.	c #076665",
"Ir.	c #040623",
"Jr.	c #030828",
"Kr.	c #051A2E",
"Lr.	c #0B7263",
"Mr.	c #10A387",
"Nr.	c #0F9B82",
"Or.	c #0E917C",
"Pr.	c #088976",
"Qr.	c #078777",
"Rr.	c #078477",
"Sr.	c #08756F",
"Tr.	c #076565",
"Ur.	c #076E6A",
"Vr.	c #077E73",
"Wr.	c #098573",
"Xr.	c #0D8A78",
"Yr.	c #0D9D82",
"Zr.	c #0D8B78",
"`r.	c #040C2A",
" s.	c #044650",
".s.	c #04575A",
"+s.	c #066564",
"@s.	c #076867",
"#s.	c #096866",
"$s.	c #0C7169",
"%s.	c #0D8D74",
"&s.	c #119278",
"*s.	c #188575",
"=s.	c #148678",
"-s.	c #178D79",
";s.	c #1B987F",
">s.	c #1BA385",
",s.	c #1DB48D",
"'s.	c #1FBC92",
")s.	c #1DB990",
"!s.	c #13CD99",
"~s.	c #13D29B",
"{s.	c #18D69D",
"]s.	c #18CE98",
"^s.	c #199876",
"/s.	c #0F5A58",
"(s.	c #068070",
"_s.	c #0BA586",
":s.	c #07A984",
"<s.	c #09A682",
"[s.	c #0C8C74",
"}s.	c #079D7F",
"|s.	c #10AF87",
"1s.	c #109075",
"2s.	c #077D6C",
"3s.	c #0ECE99",
"4s.	c #09CF99",
"5s.	c #12B087",
"6s.	c #0DA882",
"7s.	c #0BA883",
"8s.	c #0AA980",
"9s.	c #0AA880",
"0s.	c #0BA884",
"as.	c #0E9D7F",
"bs.	c #0B9578",
"cs.	c #0B8E77",
"ds.	c #0A766C",
"es.	c #0A8F78",
"fs.	c #098C74",
"gs.	c #0A9377",
"hs.	c #0B9677",
"is.	c #0A9676",
"js.	c #0C9679",
"ks.	c #0D9779",
"ls.	c #0D957B",
"ms.	c #0D977A",
"ns.	c #0C977A",
"os.	c #0C967A",
"ps.	c #11987B",
"qs.	c #1A9D81",
"rs.	c #17997E",
"ss.	c #138D77",
"ts.	c #158775",
"us.	c #168776",
"vs.	c #158673",
"ws.	c #10806E",
"xs.	c #0E786A",
"ys.	c #0E7468",
"zs.	c #0B7169",
"As.	c #086E66",
"Bs.	c #0D6B68",
"Cs.	c #0C6A67",
"Ds.	c #0C6A66",
"Es.	c #106A69",
"Fs.	c #1B7270",
"Gs.	c #19746E",
"Hs.	c #146F69",
"Is.	c #137069",
"Js.	c #18736C",
"Ks.	c #1C756C",
"Ls.	c #147D6F",
"Ms.	c #137D70",
"Ns.	c #188676",
"Os.	c #15947D",
"Ps.	c #11927A",
"Qs.	c #0B947B",
"Rs.	c #0B957B",
"Ss.	c #0C957C",
"Ts.	c #0C947B",
"Us.	c #0C937A",
"Vs.	c #0D9179",
"Ws.	c #0C8F76",
"Xs.	c #0B9077",
"Ys.	c #0C9077",
"Zs.	c #0C9076",
"`s.	c #0B9076",
" t.	c #087A6A",
".t.	c #0F8A75",
"+t.	c #0B8271",
"@t.	c #0D8775",
"#t.	c #0DA384",
"$t.	c #0AA883",
"%t.	c #0AA683",
"&t.	c #0AA682",
"*t.	c #0AA482",
"=t.	c #0BA383",
"-t.	c #0CA584",
";t.	c #0DCB97",
">t.	c #0BBE90",
",t.	c #07AB85",
"'t.	c #0F8367",
")t.	c #15D795",
"!t.	c #0CA980",
"~t.	c #0D967A",
"{t.	c #0C8772",
"]t.	c #0A8771",
"^t.	c #099376",
"/t.	c #098A72",
"(t.	c #041128",
"_t.	c #07625E",
":t.	c #0C7366",
"<t.	c #23E6A2",
"[t.	c #20D79B",
"}t.	c #1ABF92",
"|t.	c #12B58C",
"1t.	c #10B58A",
"2t.	c #11B38C",
"3t.	c #11B18B",
"4t.	c #13B18D",
"5t.	c #1FB591",
"6t.	c #1A9983",
"7t.	c #0D8875",
"8t.	c #0A7F6F",
"9t.	c #0B7F71",
"0t.	c #087B6F",
"at.	c #067B6D",
"bt.	c #096965",
"ct.	c #096263",
"dt.	c #086464",
"et.	c #096465",
"ft.	c #096364",
"gt.	c #086364",
"ht.	c #086263",
"it.	c #07565C",
"jt.	c #042234",
"kt.	c #030C20",
"lt.	c #03092B",
"mt.	c #04132D",
"nt.	c #064B4A",
"ot.	c #0D977B",
"pt.	c #13BC98",
"qt.	c #0F9783",
"rt.	c #0D8B7D",
"st.	c #0A887A",
"tt.	c #098679",
"ut.	c #0B8379",
"vt.	c #0B7C75",
"wt.	c #0B6B6A",
"xt.	c #0A7A72",
"yt.	c #098378",
"zt.	c #098779",
"At.	c #0A8879",
"Bt.	c #0D8B7C",
"Ct.	c #0D917F",
"Dt.	c #13B493",
"Et.	c #0FAB89",
"Ft.	c #073E40",
"Gt.	c #031025",
"Ht.	c #042031",
"It.	c #076464",
"Jt.	c #0A6663",
"Kt.	c #097C6F",
"Lt.	c #0B7F72",
"Mt.	c #0C7E6F",
"Nt.	c #179A83",
"Ot.	c #23B491",
"Pt.	c #19B58F",
"Qt.	c #12B08A",
"Rt.	c #11B38B",
"St.	c #12B58B",
"Tt.	c #13B58B",
"Ut.	c #1ECB99",
"Vt.	c #21D89E",
"Wt.	c #27EEA7",
"Xt.	c #178D72",
"Yt.	c #065758",
"Zt.	c #033346",
"`t.	c #0B8876",
" u.	c #0A866F",
".u.	c #087C6C",
"+u.	c #088570",
"@u.	c #0D9B7D",
"#u.	c #14CC91",
"$u.	c #14AF80",
"%u.	c #068973",
"&u.	c #08A180",
"*u.	c #0DDCA1",
"=u.	c #0BAC87",
"-u.	c #0CA785",
";u.	c #0CA783",
">u.	c #0BA782",
",u.	c #0BAA83",
"'u.	c #0BA684",
")u.	c #0C997E",
"!u.	c #0C9177",
"~u.	c #0E8974",
"{u.	c #0A8775",
"]u.	c #0C9279",
"^u.	c #0C957B",
"/u.	c #0C967C",
"(u.	c #13947D",
"_u.	c #18977F",
":u.	c #1C907C",
"<u.	c #188475",
"[u.	c #127F6F",
"}u.	c #177C6E",
"|u.	c #18796E",
"1u.	c #17766D",
"2u.	c #16726B",
"3u.	c #19726F",
"4u.	c #17726E",
"5u.	c #106B69",
"6u.	c #0B6A66",
"7u.	c #0A6B66",
"8u.	c #096A66",
"9u.	c #197170",
"0u.	c #17706F",
"au.	c #116A6B",
"bu.	c #136A6A",
"cu.	c #1C7472",
"du.	c #198579",
"eu.	c #108777",
"fu.	c #0D6E67",
"gu.	c #106E67",
"hu.	c #18746C",
"iu.	c #17736B",
"ju.	c #0E6E67",
"ku.	c #0F7469",
"lu.	c #0F8975",
"mu.	c #0F8E77",
"nu.	c #0B937B",
"ou.	c #0B937A",
"pu.	c #0C9079",
"qu.	c #0B8873",
"ru.	c #0B8171",
"su.	c #077062",
"tu.	c #077465",
"uu.	c #077565",
"vu.	c #077666",
"wu.	c #087666",
"xu.	c #087769",
"yu.	c #097B6C",
"zu.	c #0A8270",
"Au.	c #098A74",
"Bu.	c #09836E",
"Cu.	c #088871",
"Du.	c #137F64",
"Eu.	c #1DD492",
"Fu.	c #0D8670",
"Gu.	c #098371",
"Hu.	c #078A72",
"Iu.	c #098971",
"Ju.	c #09957A",
"Ku.	c #0B8575",
"Lu.	c #055054",
"Mu.	c #04444D",
"Nu.	c #033E4A",
"Ou.	c #031B29",
"Pu.	c #0D8C75",
"Qu.	c #1CE9A5",
"Ru.	c #1ACF98",
"Su.	c #0CAE89",
"Tu.	c #0CB08B",
"Uu.	c #0DB18B",
"Vu.	c #0EB18C",
"Wu.	c #0FAF8C",
"Xu.	c #0FA585",
"Yu.	c #16967C",
"Zu.	c #148472",
"`u.	c #0B7B6C",
" v.	c #0A806F",
".v.	c #0B5F5F",
"+v.	c #0B6162",
"@v.	c #096163",
"#v.	c #086161",
"$v.	c #053145",
"%v.	c #0C9C81",
"&v.	c #12B997",
"*v.	c #0C8E7F",
"=v.	c #0C8178",
"-v.	c #0C8077",
";v.	c #0C7F76",
">v.	c #0C7F75",
",v.	c #0D7D75",
"'v.	c #0D706D",
")v.	c #0A6C69",
"!v.	c #0E7772",
"~v.	c #0B8077",
"{v.	c #0B8579",
"]v.	c #0A867A",
"^v.	c #0B877C",
"/v.	c #098C7D",
"(v.	c #12B494",
"_v.	c #0FB190",
":v.	c #04313A",
"<v.	c #031124",
"[v.	c #086162",
"}v.	c #0A6965",
"|v.	c #096863",
"1v.	c #098272",
"2v.	c #0A8272",
"3v.	c #0C8171",
"4v.	c #158B79",
"5v.	c #1C9F84",
"6v.	c #11A686",
"7v.	c #10B08D",
"8v.	c #0FB18C",
"9v.	c #0DB38B",
"0v.	c #0DB28B",
"av.	c #15B98D",
"bv.	c #20F0A9",
"cv.	c #12A27F",
"dv.	c #052331",
"ev.	c #08A483",
"fv.	c #099278",
"gv.	c #19C78B",
"hv.	c #18B182",
"iv.	c #088E76",
"jv.	c #098C73",
"kv.	c #098B73",
"lv.	c #0A8A74",
"mv.	c #0C8272",
"nv.	c #097F6B",
"ov.	c #097D6A",
"pv.	c #0D907A",
"qv.	c #0B9179",
"rv.	c #0D947B",
"sv.	c #0B947C",
"tv.	c #0E9079",
"uv.	c #0E8F78",
"vv.	c #118271",
"wv.	c #0F7369",
"xv.	c #15736A",
"yv.	c #1A736C",
"zv.	c #156C67",
"Av.	c #0C6762",
"Bv.	c #0D766C",
"Cv.	c #158174",
"Dv.	c #1B7571",
"Ev.	c #176E6E",
"Fv.	c #0E6868",
"Gv.	c #136C6C",
"Hv.	c #166F6D",
"Iv.	c #1B726F",
"Jv.	c #19716E",
"Kv.	c #1A7471",
"Lv.	c #17746F",
"Mv.	c #177B71",
"Nv.	c #158576",
"Ov.	c #128D7C",
"Pv.	c #158075",
"Qv.	c #14766F",
"Rv.	c #0F726C",
"Sv.	c #0D7267",
"Tv.	c #0D7C6C",
"Uv.	c #0A8370",
"Vv.	c #0A8271",
"Wv.	c #09826F",
"Xv.	c #0A7567",
"Yv.	c #0A7768",
"Zv.	c #097C6B",
"`v.	c #0A8571",
" w.	c #0B8974",
".w.	c #088370",
"+w.	c #098672",
"@w.	c #0B9078",
"#w.	c #0B8E76",
"$w.	c #088D74",
"%w.	c #078C74",
"&w.	c #078570",
"*w.	c #053948",
"=w.	c #0F6A59",
"-w.	c #1CB885",
";w.	c #0B6A64",
">w.	c #066764",
",w.	c #055759",
"'w.	c #033545",
")w.	c #032639",
"!w.	c #031B27",
"~w.	c #0B565E",
"{w.	c #0A8875",
"]w.	c #109D7F",
"^w.	c #14EBA8",
"/w.	c #14CD98",
"(w.	c #0DAD8A",
"_w.	c #0EAE8C",
":w.	c #0EA585",
"<w.	c #0E9D81",
"[w.	c #0D937B",
"}w.	c #09806F",
"|w.	c #077367",
"1w.	c #0C6A69",
"2w.	c #0B6164",
"3w.	c #0A6062",
"4w.	c #056761",
"5w.	c #0B917D",
"6w.	c #0DA188",
"7w.	c #0A6163",
"8w.	c #0D6063",
"9w.	c #0D6C6A",
"0w.	c #0A7870",
"aw.	c #0D746E",
"bw.	c #087A71",
"cw.	c #0B726D",
"dw.	c #0C7A71",
"ew.	c #0D7670",
"fw.	c #0F6868",
"gw.	c #0D6868",
"hw.	c #0FA48B",
"iw.	c #0DAA8C",
"jw.	c #066760",
"kw.	c #021025",
"lw.	c #0C6566",
"mw.	c #0A6765",
"nw.	c #096865",
"ow.	c #097368",
"pw.	c #0F9079",
"qw.	c #0D9D80",
"rw.	c #0DA887",
"sw.	c #0DAF8C",
"tw.	c #0EAF8D",
"uw.	c #0DAE8B",
"vw.	c #12B78F",
"ww.	c #17F1AB",
"xw.	c #042733",
"yw.	c #033948",
"zw.	c #04434F",
"Aw.	c #055A5A",
"Bw.	c #076664",
"Cw.	c #066D66",
"Dw.	c #086460",
"Ew.	c #066C66",
"Fw.	c #1EB183",
"Gw.	c #18A17A",
"Hw.	c #07796A",
"Iw.	c #078571",
"Jw.	c #078670",
"Kw.	c #078771",
"Lw.	c #0A8973",
"Mw.	c #0A8B75",
"Nw.	c #098773",
"Ow.	c #098370",
"Pw.	c #0B8B76",
"Qw.	c #097A69",
"Rw.	c #077969",
"Sw.	c #077568",
"Tw.	c #067467",
"Uw.	c #077567",
"Vw.	c #087669",
"Ww.	c #0A7767",
"Xw.	c #0A7566",
"Yw.	c #0B8170",
"Zw.	c #0B8772",
"`w.	c #0B8874",
" x.	c #0C8470",
".x.	c #0E7669",
"+x.	c #0E6F69",
"@x.	c #0D6B67",
"#x.	c #11766D",
"$x.	c #147870",
"%x.	c #147E74",
"&x.	c #148B7B",
"*x.	c #168C7C",
"=x.	c #177770",
"-x.	c #15716D",
";x.	c #187170",
">x.	c #1B7372",
",x.	c #15726E",
"'x.	c #146F6A",
")x.	c #0D6E66",
"!x.	c #17796E",
"~x.	c #1D8575",
"{x.	c #19947B",
"]x.	c #13997D",
"^x.	c #0D8774",
"/x.	c #0B6965",
"(x.	c #077064",
"_x.	c #09776B",
":x.	c #09756A",
"<x.	c #087469",
"[x.	c #0C7B6E",
"}x.	c #0C7C6D",
"|x.	c #14B18B",
"1x.	c #13A384",
"2x.	c #057E6D",
"3x.	c #04253B",
"4x.	c #085952",
"5x.	c #109976",
"6x.	c #096563",
"7x.	c #046160",
"8x.	c #045157",
"9x.	c #04444F",
"0x.	c #022035",
"ax.	c #031C27",
"bx.	c #0B595D",
"cx.	c #0C8D78",
"dx.	c #10A682",
"ex.	c #10D69C",
"fx.	c #10C293",
"gx.	c #0EA282",
"hx.	c #0B8A76",
"ix.	c #097469",
"jx.	c #087069",
"kx.	c #096B65",
"lx.	c #0A6865",
"mx.	c #0C6867",
"nx.	c #0B5F63",
"ox.	c #0C5E62",
"px.	c #0C5B60",
"qx.	c #03192C",
"rx.	c #066260",
"sx.	c #0A927A",
"tx.	c #0A9D83",
"ux.	c #0A6664",
"vx.	c #0A575C",
"wx.	c #0C555C",
"xx.	c #0D565D",
"yx.	c #0E575D",
"zx.	c #0B796F",
"Ax.	c #0C7B71",
"Bx.	c #0D6062",
"Cx.	c #0C555B",
"Dx.	c #0A545B",
"Ex.	c #0B8F7C",
"Fx.	c #099D83",
"Gx.	c #096361",
"Hx.	c #04353B",
"Ix.	c #020F25",
"Jx.	c #0A555C",
"Kx.	c #096164",
"Lx.	c #0C6B69",
"Mx.	c #0A6F67",
"Nx.	c #097068",
"Ox.	c #0C8C77",
"Px.	c #0E937C",
"Qx.	c #0D997F",
"Rx.	c #0EA183",
"Sx.	c #0FA586",
"Tx.	c #0EA687",
"Ux.	c #0FB58C",
"Vx.	c #0FC191",
"Wx.	c #13EEA9",
"Xx.	c #11B98C",
"Yx.	c #0D6767",
"Zx.	c #042833",
"`x.	c #02172C",
" y.	c #056462",
".y.	c #075B5F",
"+y.	c #149175",
"@y.	c #0F7F6A",
"#y.	c #056B63",
"$y.	c #10B08A",
"%y.	c #088D76",
"&y.	c #0C8E76",
"*y.	c #0D8E77",
"=y.	c #0C8672",
"-y.	c #09766A",
";y.	c #097569",
">y.	c #087367",
",y.	c #097166",
"'y.	c #0A7167",
")y.	c #0B6E68",
"!y.	c #09746A",
"~y.	c #0E7E71",
"{y.	c #108D78",
"]y.	c #13927A",
"^y.	c #1B8574",
"/y.	c #1A8073",
"(y.	c #15736E",
"_y.	c #0F6C66",
":y.	c #15716B",
"<y.	c #176F6B",
"[y.	c #124D52",
"}y.	c #104D52",
"|y.	c #0E474F",
"1y.	c #104651",
"2y.	c #145057",
"3y.	c #0B4E51",
"4y.	c #0D8A76",
"5y.	c #148776",
"6y.	c #096864",
"7y.	c #086E67",
"8y.	c #086E68",
"9y.	c #076E66",
"0y.	c #066D67",
"ay.	c #076B65",
"by.	c #07625D",
"cy.	c #096E68",
"dy.	c #066E65",
"ey.	c #066F65",
"fy.	c #097D6E",
"gy.	c #068B74",
"hy.	c #076960",
"iy.	c #0B977F",
"jy.	c #0D8878",
"ky.	c #087870",
"ly.	c #086867",
"my.	c #043D4D",
"ny.	c #021C32",
"oy.	c #021A25",
"py.	c #0B5459",
"qy.	c #0F937B",
"ry.	c #12B88E",
"sy.	c #0FDB9F",
"ty.	c #0ABB8C",
"uy.	c #099479",
"vy.	c #0A7166",
"wy.	c #096D60",
"xy.	c #086D61",
"yy.	c #096E69",
"zy.	c #0B6867",
"Ay.	c #0A6866",
"By.	c #0B6666",
"Cy.	c #0A5F62",
"Dy.	c #0B5E62",
"Ey.	c #0D5F62",
"Fy.	c #0E5B60",
"Gy.	c #053046",
"Hy.	c #051129",
"Iy.	c #0B7C69",
"Jy.	c #098D71",
"Ky.	c #08565C",
"Ly.	c #0B5059",
"My.	c #0E5058",
"Ny.	c #09585E",
"Oy.	c #085A5E",
"Py.	c #086967",
"Qy.	c #076A68",
"Ry.	c #098D75",
"Sy.	c #08585B",
"Ty.	c #042C37",
"Uy.	c #0C545B",
"Vy.	c #0D5E62",
"Wy.	c #0A5F63",
"Xy.	c #0A6566",
"Yy.	c #0B6766",
"Zy.	c #086F68",
"`y.	c #097A6A",
" z.	c #0A7A6A",
".z.	c #0B7B69",
"+z.	c #0C7A6A",
"@z.	c #0DA280",
"#z.	c #0CB889",
"$z.	c #0EEBA7",
"%z.	c #11BA8E",
"&z.	c #0C937C",
"*z.	c #0D6466",
"=z.	c #032632",
"-z.	c #021529",
";z.	c #066865",
">z.	c #096162",
",z.	c #0A776F",
"'z.	c #097F71",
")z.	c #0E8772",
"!z.	c #053C4F",
"~z.	c #0B7D6D",
"{z.	c #108972",
"]z.	c #06816E",
"^z.	c #087D6F",
"/z.	c #06796A",
"(z.	c #096760",
"_z.	c #076F68",
":z.	c #077068",
"<z.	c #087068",
"[z.	c #0A6762",
"}z.	c #0B6560",
"|z.	c #0B6763",
"1z.	c #087F6F",
"2z.	c #0F7064",
"3z.	c #157065",
"4z.	c #196361",
"5z.	c #135A5A",
"6z.	c #0A4D4F",
"7z.	c #0C4C4F",
"8z.	c #114E52",
"9z.	c #114B50",
"0z.	c #106964",
"az.	c #117969",
"bz.	c #0D7B68",
"cz.	c #066E63",
"dz.	c #0D7A68",
"ez.	c #179377",
"fz.	c #0BAC83",
"gz.	c #0B7469",
"hz.	c #06605E",
"iz.	c #09706A",
"jz.	c #076D68",
"kz.	c #066B64",
"lz.	c #056A63",
"mz.	c #066460",
"nz.	c #06766B",
"oz.	c #067167",
"pz.	c #098274",
"qz.	c #047065",
"rz.	c #084F4E",
"sz.	c #0EB591",
"tz.	c #0F927D",
"uz.	c #08716A",
"vz.	c #05515A",
"wz.	c #04434E",
"xz.	c #042E3B",
"yz.	c #031421",
"zz.	c #08484C",
"Az.	c #10C597",
"Bz.	c #0AA486",
"Cz.	c #068E79",
"Dz.	c #068272",
"Ez.	c #056F67",
"Fz.	c #066C62",
"Gz.	c #076D63",
"Hz.	c #086A63",
"Iz.	c #086D65",
"Jz.	c #07756A",
"Kz.	c #0A716B",
"Lz.	c #0A706A",
"Mz.	c #0C6665",
"Nz.	c #0A6262",
"Oz.	c #0A6363",
"Pz.	c #095D60",
"Qz.	c #0A5B5F",
"Rz.	c #0B5F61",
"Sz.	c #0F5E63",
"Tz.	c #042A3A",
"Uz.	c #042132",
"Vz.	c #075057",
"Wz.	c #0D4C56",
"Xz.	c #0B4F57",
"Yz.	c #06555B",
"Zz.	c #053B3C",
"`z.	c #054041",
" A.	c #063B3F",
".A.	c #031228",
"+A.	c #0E585E",
"@A.	c #0B5B5E",
"#A.	c #095D61",
"$A.	c #0B6062",
"%A.	c #0C5E61",
"&A.	c #0C6967",
"*A.	c #0C6B68",
"=A.	c #0A6C68",
"-A.	c #08746D",
";A.	c #066B60",
">A.	c #11C898",
",A.	c #0FB186",
"'A.	c #0A5A59",
")A.	c #031F2B",
"!A.	c #03172A",
"~A.	c #044D56",
"{A.	c #076B68",
"]A.	c #076968",
"^A.	c #076463",
"/A.	c #07716B",
"(A.	c #0D8777",
"_A.	c #0FB994",
":A.	c #096E64",
"<A.	c #088373",
"[A.	c #07786B",
"}A.	c #07776A",
"|A.	c #066D65",
"1A.	c #066D68",
"2A.	c #066E67",
"3A.	c #076964",
"4A.	c #086A66",
"5A.	c #0B8672",
"6A.	c #19967D",
"7A.	c #15A482",
"8A.	c #075455",
"9A.	c #075457",
"0A.	c #065557",
"aA.	c #075758",
"bA.	c #085E5B",
"cA.	c #116560",
"dA.	c #136B64",
"eA.	c #126E68",
"fA.	c #0D6460",
"gA.	c #115F61",
"hA.	c #0F5B5E",
"iA.	c #09655E",
"jA.	c #05695E",
"kA.	c #065D61",
"lA.	c #04444E",
"mA.	c #074B4F",
"nA.	c #08876F",
"oA.	c #08886D",
"pA.	c #0E7469",
"qA.	c #095F5C",
"rA.	c #076864",
"sA.	c #086A65",
"tA.	c #055E5A",
"uA.	c #04665E",
"vA.	c #06675F",
"wA.	c #0C927B",
"xA.	c #098473",
"yA.	c #077E71",
"zA.	c #085354",
"AA.	c #05434F",
"BA.	c #020D28",
"CA.	c #064543",
"DA.	c #0EB48E",
"EA.	c #0F907A",
"FA.	c #056D67",
"GA.	c #056461",
"HA.	c #054554",
"IA.	c #054F55",
"JA.	c #051F2F",
"KA.	c #066757",
"LA.	c #10947B",
"MA.	c #08987E",
"NA.	c #0A8D79",
"OA.	c #086B63",
"PA.	c #0A6D66",
"QA.	c #0C766A",
"RA.	c #0A7F71",
"SA.	c #0A7E70",
"TA.	c #0A615E",
"UA.	c #0A595C",
"VA.	c #042335",
"WA.	c #074851",
"XA.	c #084E53",
"YA.	c #064650",
"ZA.	c #074F56",
"`A.	c #021F37",
" B.	c #063B47",
".B.	c #043240",
"+B.	c #04132B",
"@B.	c #0B5259",
"#B.	c #085F5F",
"$B.	c #09605F",
"%B.	c #096561",
"&B.	c #0A7B70",
"*B.	c #0A7C6E",
"=B.	c #0B776C",
"-B.	c #096F68",
";B.	c #098475",
">B.	c #078E79",
",B.	c #089B7F",
"'B.	c #0FA184",
")B.	c #09856B",
"!B.	c #06343C",
"~B.	c #041123",
"{B.	c #042B34",
"]B.	c #066763",
"^B.	c #066462",
"/B.	c #10BB94",
"(B.	c #076459",
"_B.	c #032132",
":B.	c #06665F",
"<B.	c #07796E",
"[B.	c #09766C",
"}B.	c #098976",
"|B.	c #0A7F70",
"1B.	c #07635E",
"2B.	c #065656",
"3B.	c #066562",
"4B.	c #056964",
"5B.	c #086B67",
"6B.	c #085958",
"7B.	c #0B6B64",
"8B.	c #0CAA83",
"9B.	c #08AD7F",
"0B.	c #09A87D",
"aB.	c #0AA57D",
"bB.	c #096C5F",
"cB.	c #065B5F",
"dB.	c #057968",
"eB.	c #0B7A68",
"fB.	c #115F60",
"gB.	c #146265",
"hB.	c #146263",
"iB.	c #043E4B",
"jB.	c #052231",
"kB.	c #062E41",
"lB.	c #065152",
"mB.	c #075B59",
"nB.	c #085959",
"oB.	c #04454D",
"pB.	c #03434A",
"qB.	c #03434B",
"rB.	c #034C50",
"sB.	c #034E52",
"tB.	c #066C61",
"uB.	c #044C4E",
"vB.	c #052431",
"wB.	c #057862",
"xB.	c #047962",
"yB.	c #047561",
"zB.	c #047360",
"AB.	c #06695C",
"BB.	c #041C39",
"CB.	c #042C3C",
"DB.	c #0A3F49",
"EB.	c #09876C",
"FB.	c #088A6F",
"GB.	c #069374",
"HB.	c #099374",
"IB.	c #097E69",
"JB.	c #087D67",
"KB.	c #077B66",
"LB.	c #087663",
"MB.	c #097464",
"NB.	c #096E61",
"OB.	c #064C52",
"PB.	c #04494F",
"QB.	c #06494E",
"RB.	c #094F50",
"SB.	c #0A5754",
"TB.	c #0A5953",
"UB.	c #0D484A",
"VB.	c #062535",
"WB.	c #052F3B",
"XB.	c #073E47",
"YB.	c #085E5D",
"ZB.	c #095155",
"`B.	c #062F3F",
" C.	c #032738",
".C.	c #041D32",
"+C.	c #0C474B",
"@C.	c #0C6861",
"#C.	c #0B645F",
"$C.	c #0A5E5D",
"%C.	c #075055",
"&C.	c #075155",
"*C.	c #0D605D",
"=C.	c #075F58",
"-C.	c #0A7967",
";C.	c #0A816D",
">C.	c #077D6A",
",C.	c #067F6A",
"'C.	c #06816B",
")C.	c #089B7C",
"!C.	c #089A7C",
"~C.	c #099A7E",
"{C.	c #089C7D",
"]C.	c #09A27E",
"^C.	c #0D7467",
"/C.	c #04112F",
"(C.	c #05424E",
"_C.	c #05595A",
":C.	c #05615E",
"<C.	c #057F6A",
"[C.	c #05836E",
"}C.	c #0D9178",
"|C.	c #064B47",
"1C.	c #031029",
"2C.	c #051F30",
"3C.	c #06655D",
"4C.	c #055B58",
"5C.	c #045957",
"6C.	c #035052",
"7C.	c #044E52",
"8C.	c #034D50",
"9C.	c #034B4E",
"0C.	c #05303C",
"aC.	c #053B45",
"bC.	c #07474B",
"cC.	c #054D50",
"dC.	c #055153",
"eC.	c #055254",
"fC.	c #065254",
"gC.	c #055354",
"hC.	c #065456",
"iC.	c #085D5C",
"jC.	c #095E5C",
"kC.	c #0F6860",
"lC.	c #095252",
"mC.	c #074E4F",
"nC.	c #054047",
"oC.	c #054850",
"pC.	c #044047",
"qC.	c #063C47",
"rC.	c #030B23",
"sC.	c #041531",
"tC.	c #041E33",
"uC.	c #032B37",
"vC.	c #031E2F",
"wC.	c #031B2D",
"xC.	c #03192B",
"yC.	c #03172C",
"zC.	c #041D2D",
"AC.	c #052F34",
"BC.	c #042731",
"CC.	c #051D30",
"DC.	c #052939",
"EC.	c #052F3D",
"FC.	c #05303E",
"GC.	c #043141",
"HC.	c #032437",
"IC.	c #031B2E",
"JC.	c #03162A",
"KC.	c #032A31",
"LC.	c #021930",
"MC.	c #04162A",
"NC.	c #03172B",
"OC.	c #043339",
"PC.	c #043038",
"QC.	c #032E39",
"RC.	c #033039",
"SC.	c #032F3A",
"TC.	c #040A2B",
"UC.	c #032732",
"VC.	c #04142A",
"WC.	c #04122A",
"XC.	c #051B32",
"YC.	c #05343D",
"ZC.	c #03383F",
"`C.	c #063140",
" D.	c #051F38",
".D.	c #051630",
"+D.	c #051E31",
"@D.	c #04202F",
"#D.	c #04393C",
"$D.	c #060E2B",
"%D.	c #04172C",
"&D.	c #04162B",
"*D.	c #043E45",
"=D.	c #054147",
"-D.	c #053E44",
";D.	c #063D42",
">D.	c #063D44",
",D.	c #063D43",
"'D.	c #074346",
")D.	c #044445",
"!D.	c #054044",
"~D.	c #073F42",
"{D.	c #040A25",
"]D.	c #052835",
"^D.	c #042835",
"/D.	c #032935",
"(D.	c #043A39",
"_D.	c #042A32",
":D.	c #042933",
"<D.	c #063C42",
"[D.	c #05363E",
"}D.	c #052D39",
"|D.	c #052635",
"1D.	c #053840",
"2D.	c #053E40",
"3D.	c #052033",
"4D.	c #042131",
"5D.	c #032333",
"6D.	c #064046",
"7D.	c #042C3B",
"8D.	c #051C2C",
"9D.	c #030922",
"0D.	c #031230",
"aD.	c #04132A",
"bD.	c #020629",
"cD.	c #02162B",
"dD.	c #02182D",
"eD.	c #05353F",
"fD.	c #083A42",
"gD.	c #084049",
"hD.	c #064F55",
"iD.	c #055F60",
"jD.	c #0D9279",
"kD.	c #0E7D6B",
"lD.	c #095D5A",
"mD.	c #085D59",
"nD.	c #075F5A",
"oD.	c #07615A",
"pD.	c #046B60",
"qD.	c #03695D",
"rD.	c #046057",
"sD.	c #030A28",
"tD.	c #034A4B",
"uD.	c #034649",
"vD.	c #053844",
"wD.	c #0B7B67",
"xD.	c #075856",
"yD.	c #064E50",
"zD.	c #05464D",
"AD.	c #05263B",
"BD.	c #051A32",
"CD.	c #041331",
"DD.	c #040B29",
"ED.	c #040D28",
"FD.	c #045D58",
"GD.	c #040E2A",
"HD.	c #052638",
"ID.	c #084D4D",
"JD.	c #097667",
"KD.	c #077767",
"LD.	c #077768",
"MD.	c #097766",
"ND.	c #077461",
"OD.	c #0A7462",
"PD.	c #087563",
"QD.	c #056057",
"RD.	c #055F55",
"SD.	c #045F54",
"TD.	c #045D53",
"UD.	c #036155",
"VD.	c #046256",
"WD.	c #045C52",
"XD.	c #045950",
"YD.	c #05594F",
"ZD.	c #065750",
"`D.	c #074D49",
" E.	c #040F27",
".E.	c #030727",
"+E.	c #041C2F",
"@E.	c #06353C",
"#E.	c #064A4A",
"$E.	c #097D71",
"%E.	c #078271",
"&E.	c #0B917A",
"*E.	c #0CA484",
"=E.	c #0CA583",
"-E.	c #0A9F7B",
";E.	c #0A987A",
">E.	c #07967B",
",E.	c #079579",
"'E.	c #079279",
")E.	c #089076",
"!E.	c #09796B",
"~E.	c #08645C",
"{E.	c #04655C",
"]E.	c #056058",
"^E.	c #045D55",
"/E.	c #035C54",
"(E.	c #045552",
"_E.	c #04504E",
":E.	c #034E4E",
"<E.	c #045350",
"[E.	c #035A54",
"}E.	c #035B54",
"|E.	c #045A56",
"1E.	c #034F50",
"2E.	c #034C4F",
"3E.	c #044A4F",
"4E.	c #023241",
"5E.	c #03373F",
"6E.	c #03343C",
"7E.	c #03313B",
"8E.	c #03333D",
"9E.	c #022337",
"0E.	c #065253",
"aE.	c #078270",
"bE.	c #07977A",
"cE.	c #08987A",
"dE.	c #07997A",
"eE.	c #0D9B7B",
"fE.	c #0DA581",
"gE.	c #0B9B79",
"hE.	c #0C9A7A",
"iE.	c #0D9D7C",
"jE.	c #063B42",
"kE.	c #05162C",
"lE.	c #051E2F",
"mE.	c #042936",
"nE.	c #022936",
"oE.	c #032B38",
"pE.	c #022C38",
"qE.	c #032C3A",
"rE.	c #032C39",
"sE.	c #063940",
"tE.	c #063A42",
"uE.	c #053A41",
"vE.	c #05142D",
"wE.	c #045851",
"xE.	c #05414C",
"yE.	c #057165",
"zE.	c #07A17E",
"AE.	c #079F7E",
"BE.	c #042837",
"CE.	c #051C30",
"DE.	c #072732",
"EE.	c #0F7A6A",
"FE.	c #10AD8A",
"GE.	c #12C394",
"HE.	c #0ECC97",
"IE.	c #0BCD97",
"JE.	c #0ACE97",
"KE.	c #09CD97",
"LE.	c #09CB97",
"ME.	c #0ACA97",
"NE.	c #0AC997",
"OE.	c #10C898",
"PE.	c #0BA080",
"QE.	c #0CA384",
"RE.	c #08A685",
"SE.	c #07AC87",
"TE.	c #07AE87",
"UE.	c #08A381",
"VE.	c #0DA686",
"WE.	c #089379",
"XE.	c #11927D",
"YE.	c #051927",
"ZE.	c #1A9E7D",
"`E.	c #13AD8B",
" F.	c #0CA586",
".F.	c #09A684",
"+F.	c #09AA86",
"@F.	c #07B087",
"#F.	c #0AB78D",
"$F.	c #0CC093",
"%F.	c #0BBF91",
"&F.	c #09BD8E",
"*F.	c #08A781",
"=F.	c #04786A",
"-F.	c #066662",
";F.	c #08615E",
">F.	c #088470",
",F.	c #046F63",
"'F.	c #052632",
")F.	c #04474D",
"!F.	c #066863",
"~F.	c #06796D",
"{F.	c #056E67",
"]F.	c #06615F",
"^F.	c #07585C",
"/F.	c #046563",
"(F.	c #068371",
"_F.	c #045255",
":F.	c #064345",
"<F.	c #05605E",
"[F.	c #0A7168",
"}F.	c #076962",
"|F.	c #05746A",
"1F.	c #067268",
"2F.	c #057A69",
"3F.	c #06826E",
"4F.	c #089376",
"5F.	c #0AB489",
"6F.	c #0BC392",
"7F.	c #0DC795",
"8F.	c #0EC898",
"9F.	c #0DB38C",
"0F.	c #07A07E",
"aF.	c #08937B",
"bF.	c #108E79",
"cF.	c #16856D",
"dF.	c #0A3134",
"eF.	c #096159",
"fF.	c #0C8573",
"gF.	c #069A7C",
"hF.	c #069879",
"iF.	c #079E7E",
"jF.	c #079A7E",
"kF.	c #09A886",
"lF.	c #0AA583",
"mF.	c #0BBD90",
"nF.	c #0ABC8F",
"oF.	c #09BD8F",
"pF.	c #09BC8E",
"qF.	c #09BD8D",
"rF.	c #0ABC8D",
"sF.	c #0CBB8D",
"tF.	c #11A887",
"uF.	c #0E967B",
"vF.	c #062833",
"wF.	c #040F2B",
"xF.	c #04162D",
"yF.	c #09695F",
"zF.	c #07826C",
"AF.	c #06856E",
"BF.	c #068A72",
"CF.	c #097565",
"DF.	c #045853",
"EF.	c #03444D",
"FF.	c #033246",
"GF.	c #033344",
"HF.	c #045058",
"IF.	c #045059",
"JF.	c #05525A",
"KF.	c #05535B",
"LF.	c #088374",
"MF.	c #09947C",
"NF.	c #0B9B82",
"OF.	c #0B9F82",
"PF.	c #0C977E",
"QF.	c #06796E",
"RF.	c #0B6D68",
"SF.	c #062A41",
"TF.	c #074F52",
"UF.	c #0E977E",
"VF.	c #0D9E80",
"WF.	c #0D8170",
"XF.	c #09977B",
"YF.	c #07987A",
"ZF.	c #0D6D66",
"`F.	c #0FBB8F",
" G.	c #15C094",
".G.	c #17BE94",
"+G.	c #15B48F",
"@G.	c #109D82",
"#G.	c #109881",
"$G.	c #159682",
"%G.	c #041430",
"&G.	c #061C2A",
"*G.	c #15A586",
"=G.	c #13AF8F",
"-G.	c #12A185",
";G.	c #0CA485",
">G.	c #086E65",
",G.	c #066B61",
"'G.	c #066A60",
")G.	c #05695F",
"!G.	c #046A61",
"~G.	c #04655E",
"{G.	c #0D7E6D",
"]G.	c #05635E",
"^G.	c #05615D",
"/G.	c #057069",
"(G.	c #0A605F",
"_G.	c #06706B",
":G.	c #054F57",
"<G.	c #031327",
"[G.	c #07494F",
"}G.	c #056464",
"|G.	c #09595D",
"1G.	c #08595D",
"2G.	c #09595F",
"3G.	c #086665",
"4G.	c #076F6B",
"5G.	c #076165",
"6G.	c #07585F",
"7G.	c #07555C",
"8G.	c #084C58",
"9G.	c #064957",
"0G.	c #07545C",
"aG.	c #085960",
"bG.	c #065B60",
"cG.	c #065F63",
"dG.	c #08585F",
"eG.	c #085A60",
"fG.	c #042B38",
"gG.	c #031A2B",
"hG.	c #0A6460",
"iG.	c #057068",
"jG.	c #056963",
"kG.	c #066862",
"lG.	c #066861",
"mG.	c #0A7668",
"nG.	c #066A62",
"oG.	c #05816C",
"pG.	c #088E75",
"qG.	c #099578",
"rG.	c #0EA988",
"sG.	c #15B491",
"tG.	c #18BB96",
"uG.	c #0A423F",
"vG.	c #07655F",
"wG.	c #13927F",
"xG.	c #129E86",
"yG.	c #15BB92",
"zG.	c #16C397",
"AG.	c #10C194",
"BG.	c #08B38A",
"CG.	c #07AF88",
"DG.	c #08AC88",
"EG.	c #0C8973",
"FG.	c #088371",
"GG.	c #088672",
"HG.	c #08AD84",
"IG.	c #09B086",
"JG.	c #09B288",
"KG.	c #0BB187",
"LG.	c #0CAF88",
"MG.	c #0D987D",
"NG.	c #109F81",
"OG.	c #0E7F6C",
"PG.	c #095151",
"QG.	c #053240",
"RG.	c #085A57",
"SG.	c #06645C",
"TG.	c #098072",
"UG.	c #0AA988",
"VG.	c #0AA084",
"WG.	c #0B917B",
"XG.	c #07585E",
"YG.	c #044953",
"ZG.	c #044853",
"`G.	c #044750",
" H.	c #04424D",
".H.	c #04424E",
"+H.	c #053A49",
"@H.	c #093E4B",
"#H.	c #074954",
"$H.	c #064A55",
"%H.	c #042E37",
"&H.	c #0B7069",
"*H.	c #056D68",
"=H.	c #054C54",
"-H.	c #0A6162",
";H.	c #0FAB87",
">H.	c #0F8B75",
",H.	c #0A8070",
"'H.	c #087165",
")H.	c #0A6D67",
"!H.	c #0F8572",
"~H.	c #117F71",
"{H.	c #168074",
"]H.	c #198277",
"^H.	c #137F73",
"/H.	c #13766F",
"(H.	c #0E283F",
"_H.	c #101A34",
":H.	c #121F33",
"<H.	c #178C7C",
"[H.	c #119D84",
"}H.	c #0C8A77",
"|H.	c #0E8073",
"1H.	c #075D5C",
"2H.	c #056260",
"3H.	c #056E69",
"4H.	c #066F6A",
"5H.	c #066E69",
"6H.	c #066D69",
"7H.	c #096065",
"8H.	c #075F63",
"9H.	c #03081C",
"0H.	c #08464C",
"aH.	c #0C575F",
"bH.	c #0A575E",
"cH.	c #0B565B",
"dH.	c #0B565C",
"eH.	c #0C575D",
"fH.	c #0A6061",
"gH.	c #086361",
"hH.	c #09545C",
"iH.	c #094E5A",
"jH.	c #0A4857",
"kH.	c #074251",
"lH.	c #094D59",
"mH.	c #0D5F61",
"nH.	c #0B585D",
"oH.	c #0B585E",
"pH.	c #0A585F",
"qH.	c #0A585E",
"rH.	c #056565",
"sH.	c #030E1E",
"tH.	c #086568",
"uH.	c #076364",
"vH.	c #085A5D",
"wH.	c #095B5E",
"xH.	c #095C5E",
"yH.	c #076865",
"zH.	c #05706A",
"AH.	c #056D66",
"BH.	c #076663",
"CH.	c #057569",
"DH.	c #056D65",
"EH.	c #076961",
"FH.	c #076460",
"GH.	c #0C8073",
"HH.	c #0C9A80",
"IH.	c #109E85",
"JH.	c #11A086",
"KH.	c #179C87",
"LH.	c #123B40",
"MH.	c #0D1631",
"NH.	c #0C203A",
"OH.	c #106864",
"PH.	c #138475",
"QH.	c #178B7A",
"RH.	c #18937E",
"SH.	c #14927B",
"TH.	c #0E9178",
"UH.	c #0A8C74",
"VH.	c #096D66",
"WH.	c #0C6564",
"XH.	c #097B6A",
"YH.	c #0A8472",
"ZH.	c #0A8976",
"`H.	c #088F77",
" I.	c #078F77",
".I.	c #0A8171",
"+I.	c #0D967D",
"@I.	c #087F72",
"#I.	c #0B5E66",
"$I.	c #0A6364",
"%I.	c #066E68",
"&I.	c #086965",
"*I.	c #087F70",
"=I.	c #0A6B69",
"-I.	c #053F44",
";I.	c #021630",
">I.	c #064F59",
",I.	c #0A3E4B",
"'I.	c #074852",
")I.	c #084250",
"!I.	c #021B3A",
"~I.	c #096464",
"{I.	c #02092C",
"]I.	c #031929",
"^I.	c #09756E",
"/I.	c #0A897B",
"(I.	c #11B891",
"_I.	c #0C7D6E",
":I.	c #076E69",
"<I.	c #098075",
"[I.	c #07766D",
"}I.	c #167A73",
"|I.	c #157972",
"1I.	c #0C6A68",
"2I.	c #0F6D6A",
"3I.	c #147A71",
"4I.	c #13736B",
"5I.	c #05152C",
"6I.	c #061826",
"7I.	c #148677",
"8I.	c #119683",
"9I.	c #149281",
"0I.	c #0D6A69",
"aI.	c #066C67",
"bI.	c #086D69",
"cI.	c #086C69",
"dI.	c #0B5A5E",
"eI.	c #0A5A5F",
"fI.	c #08595F",
"gI.	c #02071C",
"hI.	c #06434B",
"iI.	c #076467",
"jI.	c #0D565F",
"kI.	c #0C565E",
"lI.	c #0B565D",
"mI.	c #0B555B",
"nI.	c #0B535A",
"oI.	c #0B525A",
"pI.	c #0A5259",
"qI.	c #0A4F58",
"rI.	c #0B525B",
"sI.	c #0B6064",
"tI.	c #0A505A",
"uI.	c #095259",
"vI.	c #0A535A",
"wI.	c #086669",
"xI.	c #020C1D",
"yI.	c #075C60",
"zI.	c #0A5A60",
"AI.	c #096363",
"BI.	c #07716A",
"CI.	c #066563",
"DI.	c #128B7C",
"EI.	c #119984",
"FI.	c #159281",
"GI.	c #0E383C",
"HI.	c #09132C",
"II.	c #08243B",
"JI.	c #106360",
"KI.	c #147B72",
"LI.	c #0F6A68",
"MI.	c #106D6A",
"NI.	c #137B72",
"OI.	c #137D73",
"PI.	c #0D7A6E",
"QI.	c #087C70",
"RI.	c #088174",
"SI.	c #086462",
"TI.	c #0A6660",
"UI.	c #13AE8B",
"VI.	c #0A947E",
"WI.	c #0C7E78",
"XI.	c #04242D",
"YI.	c #055256",
"ZI.	c #0C7A72",
"`I.	c #02061E",
" J.	c #06404E",
".J.	c #064250",
"+J.	c #09434F",
"@J.	c #094251",
"#J.	c #074250",
"$J.	c #020820",
"%J.	c #063C49",
"&J.	c #08615D",
"*J.	c #076263",
"=J.	c #041E2B",
"-J.	c #0A7E72",
";J.	c #0A907F",
">J.	c #0EBD94",
",J.	c #0B8373",
"'J.	c #076E6B",
")J.	c #086F6B",
"!J.	c #096463",
"~J.	c #0D746D",
"{J.	c #0D6B6A",
"]J.	c #0D6E6C",
"^J.	c #12726E",
"/J.	c #197673",
"(J.	c #18726F",
"_J.	c #106969",
":J.	c #106E6B",
"<J.	c #137870",
"[J.	c #148877",
"}J.	c #118371",
"|J.	c #0D7166",
"1J.	c #041C2D",
"2J.	c #061724",
"3J.	c #138575",
"4J.	c #0F9482",
"5J.	c #118F80",
"6J.	c #0A6969",
"7J.	c #09565C",
"8J.	c #095A60",
"9J.	c #076462",
"0J.	c #0B4F54",
"aJ.	c #076666",
"bJ.	c #076B69",
"cJ.	c #0A5D61",
"dJ.	c #0A595F",
"eJ.	c #02091D",
"fJ.	c #07444A",
"gJ.	c #076466",
"hJ.	c #067B70",
"iJ.	c #0D545D",
"jJ.	c #0C5159",
"kJ.	c #0A4E58",
"lJ.	c #0A4752",
"mJ.	c #0C4250",
"nJ.	c #0A4654",
"oJ.	c #0B4453",
"pJ.	c #0A6260",
"qJ.	c #0C4C57",
"rJ.	c #0C4352",
"sJ.	c #0C535A",
"tJ.	c #0C555D",
"uJ.	c #0D555E",
"vJ.	c #0E5760",
"wJ.	c #07706C",
"xJ.	c #086968",
"yJ.	c #0A5A5C",
"zJ.	c #0A5D5E",
"AJ.	c #066766",
"BJ.	c #09565D",
"CJ.	c #09565E",
"DJ.	c #086766",
"EJ.	c #11877B",
"FJ.	c #109483",
"GJ.	c #149180",
"HJ.	c #0C3739",
"IJ.	c #051E33",
"JJ.	c #106860",
"KJ.	c #118472",
"LJ.	c #138876",
"MJ.	c #12756D",
"NJ.	c #0D6E6A",
"OJ.	c #0E6969",
"PJ.	c #146F6E",
"QJ.	c #197874",
"RJ.	c #147973",
"SJ.	c #0A726D",
"TJ.	c #0B736D",
"UJ.	c #0C6E6B",
"VJ.	c #086E6A",
"WJ.	c #086F6A",
"XJ.	c #10B691",
"YJ.	c #0C9D84",
"ZJ.	c #0D8B7E",
"`J.	c #042A31",
" K.	c #021E30",
".K.	c #055A5D",
"+K.	c #096365",
"@K.	c #086E69",
"#K.	c #065154",
"$K.	c #09414F",
"%K.	c #0A4553",
"&K.	c #0A4453",
"*K.	c #064352",
"=K.	c #031F31",
"-K.	c #031229",
";K.	c #05303D",
">K.	c #074C52",
",K.	c #0A4E53",
"'K.	c #0C5F63",
")K.	c #030723",
"!K.	c #04202A",
"~K.	c #0A9180",
"{K.	c #0EBF95",
"]K.	c #0A8878",
"^K.	c #086E6B",
"/K.	c #09706D",
"(K.	c #0B7571",
"_K.	c #0A726E",
":K.	c #146B6A",
"<K.	c #196F6D",
"[K.	c #186D6C",
"}K.	c #176C6C",
"|K.	c #1A6E6E",
"1K.	c #1B706E",
"2K.	c #187972",
"3K.	c #148273",
"4K.	c #0C625E",
"5K.	c #065256",
"6K.	c #030923",
"7K.	c #051522",
"8K.	c #12796D",
"9K.	c #0E917D",
"0K.	c #0D9D7F",
"aK.	c #096564",
"bK.	c #0A6665",
"cK.	c #03091D",
"dK.	c #0A6160",
"eK.	c #0D6963",
"fK.	c #0B7068",
"gK.	c #0A7368",
"hK.	c #0E6363",
"iK.	c #094F58",
"jK.	c #0C4E59",
"kK.	c #0A4855",
"lK.	c #0D414F",
"mK.	c #0E3F4D",
"nK.	c #0C4551",
"oK.	c #0A4551",
"pK.	c #084653",
"qK.	c #094451",
"rK.	c #0B4551",
"sK.	c #0C414F",
"tK.	c #0A4A56",
"uK.	c #0D555B",
"vK.	c #0C6563",
"wK.	c #0C6363",
"xK.	c #0C6764",
"yK.	c #087C6E",
"zK.	c #0B766B",
"AK.	c #030D1E",
"BK.	c #0A6463",
"CK.	c #066464",
"DK.	c #056665",
"EK.	c #075F62",
"FK.	c #0A6E69",
"GK.	c #0C8575",
"HK.	c #129380",
"IK.	c #0F9781",
"JK.	c #158B7C",
"KK.	c #0B3535",
"LK.	c #030720",
"MK.	c #030D26",
"NK.	c #085556",
"OK.	c #0E7168",
"PK.	c #167F72",
"QK.	c #177B74",
"RK.	c #196D6C",
"SK.	c #166B6B",
"TK.	c #166C6C",
"UK.	c #176C6B",
"VK.	c #126A69",
"WK.	c #0C6767",
"XK.	c #086866",
"YK.	c #096E6B",
"ZK.	c #0B7570",
"`K.	c #09736F",
" L.	c #08706C",
".L.	c #07756E",
"+L.	c #0FB892",
"@L.	c #0BA188",
"#L.	c #098E7E",
"$L.	c #0B6063",
"%L.	c #09575B",
"&L.	c #0B424B",
"*L.	c #09414C",
"=L.	c #0C4C58",
"-L.	c #0C4656",
";L.	c #0C4758",
">L.	c #0A4958",
",L.	c #084958",
"'L.	c #074956",
")L.	c #051B2A",
"!L.	c #0C6868",
"~L.	c #0B6566",
"{L.	c #0A5459",
"]L.	c #044854",
"^L.	c #041F2B",
"/L.	c #0C9081",
"(L.	c #10C198",
"_L.	c #0B8677",
":L.	c #09736D",
"<L.	c #0C6263",
"[L.	c #0C6464",
"}L.	c #0D6566",
"|L.	c #176E6D",
"1L.	c #146A6A",
"2L.	c #0F6666",
"3L.	c #106766",
"4L.	c #196E6D",
"5L.	c #1C706E",
"6L.	c #0F6765",
"7L.	c #0D5E5C",
"8L.	c #084A4D",
"9L.	c #040C22",
"0L.	c #0A4952",
"aL.	c #095E5F",
"bL.	c #0C7368",
"cL.	c #0A8071",
"dL.	c #095F60",
"eL.	c #030921",
"fL.	c #052032",
"gL.	c #083543",
"hL.	c #0B4D50",
"iL.	c #084F52",
"jL.	c #094D53",
"kL.	c #095754",
"lL.	c #085854",
"mL.	c #095A58",
"nL.	c #0C5156",
"oL.	c #0C4954",
"pL.	c #0B434F",
"qL.	c #0A414E",
"rL.	c #0A3D4B",
"sL.	c #0B3C4A",
"tL.	c #093D4A",
"uL.	c #083948",
"vL.	c #073244",
"wL.	c #063044",
"xL.	c #052F3F",
"yL.	c #073C4B",
"zL.	c #083F4D",
"AL.	c #0A434F",
"BL.	c #0C3F4D",
"CL.	c #0C3E4C",
"DL.	c #0A4653",
"EL.	c #0B4A55",
"FL.	c #0B4E59",
"GL.	c #0A7265",
"HL.	c #076E62",
"IL.	c #087063",
"JL.	c #095458",
"KL.	c #0A5456",
"LL.	c #074C50",
"ML.	c #030A20",
"NL.	c #0D987A",
"OL.	c #07252F",
"PL.	c #0F6B64",
"QL.	c #136A68",
"RL.	c #136968",
"SL.	c #186D6D",
"TL.	c #1C7170",
"UL.	c #186C6B",
"VL.	c #126968",
"WL.	c #1B706F",
"XL.	c #166D6D",
"YL.	c #0A736F",
"ZL.	c #096F6B",
"`L.	c #10BA95",
" M.	c #0EA18A",
".M.	c #098B7C",
"+M.	c #052E33",
"@M.	c #021829",
"#M.	c #0D565C",
"$M.	c #0A6667",
"%M.	c #0B4656",
"&M.	c #0B4655",
"*M.	c #0A4755",
"=M.	c #0B4A56",
"-M.	c #0C4959",
";M.	c #076064",
">M.	c #066062",
",M.	c #02172A",
"'M.	c #051B29",
")M.	c #0B6B6B",
"!M.	c #0A6869",
"~M.	c #0B595E",
"{M.	c #0A545A",
"]M.	c #07555B",
"^M.	c #064150",
"/M.	c #044351",
"(M.	c #044251",
"_M.	c #041C29",
":M.	c #086B64",
"<M.	c #0B8375",
"[M.	c #0A957C",
"}M.	c #078074",
"|M.	c #087B73",
"1M.	c #0B7A73",
"2M.	c #087770",
"3M.	c #0B6D6A",
"4M.	c #0F6263",
"5M.	c #156A69",
"6M.	c #18696A",
"7M.	c #146C6B",
"8M.	c #116A69",
"9M.	c #1B736F",
"0M.	c #18746D",
"aM.	c #176968",
"bM.	c #145E63",
"cM.	c #176869",
"dM.	c #146262",
"eM.	c #095C59",
"fM.	c #05293A",
"gM.	c #041332",
"hM.	c #031132",
"iM.	c #051D37",
"jM.	c #052B42",
"kM.	c #067E70",
"lM.	c #064855",
"mM.	c #05273B",
"nM.	c #06474B",
"oM.	c #065E5A",
"pM.	c #095E5D",
"qM.	c #095D5E",
"rM.	c #0A5B60",
"sM.	c #095B60",
"tM.	c #074550",
"uM.	c #031027",
"vM.	c #02122A",
"wM.	c #062034",
"xM.	c #072334",
"yM.	c #082434",
"zM.	c #082534",
"AM.	c #082635",
"BM.	c #072635",
"CM.	c #052634",
"DM.	c #052534",
"EM.	c #062A36",
"FM.	c #052A35",
"GM.	c #05182D",
"HM.	c #040D29",
"IM.	c #0B6664",
"JM.	c #0C6262",
"KM.	c #063F46",
"LM.	c #075559",
"MM.	c #078071",
"NM.	c #051128",
"OM.	c #031335",
"PM.	c #073643",
"QM.	c #095256",
"RM.	c #0C6763",
"SM.	c #166F6A",
"TM.	c #1A6A6A",
"UM.	c #105F63",
"VM.	c #126667",
"WM.	c #1C7A73",
"XM.	c #177370",
"YM.	c #136969",
"ZM.	c #166C6B",
"`M.	c #0A6A68",
" N.	c #0A7871",
".N.	c #087871",
"+N.	c #10BF96",
"@N.	c #0CA68A",
"#N.	c #098678",
"$N.	c #062E32",
"%N.	c #031628",
"&N.	c #044350",
"*N.	c #084954",
"=N.	c #0B4F58",
"-N.	c #095056",
";N.	c #0A4D55",
">N.	c #0C5D61",
",N.	c #0A6F6D",
"'N.	c #083E43",
")N.	c #06585E",
"!N.	c #075D62",
"~N.	c #075B61",
"{N.	c #0A535D",
"]N.	c #0C4858",
"^N.	c #0C4857",
"/N.	c #0A4B58",
"(N.	c #0A4753",
"_N.	c #0B4757",
":N.	c #0B4A59",
"<N.	c #0A525B",
"[N.	c #051727",
"}N.	c #085B60",
"|N.	c #06545A",
"1N.	c #04354B",
"2N.	c #052F40",
"3N.	c #077865",
"4N.	c #0B8370",
"5N.	c #0F8C79",
"6N.	c #126767",
"7N.	c #166969",
"8N.	c #126666",
"9N.	c #0A5A5D",
"0N.	c #116063",
"aN.	c #156264",
"bN.	c #176265",
"cN.	c #166567",
"dN.	c #105E61",
"eN.	c #10565B",
"fN.	c #105A5D",
"gN.	c #115A60",
"hN.	c #105D61",
"iN.	c #041B2E",
"jN.	c #067069",
"kN.	c #06515D",
"lN.	c #075557",
"mN.	c #054754",
"nN.	c #053F4E",
"oN.	c #074A55",
"pN.	c #084E57",
"qN.	c #053E49",
"rN.	c #044A51",
"sN.	c #044B53",
"tN.	c #074C53",
"uN.	c #063E4C",
"vN.	c #053C49",
"wN.	c #033846",
"xN.	c #033B48",
"yN.	c #08535A",
"zN.	c #08565D",
"AN.	c #08555D",
"BN.	c #06404F",
"CN.	c #063D4C",
"DN.	c #075358",
"EN.	c #086461",
"FN.	c #085A59",
"GN.	c #072A3A",
"HN.	c #068675",
"IN.	c #040D26",
"JN.	c #052F3C",
"KN.	c #0B4149",
"LN.	c #0F6D68",
"MN.	c #175E62",
"NN.	c #155C60",
"ON.	c #14585D",
"PN.	c #0E595E",
"QN.	c #126566",
"RN.	c #176466",
"SN.	c #186466",
"TN.	c #0C5B5E",
"UN.	c #106666",
"VN.	c #126F6C",
"WN.	c #098F79",
"XN.	c #0A8B76",
"YN.	c #0C6F61",
"ZN.	c #085B57",
"`N.	c #06424B",
" O.	c #031127",
".O.	c #05364C",
"+O.	c #0D5159",
"@O.	c #085D61",
"#O.	c #0B6467",
"$O.	c #083942",
"%O.	c #08585E",
"&O.	c #064550",
"*O.	c #04454E",
"=O.	c #031838",
"-O.	c #041024",
";O.	c #06575C",
">O.	c #075257",
",O.	c #03223E",
"'O.	c #074046",
")O.	c #15736D",
"!O.	c #167D72",
"~O.	c #117F6D",
"{O.	c #0E7C6B",
"]O.	c #0E7B6C",
"^O.	c #0F7E6D",
"/O.	c #107E6D",
"(O.	c #0E806D",
"_O.	c #0C7E6C",
":O.	c #14756D",
"<O.	c #14585F",
"[O.	c #0E2F41",
"}O.	c #05263A",
"|O.	c #022539",
"1O.	c #042C41",
"2O.	c #052232",
"3O.	c #086D5F",
"4O.	c #084B55",
"5O.	c #06404C",
"6O.	c #086765",
"7O.	c #05786B",
"8O.	c #0B6967",
"9O.	c #0F6264",
"0O.	c #0E6967",
"aO.	c #065159",
"bO.	c #06595D",
"cO.	c #085559",
"dO.	c #075D5F",
"eO.	c #02162A",
"fO.	c #042A3D",
"gO.	c #064753",
"hO.	c #064653",
"iO.	c #064351",
"jO.	c #074551",
"kO.	c #064D53",
"lO.	c #033949",
"mO.	c #043A4C",
"nO.	c #07525D",
"oO.	c #074749",
"pO.	c #043844",
"qO.	c #063643",
"rO.	c #0E3B47",
"sO.	c #125459",
"tO.	c #166D69",
"uO.	c #128475",
"vO.	c #0D7F6D",
"wO.	c #0C816F",
"xO.	c #097D6D",
"yO.	c #0E816D",
"zO.	c #178177",
"AO.	c #075C56",
"BO.	c #042740",
"CO.	c #020E24",
"DO.	c #032E45",
"EO.	c #075A5E",
"FO.	c #06515A",
"GO.	c #064453",
"HO.	c #072939",
"IO.	c #030822",
"JO.	c #031634",
"KO.	c #05555A",
"LO.	c #0A4655",
"MO.	c #084552",
"NO.	c #05273A",
"OO.	c #031333",
"PO.	c #020821",
"QO.	c #020D21",
"RO.	c #075D60",
"SO.	c #02263E",
"TO.	c #022740",
"UO.	c #02172B",
"VO.	c #06203C",
"WO.	c #11404E",
"XO.	c #144352",
"YO.	c #16515A",
"ZO.	c #154C55",
"`O.	c #11404D",
" P.	c #134953",
".P.	c #14595B",
"+P.	c #0C444D",
"@P.	c #083E4A",
"#P.	c #073144",
"$P.	c #044150",
"%P.	c #0A4950",
"&P.	c #0E7062",
"*P.	c #0A5759",
"=P.	c #042A3F",
"-P.	c #02283D",
";P.	c #056163",
">P.	c #155861",
",P.	c #115D60",
"'P.	c #165260",
")P.	c #104A5A",
"!P.	c #054854",
"~P.	c #0D4C59",
"{P.	c #155761",
"]P.	c #0D4D58",
"^P.	c #08796F",
"/P.	c #055B5E",
"(P.	c #041F35",
"_P.	c #053649",
":P.	c #04474F",
"<P.	c #04484F",
"[P.	c #0A5C5D",
"}P.	c #0F7468",
"|P.	c #0E645F",
"1P.	c #021F39",
"2P.	c #0A3B4A",
"3P.	c #0F5057",
"4P.	c #126C64",
"5P.	c #166664",
"6P.	c #155C5D",
"7P.	c #145C5D",
"8P.	c #155E5E",
"9P.	c #156A66",
"0P.	c #165C5F",
"aP.	c #16575E",
"bP.	c #0A4E54",
"cP.	c #07253C",
"dP.	c #04223D",
"eP.	c #020C22",
"fP.	c #063746",
"gP.	c #073E4C",
"hP.	c #06424E",
"iP.	c #030620",
"jP.	c #031031",
"kP.	c #02293C",
"lP.	c #063A49",
"mP.	c #031131",
"nP.	c #05595B",
"oP.	c #042741",
"pP.	c #02273F",
"qP.	c #02273E",
"rP.	c #041E35",
"sP.	c #050E29",
"tP.	c #03213D",
"uP.	c #04233C",
"vP.	c #05253D",
"wP.	c #062E40",
"xP.	c #0A3142",
"yP.	c #0E3346",
"zP.	c #0F3046",
"AP.	c #062339",
"BP.	c #042E44",
"CP.	c #042B46",
"DP.	c #043347",
"EP.	c #031226",
"FP.	c #05605C",
"GP.	c #0E4F59",
"HP.	c #13545D",
"IP.	c #12555E",
"JP.	c #124F5B",
"KP.	c #146566",
"LP.	c #136967",
"MP.	c #0D6864",
"NP.	c #115A5F",
"OP.	c #114B57",
"PP.	c #0E4B58",
"QP.	c #094755",
"RP.	c #064654",
"SP.	c #0D585D",
"TP.	c #115B60",
"UP.	c #165E64",
"VP.	c #104D5A",
"WP.	c #10545D",
"XP.	c #145961",
"YP.	c #13575F",
"ZP.	c #042330",
"`P.	c #042843",
" Q.	c #032A44",
".Q.	c #052238",
"+Q.	c #102F44",
"@Q.	c #102E44",
"#Q.	c #08293D",
"$Q.	c #06273C",
"%Q.	c #092840",
"&Q.	c #092B42",
"*Q.	c #09273F",
"=Q.	c #06243D",
"-Q.	c #02263F",
";Q.	c #02283E",
">Q.	c #04263F",
",Q.	c #055559",
"'Q.	c #055458",
")Q.	c #030E2E",
"!Q.	c #02122C",
"~Q.	c #040B2C",
"{Q.	c #041E31",
"]Q.	c #042736",
"^Q.	c #060C28",
"/Q.	c #091530",
"(Q.	c #0C1934",
"_Q.	c #091731",
":Q.	c #030B25",
"<Q.	c #0B1933",
"[Q.	c #0F1B36",
"}Q.	c #0A1733",
"|Q.	c #051230",
"1Q.	c #030C2E",
"2Q.	c #05243E",
"3Q.	c #052841",
"4Q.	c #062B43",
"5Q.	c #062C43",
"6Q.	c #062B42",
"7Q.	c #062C42",
"8Q.	c #062D43",
"9Q.	c #062D42",
"0Q.	c #062C40",
"aQ.	c #031729",
"bQ.	c #0E4955",
"cQ.	c #07424D",
"dQ.	c #0B4550",
"eQ.	c #104F58",
"fQ.	c #15585D",
"gQ.	c #135A5D",
"hQ.	c #0F5E5E",
"iQ.	c #0F595C",
"jQ.	c #054D55",
"kQ.	c #12575E",
"lQ.	c #135B61",
"mQ.	c #116C67",
"nQ.	c #126965",
"oQ.	c #136765",
"pQ.	c #14565E",
"qQ.	c #114E58",
"rQ.	c #0C4B55",
"sQ.	c #030522",
"tQ.	c #052843",
"uQ.	c #042437",
"vQ.	c #072137",
"wQ.	c #0C283C",
"xQ.	c #112C3F",
"yQ.	c #0D2A3D",
"zQ.	c #061E34",
"AQ.	c #071C36",
"BQ.	c #081D37",
"CQ.	c #022641",
"DQ.	c #040F2D",
"EQ.	c #031936",
"FQ.	c #030823",
"GQ.	c #040926",
"HQ.	c #0F122F",
"IQ.	c #0E122F",
"JQ.	c #0D122F",
"KQ.	c #080B2B",
"LQ.	c #05092A",
"MQ.	c #063E47",
"NQ.	c #064148",
"OQ.	c #041C35",
"PQ.	c #03061E",
"QQ.	c #0F273F",
"RQ.	c #102640",
"SQ.	c #071D36",
"TQ.	c #0C1F38",
"UQ.	c #0A3443",
"VQ.	c #103747",
"WQ.	c #0F3646",
"XQ.	c #093242",
"YQ.	c #05293D",
"ZQ.	c #0F3247",
"`Q.	c #103649",
" R.	c #063744",
".R.	c #02051C",
"+R.	c #040E26",
"@R.	c #051A33",
"#R.	c #051731",
"$R.	c #03142B",
"%R.	c #04112D",
"&R.	c #04102D",
"*R.	c #031837",
"=R.	c #060928",
"-R.	c #0F1531",
";R.	c #0C122E",
">R.	c #0F112E",
",R.	c #050725",
"'R.	c #04112C",
")R.	c #021F35",
"!R.	c #022036",
"~R.	c #020823",
"{R.	c #040722",
"]R.	c #052D3D",
"^R.	c #06303E",
"/R.	c #062C3E",
"(R.	c #082C40",
"_R.	c #092C3F",
":R.	c #07283C",
"<R.	c #10253F",
"[R.	c #0F213D",
"}R.	c #0C1C38",
"|R.	c #091C37",
"1R.	c #0E213B",
"2R.	c #0B233D",
"3R.	c #054956",
"4R.	c #032F46",
"5R.	c #052D3A",
"6R.	c #097972",
"7R.	c #054D53",
"8R.	c #04082B",
"9R.	c #061E31",
"0R.	c #083541",
"aR.	c #06434D",
"bR.	c #043D48",
"cR.	c #042D44",
"dR.	c #021E36",
"eR.	c #08122A",
"fR.	c #0A142D",
"gR.	c #0A152D",
"hR.	c #08162D",
"iR.	c #0C1A33",
"jR.	c #0F1D36",
"kR.	c #0E1A34",
"lR.	c #0C152F",
"mR.	c #0C152E",
"nR.	c #0F1933",
"oR.	c #0A112B",
"pR.	c #050A25",
"qR.	c #080F29",
"rR.	c #0E1B35",
"sR.	c #081630",
"tR.	c #07142F",
"uR.	c #081632",
"vR.	c #0E1C37",
"wR.	c #0F1C37",
"xR.	c #05122C",
"yR.	c #05102A",
"zR.	c #050F2A",
"AR.	c #02041E",
"BR.	c #043247",
"CR.	c #033245",
"DR.	c #021A31",
"ER.	c #05102C",
"FR.	c #04092C",
"GR.	c #040A28",
"HR.	c #076566",
"IR.	c #086566",
"JR.	c #075A60",
"KR.	c #033045",
"LR.	c #032E44",
"MR.	c #032D44",
"NR.	c #091935",
"OR.	c #0D1936",
"PR.	c #081431",
"QR.	c #0B1532",
"RR.	c #0E1935",
"SR.	c #0E1B37",
"TR.	c #0F2139",
"UR.	c #061C32",
"VR.	c #032134",
"WR.	c #04333E",
"XR.	c #042D3B",
"YR.	c #041F33",
"ZR.	c #02152D",
"`R.	c #040A26",
" S.	c #054553",
".S.	c #064F5A",
"+S.	c #06555E",
"@S.	c #06525C",
"#S.	c #05515B",
"$S.	c #06505A",
"%S.	c #031024",
"&S.	c #07695E",
"*S.	c #0A8273",
"=S.	c #088476",
"-S.	c #098B79",
";S.	c #089880",
">S.	c #099780",
",S.	c #09957F",
"'S.	c #0A8C7A",
")S.	c #0B7A6F",
"!S.	c #0B6C66",
"~S.	c #16736B",
"{S.	c #15706A",
"]S.	c #156E69",
"^S.	c #166E6A",
"/S.	c #136D68",
"(S.	c #146D68",
"_S.	c #17716A",
":S.	c #167169",
"<S.	c #116D66",
"[S.	c #126C67",
"}S.	c #116E69",
"|S.	c #0F595F",
"1S.	c #064C53",
"2S.	c #08605D",
"3S.	c #0A5E5E",
"4S.	c #08555E",
"5S.	c #10967D",
"6S.	c #10937D",
"7S.	c #0F927E",
"8S.	c #0F927F",
"9S.	c #108D7D",
"0S.	c #0E8C7B",
"aS.	c #0F877B",
"bS.	c #0A6668",
"cS.	c #076166",
"dS.	c #051629",
"eS.	c #158974",
"fS.	c #14967F",
"gS.	c #108E7A",
"hS.	c #0E8F79",
"iS.	c #0B696B",
"jS.	c #0B6A68",
"kS.	c #074955",
"lS.	c #0C6A6A",
"mS.	c #0D6F6C",
"nS.	c #0E756F",
"oS.	c #0D7A73",
"pS.	c #0D7C74",
"qS.	c #0C7D75",
"rS.	c #0B7D75",
"sS.	c #0B7E76",
"tS.	c #0B7471",
"uS.	c #055B5F",
"vS.	c #05223A",
"wS.	c #0F4C58",
"xS.	c #11505C",
"yS.	c #0C4F58",
"zS.	c #10595E",
"AS.	c #125D5F",
"BS.	c #0D5659",
"CS.	c #0A5156",
"DS.	c #0B3D4A",
"ES.	c #08213A",
"FS.	c #040625",
"GS.	c #030F26",
"HS.	c #0C1731",
"IS.	c #0E2039",
"JS.	c #0E3146",
"KS.	c #0C3246",
"LS.	c #0D3749",
"MS.	c #0F3849",
"NS.	c #10374A",
"OS.	c #0E3447",
"PS.	c #0F3548",
"QS.	c #0C3045",
"RS.	c #062036",
"SS.	c #040627",
"TS.	c #045057",
"US.	c #096C6A",
"VS.	c #09736E",
"WS.	c #09746F",
"XS.	c #055155",
"YS.	c #053F4C",
"ZS.	c #07515B",
"`S.	c #08515C",
" T.	c #095B62",
".T.	c #0D8776",
"+T.	c #118675",
"@T.	c #127C6B",
"#T.	c #072C35",
"$T.	c #096266",
"%T.	c #0B7D74",
"&T.	c #0C8778",
"*T.	c #0C8F7D",
"=T.	c #0D8571",
"-T.	c #044A55",
";T.	c #08535D",
">T.	c #06555D",
",T.	c #065855",
"'T.	c #0C3C4D",
")T.	c #0E3E4F",
"!T.	c #104554",
"~T.	c #104555",
"{T.	c #0E4654",
"]T.	c #0F4A56",
"^T.	c #114E59",
"/T.	c #114F5C",
"(T.	c #0F505B",
"_T.	c #0C4D58",
":T.	c #0F525B",
"<T.	c #0F525C",
"[T.	c #074C56",
"}T.	c #07595F",
"|T.	c #087D70",
"1T.	c #088575",
"2T.	c #087A70",
"3T.	c #07685F",
"4T.	c #051728",
"5T.	c #044753",
"6T.	c #033849",
"7T.	c #054151",
"8T.	c #0A6268",
"9T.	c #0A696D",
"0T.	c #096067",
"aT.	c #085E65",
"bT.	c #085B63",
"cT.	c #06505C",
"dT.	c #075C58",
"eT.	c #0C7F6C",
"fT.	c #0E816A",
"gT.	c #0F826B",
"hT.	c #10836B",
"iT.	c #17866D",
"jT.	c #1C8C72",
"kT.	c #1F8F76",
"lT.	c #1D8C76",
"mT.	c #168770",
"nT.	c #14866D",
"oT.	c #1F9177",
"pT.	c #198B72",
"qT.	c #108670",
"rT.	c #0F9077",
"sT.	c #088A73",
"tT.	c #0B776D",
"uT.	c #0A4C59",
"vT.	c #0A515C",
"wT.	c #129480",
"xT.	c #0E9680",
"yT.	c #0C9980",
"zT.	c #0B9B80",
"AT.	c #0A6465",
"BT.	c #086264",
"CT.	c #096165",
"DT.	c #06595E",
"ET.	c #051626",
"FT.	c #118C78",
"GT.	c #138177",
"HT.	c #0C515A",
"IT.	c #0C8D76",
"JT.	c #0B8F77",
"KT.	c #0E8B79",
"LT.	c #0A6161",
"MT.	c #0B555C",
"NT.	c #0B575D",
"OT.	c #0C5A5F",
"PT.	c #0D5F63",
"QT.	c #0C6164",
"RT.	c #0C7470",
"ST.	c #0F686A",
"TT.	c #051130",
"UT.	c #0B0F2B",
"VT.	c #0C1532",
"WT.	c #0A2034",
"XT.	c #0C4F56",
"YT.	c #117B73",
"ZT.	c #127C75",
"`T.	c #0B7972",
" U.	c #0A776D",
".U.	c #0B7368",
"+U.	c #157B6F",
"@U.	c #10796D",
"#U.	c #097367",
"$U.	c #055157",
"%U.	c #041D31",
"&U.	c #033544",
"*U.	c #043F4F",
"=U.	c #0E806F",
"-U.	c #148675",
";U.	c #107F70",
">U.	c #0F756F",
",U.	c #137571",
"'U.	c #0D6564",
")U.	c #070E2C",
"!U.	c #080D2A",
"~U.	c #0B6D6D",
"{U.	c #0C8078",
"]U.	c #0C706D",
"^U.	c #0D6668",
"/U.	c #0D6264",
"(U.	c #0E595F",
"_U.	c #0D8877",
":U.	c #0E987E",
"<U.	c #0F967D",
"[U.	c #0D7B71",
"}U.	c #0C6568",
"|U.	c #0D6361",
"1U.	c #0E6262",
"2U.	c #106D69",
"3U.	c #159883",
"4U.	c #073637",
"5U.	c #06545B",
"6U.	c #086065",
"7U.	c #0D6869",
"8U.	c #0C6B6A",
"9U.	c #0D6D6A",
"0U.	c #0D6E6B",
"aU.	c #0E706B",
"bU.	c #0C8674",
"cU.	c #0AA285",
"dU.	c #0AA184",
"eU.	c #0B9F84",
"fU.	c #0C9E85",
"gU.	c #0F8477",
"hU.	c #09505B",
"iU.	c #0A4F5C",
"jU.	c #0B5D61",
"kU.	c #0A6E68",
"lU.	c #0C6F6C",
"mU.	c #11957B",
"nU.	c #119678",
"oU.	c #17987A",
"pU.	c #209F7F",
"qU.	c #1D9C7C",
"rU.	c #199577",
"sU.	c #179275",
"tU.	c #1C967A",
"uU.	c #219C7E",
"vU.	c #219C7D",
"wU.	c #1D9779",
"xU.	c #169374",
"yU.	c #129274",
"zU.	c #119275",
"AU.	c #0F9277",
"BU.	c #0F927A",
"CU.	c #0A927B",
"DU.	c #08937A",
"EU.	c #0A8574",
"FU.	c #055F58",
"GU.	c #031425",
"HU.	c #020A22",
"IU.	c #044552",
"JU.	c #054B57",
"KU.	c #054D59",
"LU.	c #07545E",
"MU.	c #085761",
"NU.	c #096268",
"OU.	c #0A686C",
"PU.	c #021228",
"QU.	c #044553",
"RU.	c #07505D",
"SU.	c #075460",
"TU.	c #075961",
"UU.	c #06565E",
"VU.	c #064E5A",
"WU.	c #0F535B",
"XU.	c #0F585F",
"YU.	c #105860",
"ZU.	c #0F575F",
"`U.	c #0D555F",
" V.	c #0F5862",
".V.	c #115C64",
"+V.	c #0F5E65",
"@V.	c #125D63",
"#V.	c #13525D",
"$V.	c #0C4B56",
"%V.	c #0B5A5A",
"&V.	c #0A6860",
"*V.	c #087869",
"=V.	c #09535C",
"-V.	c #0D6765",
";V.	c #0A6666",
">V.	c #084B53",
",V.	c #041424",
"'V.	c #0E8474",
")V.	c #0E7C75",
"!V.	c #0B525D",
"~V.	c #0A525D",
"{V.	c #0A535E",
"]V.	c #0B545C",
"^V.	c #0E515A",
"/V.	c #0D535B",
"(V.	c #0D545B",
"_V.	c #0C575E",
":V.	c #0D5D62",
"<V.	c #0C5D62",
"[V.	c #0C5B61",
"}V.	c #0C515C",
"|V.	c #0C364B",
"1V.	c #0D2A41",
"2V.	c #0A0D28",
"3V.	c #131C36",
"4V.	c #132B3E",
"5V.	c #116363",
"6V.	c #0D6967",
"7V.	c #0B746E",
"8V.	c #107371",
"9V.	c #146D6F",
"0V.	c #166369",
"aV.	c #135A62",
"bV.	c #10565F",
"cV.	c #07555D",
"dV.	c #064153",
"eV.	c #040F29",
"fV.	c #063E50",
"gV.	c #054856",
"hV.	c #075D61",
"iV.	c #07575D",
"jV.	c #135860",
"kV.	c #145860",
"lV.	c #136367",
"mV.	c #146F71",
"nV.	c #117A76",
"oV.	c #0E7B73",
"pV.	c #0F5E61",
"qV.	c #113544",
"rV.	c #121F39",
"sV.	c #0E112C",
"tV.	c #060F2D",
"uV.	c #061F36",
"vV.	c #0D4F5B",
"wV.	c #0D5A60",
"xV.	c #0C535B",
"yV.	c #0D525A",
"zV.	c #0C4C56",
"AV.	c #0C565B",
"BV.	c #0C525D",
"CV.	c #0B6163",
"DV.	c #11907F",
"EV.	c #063135",
"FV.	c #0B6868",
"GV.	c #0B716A",
"HV.	c #0D6F6A",
"IV.	c #0F6C69",
"JV.	c #0D6163",
"KV.	c #0D7269",
"LV.	c #098D72",
"MV.	c #0A836E",
"NV.	c #0A7468",
"OV.	c #0D4E57",
"PV.	c #15565D",
"QV.	c #125B5F",
"RV.	c #115B62",
"SV.	c #125C64",
"TV.	c #115960",
"UV.	c #0B545A",
"VV.	c #085157",
"WV.	c #044851",
"XV.	c #044C55",
"YV.	c #063241",
"ZV.	c #043443",
"`V.	c #020920",
" W.	c #020921",
".W.	c #054E59",
"+W.	c #075861",
"@W.	c #075F64",
"#W.	c #096368",
"$W.	c #095F66",
"%W.	c #085862",
"&W.	c #063F53",
"*W.	c #032E43",
"=W.	c #033047",
"-W.	c #032A42",
";W.	c #040E29",
">W.	c #041125",
",W.	c #04213B",
"'W.	c #0C2943",
")W.	c #082941",
"!W.	c #04243D",
"~W.	c #05273C",
"{W.	c #103247",
"]W.	c #0F2F44",
"^W.	c #0A3D4A",
"/W.	c #0B3E4D",
"(W.	c #0F4052",
"_W.	c #134355",
":W.	c #0E3F51",
"<W.	c #104958",
"[W.	c #0E4857",
"}W.	c #084452",
"|W.	c #084C59",
"1W.	c #07404C",
"2W.	c #0D726C",
"3W.	c #0C857B",
"4W.	c #0E8279",
"5W.	c #0A4F57",
"6W.	c #0C4F59",
"7W.	c #0B4350",
"8W.	c #094753",
"9W.	c #0B4754",
"0W.	c #0E535B",
"aW.	c #0E525B",
"bW.	c #0E4E5A",
"cW.	c #0C4755",
"dW.	c #0C4753",
"eW.	c #0B4552",
"fW.	c #0B4753",
"gW.	c #0A4754",
"hW.	c #072A43",
"iW.	c #10324A",
"jW.	c #0E2F48",
"kW.	c #092D44",
"lW.	c #070C24",
"mW.	c #0D303F",
"nW.	c #0F4754",
"oW.	c #14525C",
"pW.	c #165661",
"qW.	c #14555F",
"rW.	c #0F515C",
"sW.	c #094A57",
"tW.	c #0B404F",
"uW.	c #08404E",
"vW.	c #074052",
"wW.	c #063D51",
"xW.	c #05293C",
"yW.	c #093A46",
"zW.	c #073D51",
"AW.	c #063F52",
"BW.	c #084451",
"CW.	c #094651",
"DW.	c #0D4955",
"EW.	c #0C515B",
"FW.	c #0F555F",
"GW.	c #115A61",
"HW.	c #105C61",
"IW.	c #135F64",
"JW.	c #155B61",
"KW.	c #144651",
"LW.	c #113545",
"MW.	c #090D24",
"NW.	c #0B2B41",
"OW.	c #0F3A4E",
"PW.	c #073D4B",
"QW.	c #0B535B",
"RW.	c #0C4E57",
"SW.	c #0D5059",
"TW.	c #0D4D59",
"UW.	c #0E525A",
"VW.	c #0D525B",
"WW.	c #0B4C57",
"XW.	c #094A54",
"YW.	c #0B525C",
"ZW.	c #0E505B",
"`W.	c #0D716E",
" X.	c #0A7F77",
".X.	c #0F8278",
"+X.	c #062A30",
"@X.	c #020B25",
"#X.	c #074951",
"$X.	c #055057",
"%X.	c #09515A",
"&X.	c #094350",
"*X.	c #10505C",
"=X.	c #12545F",
"-X.	c #0E515C",
";X.	c #114958",
">X.	c #124B59",
",X.	c #0D5058",
"'X.	c #103E4C",
")X.	c #113D4E",
"!X.	c #073445",
"~X.	c #083246",
"{X.	c #043948",
"]X.	c #043248",
"^X.	c #043549",
"/X.	c #064657",
"(X.	c #05233B",
"_X.	c #043346",
":X.	c #092C44",
"<X.	c #10344B",
"[X.	c #11344C",
"}X.	c #0B3047",
"|X.	c #082E44",
"1X.	c #10384D",
"2X.	c #113A4F",
"3X.	c #0E3147",
"4X.	c #0C2E43",
"5X.	c #0E3349",
"6X.	c #133F54",
"7X.	c #0E3C51",
"8X.	c #0A394D",
"9X.	c #093E4F",
"0X.	c #083C4C",
"aX.	c #083D4C",
"bX.	c #083E4D",
"cX.	c #04182A",
"dX.	c #040D25",
"eX.	c #041021",
"fX.	c #0B6B68",
"gX.	c #087670",
"hX.	c #0C6869",
"iX.	c #0B6261",
"jX.	c #0C575B",
"kX.	c #0A414F",
"lX.	c #0A404E",
"mX.	c #0A3F4E",
"nX.	c #0A4150",
"oX.	c #0D4B56",
"pX.	c #0D4A56",
"qX.	c #0D4755",
"rX.	c #0C3D4F",
"sX.	c #0C3C4F",
"tX.	c #0B3B4E",
"uX.	c #0A3A4E",
"vX.	c #093A4E",
"wX.	c #0D384E",
"xX.	c #153F53",
"yX.	c #0E3149",
"zX.	c #0F2A41",
"AX.	c #111630",
"BX.	c #133644",
"CX.	c #144B58",
"DX.	c #104654",
"EX.	c #0C4653",
"FX.	c #0F4B58",
"GX.	c #0A4254",
"HX.	c #0B4355",
"IX.	c #083D51",
"JX.	c #063C51",
"KX.	c #08283B",
"LX.	c #041225",
"MX.	c #084046",
"NX.	c #073D52",
"OX.	c #0A4354",
"PX.	c #0A4251",
"QX.	c #074856",
"RX.	c #11525D",
"SX.	c #14525E",
"TX.	c #104957",
"UX.	c #114A57",
"VX.	c #13414F",
"WX.	c #0F132C",
"XX.	c #0C263C",
"YX.	c #082C43",
"ZX.	c #0A2B45",
"`X.	c #13374D",
" Y.	c #052D44",
".Y.	c #073248",
"+Y.	c #08354A",
"@Y.	c #09364B",
"#Y.	c #09384C",
"$Y.	c #0A394C",
"%Y.	c #0C3A4C",
"&Y.	c #0B4050",
"*Y.	c #0E4D58",
"=Y.	c #0E4E58",
"-Y.	c #0E4B57",
";Y.	c #0B4250",
">Y.	c #0B424F",
",Y.	c #0C5559",
"'Y.	c #0B716E",
")Y.	c #0C7772",
"!Y.	c #06272E",
"~Y.	c #053444",
"{Y.	c #052D41",
"]Y.	c #084253",
"^Y.	c #0C394D",
"/Y.	c #0F3A4F",
"(Y.	c #134356",
"_Y.	c #0E3A4E",
":Y.	c #092B40",
"<Y.	c #0A2B40",
"[Y.	c #0E3549",
"}Y.	c #11394D",
"|Y.	c #092F44",
"1Y.	c #05283F",
"2Y.	c #0B2C45",
"3Y.	c #0F3049",
"4Y.	c #0E2E47",
"5Y.	c #07223E",
"6Y.	c #033148",
"7Y.	c #033147",
"8Y.	c #031D3A",
"9Y.	c #0D2D45",
"0Y.	c #113F53",
"aY.	c #0F3E52",
"bY.	c #133950",
"cY.	c #0F374D",
"dY.	c #0E364C",
"eY.	c #0F364C",
"fY.	c #11354C",
"gY.	c #0D354A",
"hY.	c #073246",
"iY.	c #083D4E",
"jY.	c #094153",
"kY.	c #0A4154",
"lY.	c #074355",
"mY.	c #040F21",
"nY.	c #0B4354",
"oY.	c #0B4152",
"pY.	c #0C4051",
"qY.	c #0D4453",
"rY.	c #0D4554",
"sY.	c #0C4353",
"tY.	c #0C4253",
"uY.	c #0C4153",
"vY.	c #0D4053",
"wY.	c #0D3F53",
"xY.	c #0D4052",
"yY.	c #0B4052",
"zY.	c #0D3D51",
"AY.	c #0E3B4F",
"BY.	c #0A3246",
"CY.	c #062338",
"DY.	c #070C26",
"EY.	c #0B182F",
"FY.	c #13273A",
"GY.	c #102232",
"HY.	c #062737",
"IY.	c #06394E",
"JY.	c #073A4F",
"KY.	c #052436",
"LY.	c #07394E",
"MY.	c #093D51",
"NY.	c #0B3F52",
"OY.	c #0A3E51",
"PY.	c #093C50",
"QY.	c #073C50",
"RY.	c #073746",
"SY.	c #0E313E",
"TY.	c #143847",
"UY.	c #102E3F",
"VY.	c #0A0E28",
"WY.	c #0B243A",
"XY.	c #0C2F45",
"YY.	c #144255",
"ZY.	c #0E3F53",
"`Y.	c #0C4554",
" Z.	c #0B4452",
".Z.	c #0B4251",
"+Z.	c #0B4353",
"@Z.	c #05262D",
"#Z.	c #054550",
"$Z.	c #064052",
"%Z.	c #0F3248",
"&Z.	c #12354B",
"*Z.	c #13364D",
"=Z.	c #13384F",
"-Z.	c #11394E",
";Z.	c #123C52",
">Z.	c #04253A",
",Z.	c #061F39",
"'Z.	c #040622",
")Z.	c #080C26",
"!Z.	c #141E37",
"~Z.	c #103C4D",
"{Z.	c #07374A",
"]Z.	c #10364D",
"^Z.	c #133C51",
"/Z.	c #113B50",
"(Z.	c #052D45",
"_Z.	c #073A4A",
":Z.	c #043A4D",
"<Z.	c #033044",
"[Z.	c #030D22",
"}Z.	c #085B61",
"|Z.	c #093F52",
"1Z.	c #0B4252",
"2Z.	c #0D4254",
"3Z.	c #0C3F51",
"4Z.	c #0B3D4F",
"5Z.	c #0A404F",
"6Z.	c #083949",
"7Z.	c #0B3545",
"8Z.	c #0D404F",
"9Z.	c #0F3F51",
"0Z.	c #0F3F52",
"aZ.	c #0E3E51",
"bZ.	c #0C394C",
"cZ.	c #0B384C",
"dZ.	c #083548",
"eZ.	c #083647",
"fZ.	c #0A384A",
"gZ.	c #0C4052",
"hZ.	c #0F4455",
"iZ.	c #124456",
"jZ.	c #104154",
"kZ.	c #0A384D",
"lZ.	c #062E42",
"mZ.	c #072639",
"nZ.	c #0E142B",
"oZ.	c #0D112C",
"pZ.	c #0A0D27",
"qZ.	c #050823",
"rZ.	c #040822",
"sZ.	c #040E27",
"tZ.	c #063246",
"uZ.	c #08394D",
"vZ.	c #0A3B4F",
"wZ.	c #083B50",
"xZ.	c #06374C",
"yZ.	c #08374D",
"zZ.	c #06364A",
"AZ.	c #052235",
"BZ.	c #06182C",
"CZ.	c #060821",
"DZ.	c #0E102B",
"EZ.	c #0F122E",
"FZ.	c #0C0F28",
"GZ.	c #082337",
"HZ.	c #083145",
"IZ.	c #0C3E52",
"JZ.	c #0B3F50",
"KZ.	c #0C3E51",
"LZ.	c #0D3E51",
"MZ.	c #0E3F52",
"NZ.	c #0E4053",
"OZ.	c #0E4152",
"PZ.	c #0D4251",
"QZ.	c #0E4050",
"RZ.	c #0C3D4D",
"SZ.	c #0C3D4E",
"TZ.	c #0B4253",
"UZ.	c #04232D",
"VZ.	c #053549",
"WZ.	c #05374C",
"XZ.	c #063E4E",
"YZ.	c #08394B",
"ZZ.	c #073042",
"`Z.	c #05283C",
" `.	c #072F45",
".`.	c #133B51",
"+`.	c #13394F",
"@`.	c #0E354B",
"#`.	c #08394C",
"$`.	c #13253D",
"%`.	c #0B142D",
"&`.	c #031734",
"*`.	c #04233E",
"=`.	c #022338",
"-`.	c #0A283F",
";`.	c #113548",
">`.	c #0F253F",
",`.	c #0E1F3E",
"'`.	c #0B1632",
")`.	c #090D28",
"!`.	c #050924",
"~`.	c #0B0E29",
"{`.	c #0F2638",
"]`.	c #133042",
"^`.	c #0F3E50",
"/`.	c #133B50",
"(`.	c #103A4F",
"_`.	c #052C3D",
":`.	c #042B3C",
"<`.	c #073344",
"[`.	c #0C4053",
"}`.	c #05293B",
"|`.	c #093146",
"1`.	c #093449",
"2`.	c #09334A",
"3`.	c #093249",
"4`.	c #062B44",
"5`.	c #052A42",
"6`.	c #092037",
"7`.	c #123042",
"8`.	c #103042",
"9`.	c #133245",
"0`.	c #174052",
"a`.	c #113D51",
"b`.	c #0A364B",
"c`.	c #030722",
"d`.	c #040522",
"e`.	c #05364A",
"f`.	c #083B4D",
"g`.	c #041229",
"h`.	c #040723",
"i`.	c #090B24",
"j`.	c #144456",
"k`.	c #174051",
"l`.	c #143D4D",
"m`.	c #123D4C",
"n`.	c #0B2C40",
"o`.	c #041A32",
"p`.	c #06293F",
"q`.	c #072B43",
"r`.	c #0B354A",
"s`.	c #0C394E",
"t`.	c #0C384B",
"u`.	c #082036",
"v`.	c #051C33",
"w`.	c #0B3F51",
"x`.	c #0B4153",
"y`.	c #0D4154",
"z`.	c #041926",
"A`.	c #021C34",
"B`.	c #063745",
"C`.	c #073947",
"D`.	c #063243",
"E`.	c #053142",
"F`.	c #042A40",
"G`.	c #09384B",
"H`.	c #133A50",
"I`.	c #0D3F51",
"J`.	c #103A4B",
"K`.	c #113947",
"L`.	c #10142D",
"M`.	c #060924",
"N`.	c #050723",
"O`.	c #060E29",
"P`.	c #0A1836",
"Q`.	c #0E243E",
"R`.	c #103A4A",
"S`.	c #0B3547",
"T`.	c #050D2B",
"U`.	c #0E1836",
"V`.	c #101835",
"W`.	c #08152F",
"X`.	c #0C132C",
"Y`.	c #10142E",
"Z`.	c #10122E",
"``.	c #0E142F",
"  +	c #0E122D",
". +	c #0A102A",
"+ +	c #061229",
"@ +	c #051329",
"# +	c #020E30",
"$ +	c #020C26",
"% +	c #030821",
"& +	c #020A23",
"* +	c #051D35",
"= +	c #05263E",
"- +	c #062940",
"; +	c #05293F",
"> +	c #05253A",
", +	c #0C2A3E",
"' +	c #10213B",
") +	c #0E1D38",
"! +	c #0A1D36",
"~ +	c #091E37",
"{ +	c #0E253B",
"] +	c #0A152C",
"^ +	c #04192F",
"/ +	c #030D24",
"( +	c #041F30",
"_ +	c #062D3F",
": +	c #052D3F",
"< +	c #052738",
"[ +	c #04102A",
"} +	c #061E32",
"| +	c #0C2D3F",
"1 +	c #092940",
"2 +	c #0E2D42",
"3 +	c #0F223B",
"4 +	c #0B1B37",
"5 +	c #0F1F3A",
"6 +	c #0F283E",
"7 +	c #042B44",
"8 +	c #052C45",
"9 +	c #062C46",
"0 +	c #02162C",
"a +	c #02152C",
"b +	c #02132A",
"c +	c #02122B",
"d +	c #010F2C",
"e +	c #01112E",
"f +	c #021131",
"g +	c #011031",
"h +	c #020F31",
"i +	c #020E31",
"j +	c #021032",
"k +	c #062239",
"l +	c #092539",
"m +	c #0D1A30",
"n +	c #0B122B",
"o +	c #0B0F2A",
"p +	c #0D0F2C",
"q +	c #0F132D",
"r +	c #0E1631",
"s +	c #0B1A36",
"t +	c #0C1C39",
"u +	c #101F3D",
"v +	c #041C38",
"w +	c #010B25",
"x +	c #020B24",
"y +	c #03051E",
"z +	c #02041D",
"A +	c #02041C",
"B +	c #050921",
"C +	c #0F122A",
"D +	c #0F142D",
"E +	c #0F122C",
"F +	c #0B0E28",
"G +	c #050A26",
"H +	c #081633",
"I +	c #041330",
"J +	c #010D27",
"K +	c #010924",
"L +	c #010824",
"M +	c #02162E",
"N +	c #06102A",
"O +	c #0E1530",
"P +	c #0D122E",
"Q +	c #090D29",
"R +	c #0D102C",
"S +	c #0C122D",
"T +	c #0C102C",
"U +	c #0E132E",
"V +	c #020F26",
"W +	c #02162D",
"X +	c #02152B",
"Y +	c #020C24",
"Z +	c #050625",
"` +	c #0B142C",
" .+	c #0D142E",
"..+	c #101631",
"+.+	c #0F1530",
"@.+	c #0C172F",
"#.+	c #0C1730",
"$.+	c #0D1830",
"%.+	c #09152C",
"&.+	c #08132C",
"*.+	c #07142D",
"=.+	c #041028",
"-.+	c #02192E",
";.+	c #030523",
">.+	c #010823",
",.+	c #061230",
"'.+	c #0B1835",
").+	c #0A1734",
"!.+	c #080F2C",
"~.+	c #0E102A",
"{.+	c #0C1128",
"].+	c #10142C",
"^.+	c #0B0F27",
"/.+	c #01041D",
"(.+	c #03071F",
"_.+	c #02071F",
":.+	c #01071F",
"<.+	c #02051E",
"[.+	c #04253F",
"}.+	c #0C1634",
"|.+	c #0E1A38",
"1.+	c #06102E",
"2.+	c #022237",
"3.+	c #022136",
"4.+	c #020C25",
"5.+	c #055556",
"6.+	c #031332",
"7.+	c #071530",
"8.+	c #0D1B36",
"9.+	c #101D38",
"0.+	c #101E38",
"a.+	c #050C27",
"b.+	c #091931",
"c.+	c #112B40",
"d.+	c #093542",
"e.+	c #06424C",
"f.+	c #07565F",
"g.+	c #05565E",
"h.+	c #05555D",
"i.+	c #054E57",
"j.+	c #04243B",
"k.+	c #043F4E",
"l.+	c #053B43",
"m.+	c #093241",
"n.+	c #0A313F",
"o.+	c #082938",
"p.+	c #0D1D36",
"q.+	c #0E1733",
"r.+	c #090D2A",
"s.+	c #0A122D",
"t.+	c #06142F",
"u.+	c #034850",
"v.+	c #034851",
"w.+	c #021B32",
"x.+	c #033746",
"y.+	c #04273D",
"z.+	c #040B27",
"A.+	c #0F1734",
"B.+	c #0B112D",
"C.+	c #01041C",
"D.+	c #022542",
"E.+	c #032945",
"F.+	c #022642",
"G.+	c #05424C",
"H.+	c #06585F",
"I.+	c #05585E",
"J.+	c #045B5D",
"K.+	c #045A5C",
"L.+	c #055259",
"M.+	c #021B31",
"N.+	c #05635F",
"O.+	c #07283F",
"P.+	c #0A2C41",
"Q.+	c #0A2B43",
"R.+	c #0B2C44",
"S.+	c #0E3148",
"T.+	c #12374D",
"U.+	c #123146",
"V.+	c #114653",
"W.+	c #165C64",
"X.+	c #145C64",
"Y.+	c #0B5760",
"Z.+	c #085660",
"`.+	c #06535A",
" ++	c #063F51",
".++	c #053E52",
"+++	c #053F51",
"@++	c #053D50",
"#++	c #043B4E",
"$++	c #04394D",
"%++	c #04344A",
"&++	c #033A4A",
"*++	c #044352",
"=++	c #054655",
"-++	c #054A57",
";++	c #074F5A",
">++	c #075C62",
",++	c #06545D",
"'++	c #05525B",
")++	c #06515B",
"!++	c #07545D",
"~++	c #09525A",
"{++	c #16515C",
"]++	c #0C404E",
"^++	c #0B2137",
"/++	c #0F2C42",
"(++	c #102E45",
"_++	c #0E2942",
":++	c #09253E",
"<++	c #06273D",
"[++	c #054F56",
"}++	c #054E56",
"|++	c #066867",
"1++	c #044954",
"2++	c #05545B",
"3++	c #055E61",
"4++	c #055F61",
"5++	c #054654",
"6++	c #054855",
"7++	c #051E37",
"8++	c #0B1F3C",
"9++	c #091834",
"0++	c #022741",
"a++	c #021C3A",
"b++	c #022541",
"c++	c #022744",
"d++	c #021434",
"e++	c #04414B",
"f++	c #062642",
"g++	c #054957",
"h++	c #033547",
"i++	c #043349",
"j++	c #022941",
"k++	c #05354C",
"l++	c #07394F",
"m++	c #06394F",
"n++	c #082A3D",
"o++	c #0C1F3A",
"p++	c #102540",
"q++	c #0B1C37",
"r++	c #123047",
"s++	c #0C384D",
"t++	c #133E52",
"u++	c #12555F",
"v++	c #0F6368",
"w++	c #0A6066",
"x++	c #095C64",
"y++	c #064853",
"z++	c #032F47",
"A++	c #043149",
"B++	c #032A45",
"C++	c #04374D",
"D++	c #04364C",
"E++	c #04364B",
"F++	c #095A63",
"G++	c #0C5E66",
"H++	c #126268",
"I++	c #165F67",
"J++	c #174154",
"K++	c #113D50",
"L++	c #0D3349",
"M++	c #102F47",
"N++	c #0F2A42",
"O++	c #112A41",
"P++	c #0C253E",
"Q++	c #053645",
"R++	c #063A4E",
"S++	c #06374D",
"T++	c #023143",
"U++	c #033648",
"V++	c #03374A",
"W++	c #043B4D",
"X++	c #054857",
"Y++	c #064C5A",
"Z++	c #052A44",
"`++	c #011333",
" @+	c #022945",
".@+	c #022743",
"+@+	c #022543",
"@@+	c #021F3C",
"#@+	c #052541",
"$@+	c #053346",
"%@+	c #074753",
"&@+	c #031935",
"*@+	c #0B1E3B",
"=@+	c #0F233F",
"-@+	c #0D203C",
";@+	c #041732",
">@+	c #0D203B",
",@+	c #10223D",
"'@+	c #0A1B35",
")@+	c #050F2D",
"!@+	c #060C2E",
"~@+	c #111F3A",
"{@+	c #112E46",
"]@+	c #0A364D",
"^@+	c #08344B",
"/@+	c #076160",
"(@+	c #074D58",
"_@+	c #0B374D",
":@+	c #08334B",
"<@+	c #11354B",
"[@+	c #132A42",
"}@+	c #060C2D",
"|@+	c #05112F",
"1@+	c #0E1D3B",
"2@+	c #051430",
"3@+	c #071834",
"4@+	c #0D1D38",
"5@+	c #05142F",
"6@+	c #06344A",
"7@+	c #06384D",
"8@+	c #05354B",
"9@+	c #022C42",
"0@+	c #062641",
"a@+	c #022643",
"b@+	c #021E39",
"c@+	c #021B39",
"d@+	c #021F3D",
"e@+	c #03213F",
"f@+	c #04213E",
"g@+	c #044754",
"h@+	c #053F52",
"i@+	c #05354D",
"j@+	c #041938",
"k@+	c #061C3A",
"l@+	c #0E2945",
"m@+	c #11304B",
"n@+	c #0E3049",
"o@+	c #112F47",
"p@+	c #0E1434",
"q@+	c #0E112F",
"r@+	c #081D35",
"s@+	c #052B43",
"t@+	c #011232",
"u@+	c #041B38",
"v@+	c #032441",
"w@+	c #053C48",
"x@+	c #0C293F",
"y@+	c #101532",
"z@+	c #0D1132",
"A@+	c #0C1A36",
"B@+	c #0F2D44",
"C@+	c #0C2B44",
"D@+	c #092741",
"E@+	c #0E2C46",
"F@+	c #112E49",
"G@+	c #0F2B47",
"H@+	c #071F3C",
"I@+	c #041A38",
"J@+	c #05384F",
"K@+	c #064D5A",
"L@+	c #031A39",
"M@+	c #031938",
"N@+	c #010D2F",
"O@+	c #011434",
"P@+	c #011435",
"Q@+	c #011535",
"R@+	c #021A39",
"S@+	c #021C3C",
"T@+	c #021E3D",
"U@+	c #021D3D",
"V@+	c #021D3C",
"W@+	c #031D3B",
"X@+	c #031939",
"Y@+	c #0E2441",
"Z@+	c #0F2644",
"`@+	c #06203E",
" #+	c #07223F",
".#+	c #0E223F",
"+#+	c #0F2D47",
"@#+	c #081B39",
"##+	c #041231",
"$#+	c #011032",
"%#+	c #010F31",
"&#+	c #010F30",
"*#+	c #010E30",
"=#+	c #011030",
"-#+	c #011231",
";#+	c #011132",
">#+	c #011133",
",#+	c #08102E",
"'#+	c #0A1533",
")#+	c #0A1B36",
"!#+	c #0B2A45",
"~#+	c #112744",
"{#+	c #0D2944",
"]#+	c #0A2743",
"^#+	c #0E2745",
"/#+	c #0D2442",
"(#+	c #041A39",
"_#+	c #01061E",
":#+	c #010D30",
"<#+	c #010C2D",
"[#+	c #011233",
"}#+	c #011334",
"|#+	c #02193A",
"1#+	c #021939",
"2#+	c #021839",
"3#+	c #042946",
"4#+	c #041937",
"5#+	c #020D30",
"6#+	c #010F2F",
"7#+	c #09213F",
"8#+	c #0C2341",
"9#+	c #09203F",
"0#+	c #061D3B",
"a#+	c #031937",
"b#+	c #0B203E",
"c#+	c #102542",
"d#+	c #0D233F",
"e#+	c #0B1F3D",
"f#+	c #0D2541",
"g#+	c #0F2A46",
"h#+	c #0D2743",
"i#+	c #061635",
"j#+	c #021536",
"k#+	c #011332",
"l#+	c #021637",
"m#+	c #031736",
"n#+	c #031636",
"o#+	c #041737",
"p#+	c #031737",
"q#+	c #011131",
"r#+	c #020D31",
"s#+	c #031635",
"t#+	c #061636",
"u#+	c #0E2A45",
"v#+	c #102D48",
"w#+	c #0B223E",
"x#+	c #061D39",
"y#+	c #081F3C",
"z#+	c #0F2442",
"A#+	c #041B3A",
"B#+	c #071F3D",
"C#+	c #061E3C",
"D#+	c #042C47",
"E#+	c #032E47",
"F#+	c #02051B",
"G#+	c #010C2F",
"H#+	c #020E32",
"I#+	c #010E31",
"J#+	c #021E3E",
"K#+	c #01102F",
"L#+	c #0D2443",
"M#+	c #0F2544",
"N#+	c #0C2140",
"O#+	c #0D2241",
"P#+	c #0E2443",
"Q#+	c #0E2342",
"R#+	c #0A1F3E",
"S#+	c #0A1E3B",
"T#+	c #0C1E3C",
"U#+	c #0C203E",
"V#+	c #0C2542",
"W#+	c #07213E",
"X#+	c #032A47",
"Y#+	c #041837",
"Z#+	c #0A223F",
"`#+	c #0F2A47",
" $+	c #102442",
".$+	c #0E213F",
"+$+	c #081D3C",
"@$+	c #091E3D",
"#$+	c #0C2240",
"$$+	c #0F2543",
"%$+	c #102644",
"&$+	c #041F39",
"*$+	c #051832",
"=$+	c #021638",
"-$+	c #021A3A",
";$+	c #02051A",
">$+	c #010B2D",
",$+	c #021133",
"'$+	c #020C30",
")$+	c #01041A",
"!$+	c #031F40",
"~$+	c #051A39",
"{$+	c #0E2341",
"]$+	c #0B1F3E",
"^$+	c #0F2342",
"/$+	c #0C223F",
"($+	c #091E3B",
"_$+	c #0C1B37",
":$+	c #061837",
"<$+	c #031434",
"[$+	c #010C30",
"}$+	c #0B1D3B",
"|$+	c #0E1E3A",
"1$+	c #0F2443",
"2$+	c #091F3E",
"3$+	c #02213F",
"4$+	c #022040",
"5$+	c #02203F",
"6$+	c #01102E",
"7$+	c #02041A",
"8$+	c #020A2E",
"9$+	c #020C2E",
"0$+	c #031F3F",
"a$+	c #041A35",
"b$+	c #021537",
"c$+	c #041A37",
"d$+	c #010B2E",
"e$+	c #05223E",
"f$+	c #122D47",
"g$+	c #0B1B36",
"h$+	c #011234",
"i$+	c #021235",
"j$+	c #040F2E",
"k$+	c #112945",
"l$+	c #112A47",
"m$+	c #0A2541",
"n$+	c #022140",
"o$+	c #011635",
"p$+	c #011636",
"q$+	c #05273E",
"r$+	c #020A2D",
"s$+	c #010828",
"t$+	c #010724",
"u$+	c #02193C",
"v$+	c #021437",
"w$+	c #021538",
"x$+	c #031A3A",
"y$+	c #091532",
"z$+	c #081532",
"A$+	c #071633",
"B$+	c #071433",
"C$+	c #021134",
"D$+	c #010D31",
"E$+	c #081F3A",
"F$+	c #08203C",
"G$+	c #061937",
"H$+	c #0B233F",
"I$+	c #09213E",
"J$+	c #041B39",
"K$+	c #021B3C",
"L$+	c #010D2A",
"M$+	c #01051F",
"N$+	c #020F32",
"O$+	c #030F33",
"P$+	c #031033",
"Q$+	c #02092E",
"R$+	c #01051B",
"S$+	c #030520",
"T$+	c #071030",
"U$+	c #0A1535",
"V$+	c #021135",
"W$+	c #071132",
"X$+	c #0E1936",
"Y$+	c #07112F",
"Z$+	c #031534",
"`$+	c #021336",
" %+	c #031B3B",
".%+	c #010A2D",
"+%+	c #010F32",
"@%+	c #020F33",
"   .  +  @  #  $  %  &  *  =  -  ;  >  ,  '  )  !  ~  {  {  ]  ^  ^  ^  /  (  _  :  <  [  }  |  1  2  3  4  5  6  7  8  9  0  a  b  c  d  e  f  g  h  i  j  k  l  m  n  o  p  q  r  s  t  u  v  w  x  y  z  A  B  C  D  D  E  E  F  G  H  I  J  K  L  M  N  O  P  Q  R  -  S  T  U  V  W  X  Y  Z  Y  Y  `   . .. +. @. #. $. %. &. *. =. =. -. ;. >. ,. '. ). !. ~. {. ]. ^. /. (. _. :. <. [. }. |. 1. 2. 3. 4. 5. 6. 7. 8. 9. 0. 0. a. b. c. d. e. f. g. g. h. i. j. k. l. m. n. o. p. q. r. s. t. u. v. w. x. y. z. A. B. C. D. E. F. G. H. I. J. K. L. M. N. O. P. Q. R. s. S. T. U. V. W. X. Y. Z. `.  + .+ ++ @+ #+ $+ %+ &+ *+ =+ -+ ;+ >+ ,+ '+ )+ !+ ~+ {+ ]+ ^+ /+ (+ _+ :+ <+ [+ }+ |+ 1+ 1+ 2+ 3+ 4+ 3+ 5+ 6+ 7+ 8+ 9+ 0+ a+ b+ c+ d+ e+ f+ g+ h+ i+ j+ k+ l+ m+ ",
"n+ o+ p+ q+ r+ s+ t+ u+ v+ w+ *  x+ (  (  y+ z+ (  (  (  (  (  (  A+ B+ C+ D+ E+ F+ G+ H+ I+ J+ K+ L+ M+ N+ O+ P+ Q+ C  R+ S+ T+ U+ V+ W+ h  X+ Y+ Y+ Z+ g  `+ `+  @ .@ +@ @@ #@ $@ $@ %@ &@ *@ =@ -@ ;@ >@ ,@ '@ )@ !@ !@ ~@ D  )@ <  {@ ]@ ^@ /@ (@ _@ :@ <@ [@ }@ |@ 1@ 2@ 3@ 4@ 5@ 6@ D+ 7@ 7@ 8@ 9@ 9@ 0@ 9@ 9@ a@ b@ c@ d@ d@ e@ f@ g@ h@ i@ j@ k@ l@ m@ n@ o@ p@ q@ r@ s@ t@ u@ v@ w@ x@ y@ z@ A@ B@ C@ D@ E  v@ n+ E@ F@ G@ %. H@ 9  %. b@ I@ J@ K@ L@ M@ N@ a@ O@ 9@ P@ Q@ R@ S@ T@ U@ V@ W@ -  X@ |@ Y@ Z@ `@  # .# +# @# ## $# ~@ D  !@ !@ C  %# &# *# =# -# ;# ># ,# '# )# !# ~# {# ]# ^# /# (# _# :# <# [# }# |# h  1# |# 2# 3# 4# 5# 6# 7# 8# 9# 0# a# b# c# ]  A+ d# e# f# g# 8@ h# i# j# (  (  (  (  A+ k# (  l# m# n# o# p# q# r# s# t# u# v# w# x# y# z# A# ",
"B# C# D# E# F# G# H# I# o# J# K# L# M# N# O# P# Q# R# P# S# T# U# V# W# D+ X# Y# Z# `#  $ .$ +$ @$ c# 0  #$ $$ %$ &$ *$ =$ -$ ;$ >$ ,$ '$ )$ 1# [# !$ -@ ~$ {$ ]$ {$ ^$ /$ ($ _$ :$ <$ [$ }$ |$ Z+ 1$ 2$ 3$ 4$ 5$ )@ D  D  6$ C  7$ 8$ 9$ 0$ )@ a$ b$ c$ [@ d$ e$ f$ g$ h$ i$ j$ a@ k$ V# l$ m$ W# W# D+ n$ W# W# l$ o$ p$ q$ r$ s$ h@ s$ t$ t$ u$ v$ w$ x$ y$ z$ A$ B$ C$ D$ E$ G@ F$ G$ H$ D$ I$ J$ K$ L$ M$ [  N$ O$ P$ K@ Q$ R$ q$ S$ R$ R$ b$ T$ m$ m$ l$ l$ U$ T$ V$ m$ m$ M# V# W$ X$ Y@ ,  Y$ Z$ e$ `$ `$ '   % .% +% &$ @% #% $% %% D  6$ D  E  &% *% =% -% ;% >% ,% '% )% !% ~% {% ]% ^% .@ {$ /% (% _% :% <% ^% d  {$ _% (# [% }% |% 1% 2% 7# @# 3% 4% 5% 6% 7% 8% 9% 0% a% b% c% d% D+ n$ o$ e% f% g% h% i% j% k% l% )# M# m% J# n% o% p% q% u# r% s% t% u% v% w% ",
"x% y% z% A% B% C% D% E% F% G% H% I% J% K% L% L% M% L% N% /@ O% P% Q% R% S% T% U% V% W% X% Y% Z% `%  & N% .& +& @& #& $& %& && *& =& -& ;& >& ,& '& )& !& ~& {& ]& ^& /& (& _& :& <& [& }& n  |& 1& 2& 3& 4& 5& 6& 7& 8& 9& 0& N% a& b& c& d& e& f& g& h& i& j& k& l& m& n& o& p& q& $% r& P% s& s& +& t& f& f& u& v& v& w& x& x& l@ y& l@ z& A& B& C& D& E& F& G& H& K$ I& J& K& r& L& ^@ M& N& O& P& Q& H& R& S& v& T& U& V& 7$ j@ W& W& W& P% X& N% Y& L% L% Z& Z& `&  * .* .* .* +* @* #* $* %* &* ** =* -* ;* >* O$ M& ,* I& a  +& '* '* )* !* j@ ~* {* ]* ^* /* (* _* (% :* <* [* }* |* 1* 2* 3* 4* 5* 6* <% 7* 8* 9* 0* a* ,$ b* c* d* e* f* g* I& h* i* j* X& [  k* l* m* n* o* p* q* r* s* t* u* v* w* x* y* z* A* y* B* C* $* D* E* :@ F* G* H* I* J* K* L* M* N* O* ",
"P* Q* R* S* T* U* V* W* X* Y* Z* `* M$ M$ M$ Q& Q& Q&  = .= .= L$  = += @= #= B@ $= %= &= *= ==  & -= ;= >= ,= '= )= != ~= {= ]= ^= /= e& (= _= := <= 6# [= }= |= 1= 2= 3= 4= 5= 6= 7= 8= 9= -= 0= a= b= +& U& c= d= e= f= b% b% e= g= b% h= i= j= k= l= m= n= o= p= q= r= f= s= t= t= C@ C@ C@ u= 9$ 9$ v= w= x=  = y= y= y=  = n@ @= z= 6= c= p* A= A= A= A= B= C= D= E= F= `* Z* G= G= H= I= B@ `* F= G& M$ Q& A$ Q& J= B= K= J= L= M= J= J= #= #= n@ N= u= O= P= Q= R= S= S= I& I& e# *$ T= #$ U= V= W= X= Y= Z= `=  - .- +- @- #- g= Y* 6= 7= $- D& %- &- *- =- -- ;- >- ,- '- )- !- ~- {- ]- ^- /- &@ (- _- :- <- [- Q= l@ l@ }- ^= |-  $ 1- 2- $& 3- 4- 5- 6- v& 7- 8- 9- 0- a- z& b- c- d- #= C= B= K= e- e- K= f- A@ f- g- h- q= U+ c= i- j- k- U* l- m- '= n- o- p- ",
"q- r- s- t- u- v- w- F= G& G& G& H& M$ M$ Q& d- x- r= d= e= e= b% e= e= y- /= q= h- z- A- B- C- D+ C* q& D- E- F- G- ~# H- I- J- K- L- M- N- O- $@ #* P- Q- R- z= S* S- T- U- V- W- d# X- Y- Z- 5$ Z- `- `-  ;  ; Y- Y- .;  ; +; @; #; $; %; ;$ &; *; =; -; ;; >; ,; ,; '; ); O. b& !; v= u= ~; {; {; Q= Q= Q= Q= 9$ d& ]; e- ^; /; `% (; _; :; <; <; [; }; }& w* K& |; 1; #= 2; `* 3; F= H& Q& q= 4; +% Q% 5; 6; 5- 7; 8; 8; 9; 0; a; ]; b; @% c; h* @% O= 9$ K$ d; e; f; ~; u= w= w= g; h; i; j; k; l; m; n; o; p; q; 6; r; s; t; u; v; w; x; v; v; Y& Z& y; y; z; Z& t* s* s* A; s* B; [  e& d& C; D; E; F; -= G; H; r* I; J; K; L; M; I- N; O; P; Q; R; S; T; U; V; J% W; 7@ X; Y; e= d- L= K$ e- e- P= P= e- K$ L= y= Q& Z; G& G& H& H& M$ B@ F= z$ `;  > .> +> @> #> $> ",
"%> &> *> => -> ;> >> ,> c; L= '> )> !> ~> {> ]> ^> /> (> _> :> <> Y- Y-  ;  ; <>  ; [> }> A= |> 1> 2> 3> 4> 5> 6> 7> u& 8> 9> v* 0> ~= a> b> c> d> e> f> <> e& $= g> 3# h> i> j> k> l> m> n> o> p> q> r> r> s> s> t> u> v> w> x> y> z> A> B> C> D> E> F> D> D> D> D> D> G> H> I> J> K> ]@ t= u= L> M> M> M> N> O> P> Q> ~= 4$ R> S> -@ T> U> V> W> X> Y> .$ Z> `> {=  , ., E+ +, @, #, F& +- v& O% $, %, &, Z> *, =, W> -, ;, >, ,, ', ), :> !, V; ~, {, ], X* ^, L> ^, ^, ~; C@ t= /, (, >; _, <& D> 4  :, <, D> D> D> D> [, =@ }, }, |, 1, 2, 3, 4, 5, 6, 7, 7, 8, 9, 0, a, b, c, d, e, f, g, J- g- x- x- <= z; h, *# i, j, k, l, m, M% Z& n, o, 3  |> p, q, r, s, t, u, v, o+ w, x, y, z, A, B, B, B, B, B, C, A, D, E, F, G, H, I, J,  - C= K, L, M, N, O, P, Q, R, S, T, ",
"U, V, W, X, Y, Z, `, 3#  ' .' +' @' #' $' %' &' *' =' -' ;' >' 0# ,' &, {= ,' |$ '' ;' x, Q= )' !' ~' {' Y& ]' ^' /' (' _' K% :' 0> ^* k, <' [' }' |' 1' 2' 3' 3' 4' 5' 6' 7' 8' 1' 9' 0' a' b' c' d' e' f' g' g' h' i' j' k' l' m' n' [, o' o' o' o' E> E> p' p' q' r' r' s' t' u' v' w' v= C@ C@ x' y' z' A' B' C' D' E' F' G' H' I' h% i% J' K' L' M' N' [> O' P' Q' R' M& q& S' y& 2; 1; $% K& T' U' V' W' 0# X' Y' Z' `'  ) .) +) @) .@ #) $) %) &) *) =) -) g= e- 9$ u= v= ;) >) ,) ') )) r' <, q' !) q' E> E> o' E> E> ~) {) ]) ^) /) () () _) :) <) [) }) |) 1) 2) 3) 4) 5) 6) 7) 8) 9) 0) a) b)  & 6# c) d) e) f) g) h) /& )% V; i) j) k) b% l) m) n)  & o) p) q) r) r= k) s) W' R> t) t) t) u) u) v) v) w) x) y) z) A) B) C) D) E) F) O= @- G) )% H) X, I) J) K) L) ",
"M) N) O) P) Q) R) /) 8> P& S) T) U) V) W) X) Y) Z) `)  ! .! +! @! 1# T> T> #! $! %! &! *! 8= =! -! ;! >! ,! <- '! t& T& )! !! .* ~! {! ]! ^! /! (! _! :! <! [! t* }! |! 1! 2! 3! 4! 5! 5! 6! 7! 7! 8! () 9! 0! a! a! h' k' b! T) 4  E> o' c! d! e! e! r' )) )) )) s' s' s' f! g! h! A* i! %$ ^. j! k! l! m! n! o! p! +@ f* X# q! P@ ~# T' r! s! t! u& a; u! R= := v! F$ N$ w! x! y! z! A! B! w! C! 6% k@ D! a; E! 6= G; F! G! H! P; T# $* I! J! K! p; L! M! N! O! P! Q! R! O= %$ 3  6; S! T! U! s' s' s' )) )) q' q' V! o' o' o' o' E> C> W! X! Y! h' Z! a! `! 9! 0!  ~ .~ =' +~ @~ #~ $~ %~ &~ *~ =~ -~ ;~ )! >~ :) ,~ '~ )~ !~ %) ~~ :> 9> J% {~ f& u& ]~ ^~ 6# /~ (~ _~ :~ <~ [~ '# <$ }~ #! `> Z' Z' Z' |$ |~ {$ 1~ 2~ 3~ 4~ 4~ 5~ 6~ 7~ 8~ P& J= 9~ }, 0~ a~ b~ c~ d~ e~ ",
"f~ g~ h~ i~ j~ k~ l~ 8> P& m~ n~ o~ p~ q~ r~ s~ t~ /! u~ v~ w~ Z, x~ y~ z~ y~ A~ b> l, B~ C~ T= D~ E~ F~ G~ p& A@ P- w* H~ I~ T# J~ K~ L~ M~ N~ O~ P~ Q~ R~ D, S~ T~ U~ V~ W~ X~ Y~ Z~ R) `~  { .{ +{ @{ #{ ${ 8! %{ &{ *{ ={ -{ ;{ >{ r' ,{ ,{ ,{ s' '{ ){ s' f! s' !{ ~{ {{ ]{ `& != k= d& A; ^{ /{ ({ _{ c! :{ <{ <{ f* [{ }{ |{ C* 1{ 2{ 3{ 4{ Q% 5{ l@ D! }- 6{ H@ 7{ w* #* 8{ 9{ 8& 0{ a{ R' b{ G+ /= S= S= := [  @* D+ c{ A* d{ |{ q! B* 1{ e{ &, f{ g{ c~ h{ i{ j{ ]' !; k{ l{ m{ D~ n{ o{ p{ s' s' s' s' s' r' r' r' r' q' V! >{ ;{ q{ r{ s{ 0!  ~ t{ u{ ${ v{ w{ x{ L~ y{ Z~ z{ A{ B{ C{ D{ E{ F{ G{ H{ I{ J{ K{ L{ M{ #{ N{ 0# 6@ O{ .% 6- P{ Q{ {~ e% R{ S{ T{ U{ V{ W{ X{ Y{ )$ Z{ J~ {& `{ `{  ] .] +] @] #] $] %] &] *] ]) =] -] ;] >] ,] '] )] +{ N) g~ !] !) ",
"g~ i  N) ~] {] ]] ^] /] 0$ (] _] ~& :] <] [] }] |] 1] 2] 3] 4] 0! 9! 5] =' 6] 7] w{ 8] 9] 0] a] b] c] d] e] f] Y* g] h] i] 9] j] k] l] m] n] o] p] q] r] s] t] u] v] w] x] y] z] A] B] C] D] E] F] G] H] I] J] K] L] M] M] N] O] P] Q] f~ f~ f~ f~ R] R] -> <# S] T] [, U] y* V] T% @, A@ W] X] Y] Z] `]  ^ .^ v' 6; +^ @^ #^ $^ %^ z+ P; !# &^ W# q& 7{ H~ *^ *^ +* D+ 4{ =^ -^ ;^ 9{ s= 7$ >^ @* ,^ >^ !! !! !! '^ L% ,! )^ !^ ~^ h, $* {^ ]^ ]^ ^^ v' /^ (^ _^ :^ <^ [^ }^ |^ g= 1^ 2^ 8$ ]{ 3^ _, H> 4^ p' M) p' p' )) p' q' q' n{ P] 5^ 6^ 7^ ${ L] K] 8^ K] 9^ 0^ F] F] a^ b^ c^ d^ e^ f^ g^ h^ i^ j^ t] k^ l^ m^ n^ o^ p^ q^ r^ s^ t^ u^ M- v^ w^ x^ ]~ <$ y^ y{ S! z^ A^ B^ C^ D^ E^ _) F^ G^ 0! s{ 4] H^ I^ J^ K^ L^ r~ M^ q~ U) N^ O^ P^ Q^ R^ S^ T^ U^ V^ g~ W^ X^ ",
"1# Z+ Y^ Z^ `^  / ./ [% e& j= +/ @/ #/ $/ %/ R) &/ */ =/ -/ ;/ >/ ,/ '/ )/ !/ ~/ {/ ]/ ^/ // (/ _/ :/ </ [/ g] b% }/ |/ 1/ 2/ 3/ 4/ 5/ 6/ 7/ 8/ 9/ 0/ a/ b/ c/ d/ e/ f/ g/ h/ i/ j/ k/ l/ m/ n/ o/ p/ q/ &/ r/ s/ t/ u/ v/  { w/ x/ y/ z/ A/ B/ B/ C/ D/ E/ F/ G/ H/ I/ J/ K/ L/ @, #- N= M/ N/ O/ P/ c~ Q/ R/ S/ S! T/ ;$ ;> U/ V/ W/ <{ X/ g% ,^ .% *^ K@ Y/ V# z+ W# Z/ 4{ `/ X*  ( .( C! P@ W; l$ +( +( N@ @( *^ #( P@ V# I' $( e{ %( %( &( *( S! 8; =( -( 4^ _{ ;( >( ,( '( a  T- )( !( ~( {( ]( ^( /( (( _( D) :( <( [( }( [( -> G> |( K] 1( 2( 3( 4( 4( 5( 6( 7( 8( 9( 0( a( b( c( d( e( f( g( h( i( j( 9* k( l( m( n( o( p( q( r( s( t( u( v( w( o, x( y( z( A( B( C( D( E( F( G( H( ]/ I( R) J( K( L( M( N( O( P( Q( &{ R( S( @/ T( U( (= U% V( W( X( Y( Z( i  `( +! ",
"->  _ ._ +_ @_ #_ $_ %_ $& &_ *_ g' 2( N~ =_ -_ ;_ >_ ,_ '_ )_ !_ ~_ o> {_ ]_ ^_ /_ (_ H{ __ u] :_ :_ <_ [_ }_ |_ 1_ `% i= 2_ 3_ 4_ 5_ 6_ 7_ 8_ 9_ 0_ a_ b_ c_ >& d_ e_ f_ g_ h_ i_ i_ j_ k_ l_ m_ n_ o_ p_ q_ r_ r_ s_ t_ u_ v_ w_ x_ y_ z_ (/ a= j= h= v& i! __ A_ B_ C_ D_ E_ F_ G_ H_ I_ J_ K_ L_ M_ N_ O_ V) P_ Q_ R_ S_ 8* T_ U_ v) V_ f% L@ L@ W_ *^ O{ #( X_ x! Y_ .% A& Z_ 3; `_  : 6- a@ .: $* $* K@ J@ O{ H~ +: @: '# v) #: $: %: &: n' *: =: -: ;: >: ,: ': ): !: ~: {: ]: b= ^: /: (: $& _: j= G; :: <: [: }: |: 1: <_ <_ 2: %: B~ 3: 4: 5: (- 5: 6: 7: 8: 9: 0: a: b: c: d: e: f: g: h: i: G) j: k: j: M' l: m: n: o: p: q: r: s: t: u: v: )( w: x: y: z: A: B: C: D: E: F: G: H: I: J: K: L: M: N: O: P: Q: R: S: T: .{ U: C^ V: Y* +- W: X: Y: Z: `:  < .< E> ",
"+< @< #< $< %< &< *< =< -< ;< >< ,< '< )< !< ~< {< ]< ^< /< (< _< :< << [< }< |< 1< 2< |/ w_ 3< 4< 5< 6< 7< a_ 8< 9< 0< a< b< c< d< e< f< g< h< i< j< k< l< m< n< o< l: p< q< r< s< t< u< v< w< x< y< z< A< B< C< D< E< F< G< H< I< J< K< L< M< N< O< 0; P< Q< R< S< T< U< V< a! W< X< Y< Z< i  `<  [ .[ +[ @[ #[ r~ C> $[ ,; %[ (^ .^ &[ ') *[ =[ -[ 6@ ;[ .: .% a$ >[ ,[ '[ ]@ n@ G& H  )[ '[ ![ ~[ a$ x! #( ,^ C* {[ L# S# ][ ^[ I> /[ ([ _[ :[ <[ [[ }[ ]& |[ 1[ 2[ 3[ 4[ 5[ 6[ 7[ 8[ %{ 9[ $) 0[ a[ b[ E) c[ d[ x& B& e[ f[ g[ A_ h[ u_ a< i[ j[ k[ l[ m[ m[ j_ !& n[ o[ p[ (_ q[ r[ s[ t[ u[ v[ w[ x[ y[ z[ A[ B[ C[ D[ E[ F[ G[ H[ n_ s_ I[ J[ K[ L[ M[ D, 7< N[ O[ P[ Q[ a_ R[ S[ T[ U[ V[ W[ X[ Y[ Z[ G( `[  } .} +} {] )] @} t/ #} $} %} F; &} *} =} -} ;} >} ,} r{ ",
"'} )} !} ~} 7/ {} ]} ], B* ^} /} (} _} :} <} [} }} }} |} /< 1} 2} 3} y: 4} 5} 6} 1< 7} 8} __ 9} 0} a} 9] b} c} d} e} f} $; g} h} 8: p] i} j} k} l} m} n} o} p} q} r} s} t} u} v} w} x} y} z} A} B} C} D} E} F} G} H} I} J} K} L} M} 1< N} O} P} Q} V[ R} S} T} U} V} W} {! X} l, Y} Z} `} |^  | ]& .| +| @| #| $| %| &| H' H' e! V! V! r' r' *| =| -| ;| s  o$ .: >| ,^ ,^ p$ P& n@ B@ I  ,| X& '| Y_ Y_ Y_ 8@ S# )| !| !| =| ~| ~| e! }; <; <; <; {| ]| `( A] ^| /| (|  ! r' _| l; :| ', <| k' t, [| }| || 1| 2| 3| 4| 5| 6| 7| 8| 9| 0| 0' 3< a| b| c| d| e| f| g| h| i| j| k| l| m| n| o| p| q| r| s| t| u| v| w| x| y| z| A| B| C| D| E| $; F| G| H| f] I| J| K| L| M| N| }/ b/ S[ 1< 6} O| P| Q| R| S| T| U| V| W| X| Y| Z| `|  1 .1 +1 @1 ;= a# #1 $1 %1 &1 *1 =1 -1 R) ",
";1 >1 ,1 '1 )1 !1 |< ~1 z* {1 ]1 ^1 /1 (1 _1 :1 <1 u| [1 }1 |1 11 21 31 ,} :) 6} 41 51 s_ 61 T= 71 81 91 01 R% a1 e= N> b1 $; c1 d1 e1 f1 g1 h1 i1 j1 k1 l1 m1 n1 o1 p1 q1 r1 s1 t1 u1 v1 w1 x1 w1 y1 z1 A1 B1 A1 C1 Q~ D1 E1 z1 F1 G1 H1 I1 4) J1 }| W} D1 K1 9! T} c' L1 M1 N1 O1 j[ P1 Q1 R1 S1 T1 U1 V1 W1 X1 Y1 d! K' ,% o' o' o' 4^ q' r' ,{ *| Z1 H! `1  2 a- l$ D+ W_ .2 a  M$ I   ' '^ 4{ n$ +2 T$ e% h% )| @2 *| )) r' r' c! o' ,% ,% ,% d! |$ #2 $2 %2 &2 *2 5] =2 -2 ;2 ^* >2 a> ,2 '2 )2 !2 ~2 7] {2 ]2 ^2 /2 (2 _2 b' :2 <2 [2 }2 ]] |2 12 22 32 42 52 62 72 !1 82 92 02 a2 b2 b2 c2 d2 e2 f2 g2 h2 i2 j2 k2 l2 m2 n2 o2 p2 q2 r2 s2 *! $- t2 u2 v2 w2 x2 y2 I_ z2 A2 B2 C2 O[ D2 E2 F2 G2 H2 I2 J2 K2 L2 M2 N2 O2 P2 Q2 R2 S2 T2 x* U2 V2 W2 X2 Y2 Z2 `2  3 .3 ",
"+3 @3 #3 $3 %3 &3 8| *3 =3 -3 ;3 >3 ,3 '3 )3 !3 ~3 {3 ]3 ^3 /3 (3 _/ _3 :3 <3 [3 X- }3 |3 13 23 #^ P; 33 43 53 63 73 ^} U- 83 93 03 a3 b3 c3 d3 e3 f3 g3 h3 i3 j3 k3 l3 m3 n3 o3 p3 q3 r3 s3 t3 u3 v3 w3 x3 y3 z3 A3 B3 C3 D3 E3 F3 62 G3 H3 I3 J3 K3 L3 M3 N3 O3 P3 Q3 R3 S3 ', T3 U3 .# Q{ 8$ V3 W3 T1 E1 X3 Y3 +< 9' Z3 `3 `3  4 T] T] .4 +4 @4 #4 $4 j% %4 &4 <{ *4 X{ h! =4 x= H& `_  ' .* 1- 33 -4 O# ;4 i% >4 ,4 '4 ~{ )4 )4 Z3 !4 Z3 g{ ''  ] b> ~4 {4 ]4 ^4 L3 /4 D~ `% Q{ K- (4 _4 :4 <4 [4 2( }4 b' f' |4 /* 14 I1 24 34 44 62 54 64 74 84 94 04 a4 b4 c4 d4 e4 f4 g4 h4 i4 j4 k4 l4 m4 n4 o4 p4 q4 r4 s4 t4 u4 v4 w4 x4 y4 z4 A4 B4 C4 F, P1 {* T3 L- 5- h! D4 K< E4 F4 G4 k( H4 <! I4 J4 K4 L4 M4 N4 O4 P4 Q4 R4 S4 T4 U4 V4 W4 X4 Y4 Z4 `4  5 .5 +5 @5 #5 $5 %5 ",
"&5 *5 =5 -5 ;5 >5 &: ,5 '5 )5 !5 ~5 {5 ]5 ^5 u1 /5 (5 _5 >= :5 <5 [5 }5 |5 15 25 =$ 35 45 55 65 75 85 95 05 a5 b5 ]= c5 w_ M% 25 d5 e5 f5 g5 h5 i5 j5 k5 l5 m5 n5 o5 p5 q5 r5 s5 s5 }= t5 u5 m[ v5 z[ w5 x5 y5 z5 A5 B5 C5 D5 E5 F5 G5 H5 I5 J5 K5 J5 c) b< b< c) }% J; L5 X- M5 s& z& #& N5 w$ O5 E4 S^ P5 b' Q5 W( 7[ R5 S5 T5 U5 V5 V5 U5 W5 X5 Y5 Y5 ;| *[ S1 T< Z5 V_ `5  6 %$ Q& `_ s= U; .6 +6 @6 y~ #6 $6 %6 &6 %6 *6 =6 -6 ;6 >6 X^ W^ ,6 '6 K1 /* <) T[ )6 k( E4 P' =4 ]@ y@ K% n) ', H{ G_ !6 _/ ~6 D: {6 ]6 /_ ^6 /6 /6 (6 _6 k> :6 <6 [6 }6 |6 16 26 36 46 56 m< 66 76 86 96 06 a6 b6 c6 d6 e6 @1 f6 q5 j5 g6 h6 i6 j6 k6 l6 m6 n6 a& o6 p6 p6 q6 F' r6 s6 {& K~ t6 ${ 25 a& u6 $; v6 J< w6 H{ !& x6 c: y6 z6 A6 B6 C6 D6 E6 F6 G6 <_ *3 H6 I6 J6 K6 L6 M6 N6 O6 ",
"P6 Q6 R6 2_ S6 B_ U( T6 U6 V6 q2 W6 X6 Y6 Z6 `6  7 .7 +7 @7 #7 $7 %7 &7 *7 =7 -7 ;7 >7 ,7 '7 )7 !7 ~7 {7 ]7 ^7 /7 (7 _7 :7 <7 [7 C* }> }7 |7 17 27 37 47 57 67 77 87 97 07 a7 b7 c7 d7 e7 e7 e7 e7 f7 g7 h7 i7 j7 u5 k7 l7 m7 n7 n7 o7 p7 p7 p7 o7 v6 k^ w^ Q[ Q[  ; #; q7 %# &- 5{ 9$ r7  ' s7 t7 u7 v7 w7 H[ x7 y7 8: 5& z7 G6 A7 B7 C7 B7 D7 E7 E7 F7 G7 a* H7 P@ `  ,^ I7 S= J7 K7 L7 @% L< %^ a@ ., q6 7~ M7 E' E' N7 O7 R5 P7 Q7 _5 1' w{ K} R7 S7 T7 S} M4 T( U7 :- d@ V7 W7 9$ y& P{ X7 /' )* N% Y7 a_ a_ v_ Z7 Z7 `7 h[ t; t; t; h[  8 '5 .8 +8 @8 #8 $8 %8 &8 h6 *8 *8 *8 =8 -8 ;8 >8 ,8 '8 )8 !8 I5 ~8 {8 ]8 ^8 /8 (8 _8 :8 <8 #* <8 (7 [8 M[ }8 |8 18 28 38 48 58 68 78 88 U/ 98 08 a8 b8 v( c8 A7 d8 e8 f8 g8 h8 i8 j8 k8 l8 m8 m6 n8 o8 p8 q8 s; r8 s8 t8 u8 t8 ",
"v8 w8 x8 l7 y8 u[ z8 A8 B8 B8 C8 D8 E8 F8 _7 G8 H8 H8 I8 J8 K8 p7 H8 L8 U= B; v) M8 N8 O8 P8 Q8 X( R8 S8 T8 U8 V8 W8 ]^ {^ {^ X8 C* Y8 Z8 `8  9 .9 +9 @9 #9 $9 %9 &9 *9 =9 -9 ;9 >9 ,9 '9 )9 !9 ~9 {9 ]9 ^9 /9 (9 _9 :9 <9 [9 }9 |9 |9 19 29 39 49 59 69 79 89 99 09 a9 b9 w; c9 z& N= d9 e& ;2 u: e9 f9 g9 g9 '> h9 h9 t: 2^ i9 Y& j9 a$ x! X_ X_ X_ p& X_ Y_ k9 #( x! L% +& A@ x= Z; d9 a  l9 `& >| J@ *^ m9 n9 o9 o9 p9 p9 q9 r9 p9 r9 p&  * s9 L; __ t9 __ t9 u9 e9 v9 y; /, d9 x= z& G; 7< w9 =3 x9 y9 z9 A9 B9 C9 D9 E9 F9 G9 G9 H9 I9 J9 K9 L9 M9 N9 O9 P9 Q9 R9 S9 T9 U9 V9 W9 X9 Y9 Z9 `9  0 .0 +0 @0 #0 $0 %0 &0 *0 =0 -0 ;0 d% C* U' y* L- `- >0 V8 _- ,0 '0 )0 !0 ~0 {0 ]0 ^0 /0 (0 _0 :0 <0 [0 }0 J8 =8 I8 I8 j7 |0 10 }_ 20 30 40 50 60 70 80 e5 '5 90 00 a0 b0 ",
"c0 d0 e0 f0 g0 h0 i0 j0 k0 l0 m0 n0 o0 p0 G_ q0 n_ r0 s0 s0 t0 t0 =8 u0 [  v0 w0 x0 y0 z0 A0 B0 C0 D0 X1 E0 O; F0 V8 r; /^ `- G0 9; H0 I0 J0 K0 L0 M0 N0 w[ =3 O0 P0 Q0 R0 S0 T0 U0 V0 W0 X0 Y0 Z0 y} `0  a .a .a +a @a #a $a n: %a &a *a =a C} -a e) ;a ;a >a a( ,a T7 'a <8 O< _= M= C( )a !a ~a {a ]a ^a 14 14 /a (a (a _a R6 :a <a Z& B; [a U- '* (0 }a |a j= j= 01 `% 1a j= 1^ `% 01 M; g- 2a a1 3a 3a 3a 4a %- 7{ 5a J% R' 6a x; k{ 7a 8a 9a 0a d8 q[ /_ q[ aa ba ca da ea A! a  I& c= '| [0 fa w> ga ha ia ja ka y] la ma na oa oa pa qa ra sa ta ua va wa xa ya za Aa Ba Ca Da Ea Fa Ga Ha Ia Ja Ka La Ma Na Oa Pa Qa Ra Sa Ta Ua f* ]^ ]^ W8 %# Va Wa >0 Xa Ya Za *: S^ `a  b .b +b @b #b $b %b &b J8 J8 s0 r0 r0 x6 *b =b =b -b 99 j> ;b >b ,b 'b )b !b ~b {b {b ]b ",
"^b /b (b _b :b <b [b s} }b |b 1b 2b r1 3b 4b N[ (7 J< p7 i6 S; 5b 6b 7b _: 4% 8b 9b 0b ab bb cb }_ 20 f] {1 H_ db eb fb gb hb ib jb kb lb mb nb ob pb qb >= rb sb tb ub vb wb xb yb zb Ab Bb Cb Db Eb Fb Gb Hb Ib y| Jb Kb a4 Lb Mb Nb Ob Pb Qb Rb Sb Tb Ub Vb Wb Xb Yb Zb M' g9 A& `b  c .c +c @c #c $c %c &c *c =c -c ;c >c 14 ,c 'c M' k{ Q= N= )c !c ~c h# b} {c ]c ^c )% /c (c _c :c  | ~! s) <c [c `4 }c f* S+ |c C= R- $- 1c 2c s; 3c R5 4c 5c 6c 7c W2 7c 8c 9c 0c ac bc X4 H= [- cc ]^ dc ec fc gc e4 hc ic jc kc lc mc nc oc pc qc rc sc tc uc vc wc xc yc zc Ac Bc Cc Dc Ec Fc Gc Hc Ic Jc Kc Lc |/ Mc Nc Oc Pc Qc Rc Sc Tc Uc Vc Wc Xc Yc Zc `c  d rb .d +d @d #d @' $d %d &d *d =d v9 {: -d |_ ;d i6 p7 >d ,d [c 'd )d !d ~d {d ]d ^d /d (d _d :d c4 <d ;} [d }d ",
"|d 1d 2d 3d 4d 5d 6d 7d 8d 9d 0d ad bd cd dd ed fd gd G| V{ I- j= hd d/ id jd kd 4% ld l{ 2c ;& md w_ w9 nd od pd qd rd sd td ud vd wd xd yd zd Ad Bd Cd Dd Ed Fd Gd Hd Id Jd Kd Ld Md Nd Od Pd Pd Pd Qd Rd Sd Td Ud Vd Wd Xd Yd Zd `d  e Ud .e +e +e @e #e $e {a U1 %e &e *e =e *$ S- -e ;e >e ,e 'e )e !e ~e {e ]e ^e /e (e _e :e <e [e }e 2% O= #- <- w$ |e 1e 2e 3e 4e /% 5e 6e 7e 7e 7e `+ 8e 9e 0e ae 8$ be )! M= ce de ee fe ge he ie je ke le me ne oe pe qe re se te ue X4 ve *$ we 8} xe H: ye ze Ae Be Ce De Ee Fe Ge He Ie Je Ke Le g| 3d Me Ne Oe Pe Qe Re Se Od Te Ue Ve We Xe Ye Ze `e  f .f (7 1: +f @f #f $f %f &f *f =f -f ;f >f ,f 'f )f !f ~f u6 -< -< 5a L% -< {f ]f ^f c9 /f ;~ 6= (f _f :f <f [f }f |f 1f 2f 3f 4f 5f 6f 7f 8f 9f 0f r1 af :b bf cf >3 ",
"df ef ff gf 7d hf if jf kf Rd lf mf nf of pf qf rf sf _- tf uf E7 z2 vf wf 9| uf ]2 xf yf zf M3 Af C2 Bf Cf Df 7) Ef Ff Gf Hf If Jf Kf Lf Mf Nf 3< Of r[ h7 I5 eb Pf Qf Rf Sf Tf Uf Vf Wf Xf Yf Xf Zf `f  g .g +g @g o1 #g $g %g &g *g =g -g ;g >g ,g 'g 6( }1 )g !g ~g {g ]g ^g $- S- /g (g _g :g <g [g }g |g 1g k] 2g 3g 4g 5g 6g =' 1- 7g 8g 9g 0g ag bg H/ cg T/ dg eg @) fg gg hg ig jg f  kg lg mg #% ng og og pg a] -= L& qg J~ `| rg sg tg ug ]/ vg wg xg yg zg Ag Bg Cg h_ Dg a; Eg Fg Gg Hg Ig Jg Kg Lg Mg Ng nc Og Pg Qg Rg Sg C| Tg Ug Vg Wg Xg Yg J0 Zg `g Xf  h 4f .h +h Vf @h #h $h %h &h *h =h -h =d h] 5: ;h >h ,h 'h )h !h ~h ~h {h ]h ^h /h (h _h :h <h <h I4 [h [h }h |h uf 1h [5 -& I| 2h J< 3h u7 3h 4h 5h 6h 7h 8h 9h 0h ah bh bh ch dh eh fh gh df hh ",
"ih jh kh lh 1b mh nh oh ph qh rh sh a7 O^ th i' uh l^ vh z> wh A9 xh f8 yh zh  3 Ah Bh 14 Ch Dh Eh Fh Gh }' Hh Ih Jh Kh Lh Mh Nh Oh Ph Qh Rh 41 Sh Th Uh Vh Wh `4 f] Xh Yh Zh `h  i Te .i +i @i #i $i %i J0 &i *i =i -i ;i >i ,i %g 'i )i !i ~i W2 {i ]i ^i /i (i _i :! :i j> F[ >- <i [i }i |i 1i 2i 3i 4i 5i 6i 7i 8i N~ 9i 0i ai bi ci di ei fi gi hi ii ji '# l  ki li mi ni oi pi qi ri si ti ui vi wi xi 7~ yi zi Ai Bi ~h Ci Di Ei Fi Gi Hi Ii pe Ji Ki Li Mi Ni Oi .5 Pi Qi c- Ri Si Ti Ui Vi E] J2 Wi Xi Yi Zi `i  j .j +j @j #j $j >i %j &j *j =j -j J0 Zg $i $i ;j ;j >j ,j 'j )j !j ~j {j ]j $: J1 ^j /j (j _j 1h Rh :j <j -_ [j }j |j 1j 2j 3j 4j 5j 6j 7j 8j 8j 9j #~ N3 0j 9' :) aj K| bj cj M3 d) a' zh 4: C) Q> dj ej fj gj hj ij jj kj lj mj nj oj pj qj rj ",
"sj tj uj vj 3d 8d wj xj yj zj Aj Bj Cj Dj Ej Fj :i Gj A( Hj Vi Ij Jj Kj Lj Mj Kj Nj Oj :< Pj q> Qj c0 Rj Sj Tj Uj Vj Wj Xj Yj Zj `j (6 9]  k .k Ef +k e8 @k #k $k @d <3 n_ %k &k *k =k -k ;k >k ,k 'k )k !k ~k {k ]k ^k =i /k (k _k :k <k [k }k |k 1k 2k 3k 4k 5k 6k 7k 8k Wj 9k 30 0k ak bk ck dk ek fk gk hk ik jk kk lk Hi mk nk Mf ok pk qk rk sk tk uk vk wk xk yk zk Ak Bk Ck Dk Ek e~ Fk Gk Hk Ik Jk Kk m! Lk sk Mk Nk Ok Pk Qk 9^ Rk Sk 1| kk Tk Uk Vk Wk Xk Yk dk Zk `k  l {: .l +l @l #l &/ $l %l &l *l =l t> -l ;l K{ >l ,l 'l >i )l !l ~l Yg *i {l ]l ^l /l (l _l :l <l [l }l |l 1l 2l s2 (7 3l a| 4l 5l Q7 7[ 5< 6l 7l F: 8l 9l 0l al bl &a tg cl dl el fl gl hl il jl kl ll 99 }4 H} ml nl ol ml Q| |2 |2 3) pl [) ql rl sl tl ul vl wl xl yl Vd Vd zl Al Bl Cl ",
"Dl El @l Fl Fl Gl Hl Il Jl Kl Ll Ml L[ Nl Ol Pl Ql Rl Sl Tl Ul Vl Wl Xl Yl Zl `l  m .m +m @m #m $m %m &m *m =m -m ;m >m ,m 'm )m !m ~m -3 {m ]m ^m /m (m _m (m :m i> <m G5 [m }m |m 1m 2m 3m 4m 5m 6m 7m 8m 8m 9m 0m `f am bm cm dm em 'i >l &< fm gm hm im jm km lm mm ^> ba nm om ]f :a pm qm rm sm tm um vm p^ wm xm !< +} ym zm Am Bm Cm Dm Em Fm Gm Hm Im Jm Km Lm Mm Nm Om Pm O, Qm Rm Sm Tm Um Vm Wm Xm Ym Zm `m  n tk .n +n @n #n $n %n &n xm *n =n -n ;n >n ,n 'n )n !n ~n f[ E5 {n ]n ei ^n /n 6j (n _n :n <n )i [n }n |n <1 dm 1n 2n 3n ^k {k 0m 4n 5n 6n 7n 8n 9n 0n an bn cn dn (- k_ en &e fn gn hn hn i< in jn e8 o0 kn ln mn nn on pn qn rn sn 7' tn un vn wn xn yn K6 zn Ul An Bn Cn Dn En Fn Gn Hn In Jn Kn Ln Mn 30 Nn On Pn Qn Rn Sn Tn Un Un Vn Wn Xn &~ ",
"Yn Zn `n  o .o +o @o #o Rn $o %o &o *o =o ,= -o 4' ;o >o ,o A: 'o )o !o ~o {o ]o ^o /o (o _o :o <o [o }o |o 1o 2o 3o 4o 5o 6o 7o 8o 9o 0o d} ao bo I[ co do eo fo go ho io jo ko lo mo no oo po qo ro so to uo vo wo +i xo yo zo Ao Bo Co Do Eo Fo Go ]0 Ho Io Jo Ko Lo Mo ($ No g[ Oo S6 Po Qo Ro So To Uo Vo Wo Xo Yo Zo `o  p .p +p %/ @p V5 #p $p %p &p ,) *p =p -p ;p >p ,p 'p )p !p ~p {p ]p ^p /p (p ,) _p :p <p [p }p |p .| 1p 2p 1j 3p 4p 5p 6p 7p 8p 9p 0p ap bp cp dp ep fp t: gp S^ xe hp (n ip jp kp lp mp @_ Eo np [k <k op pp qp bm rp sp tp 8m up vp wp xp yp zp Ap Bp Cp Dp Ep Fp Gp Hp Ip Jp Kp Lp Mp Np Op Pp Qp Rp Sp Tp Up Vp Wp Xp Yp Zp `p  q .q +q @q #q $q %q &q *q =q -q ;q >q ,q 'q )q !q ~q {q ]q ^q /q (q _q :q <q [q }q |q 1q 2q 3q 4q 5q 6q 7q ",
"8q 9q 0q aq bq cq dq eq xc fq gq hq iq jq kq lq mq nq oq pq qq rq sq tq uq vq wq xq yq zq Aq Bq Cq Dq Eq Fq Gq Hq Iq Jq Kq Lq Mq Nq Oq Pq Qq Rq Sq Tq Uq Vq Wq Xq Yq Zq `q  r .r +r @r #r $r %r &r *r =r -r ;r >r ,r 'r )r !r ~r {r ]r ^r /r (r _r @j Go :r <r [r }r |r 1r a[ k( s* 2r 3r 4r 5r 6r 7r 8r 9r 0r i| ar br cr dr er fr gr hr ir jr kr lr mr H7 nr _> R} or pr qr rr 4* $4 #6 sr tr ur vr wr qg xr #d yr [^ zr Ar Br Cr Dr Er Fr Gr Hr Ir Jr Kr Lr Mr Nr Or Pr Qr Rr E) Sr Tr t; 3$ Ur Qj ;g Vr Wr Xr ef K{ @j ff np Yr Zr `r  s .s +s @i @s #s $s %s &s *s =s -s ;s >s ,s 's )s !s ~s {s S; ]s ^s /s (s _s :s <s [s }s |s 1s 2s 3s 4s 5s 6s 7s 8s 9s 0s as bs cs ds es fs gs hs is js ks ls ms e6 ns os ps qs rs ss ts us vs ws xs ys zs As Bs Cs Ds Es 8d Fs Gs ",
"Hs (9 Is Js Ks Ls Ms Ns Os Ps Qs Qs Rs Ss Ts Us Vs Ws Xs Ys Zs `s  t .t +t @t #t $t %t &t *t =t -t ;t >t ,t 't )t !t ~t {t ]t ^t /t (t _t :t <t [t }t |t 1t 2t 3t 4t 5t 6t 7t 8t 9t 9t 0t at bt ct dt et ft gt ht it jt kt lt mt nt ot pt qt rt st tt ut vt wt Q2 xt yt zt (4 A, At Bt Ct Dt Et Ft Gt Ht It !b Jt Kt Lt Mt Nt Ot Pt Qt Rt St Tt Ut aa 3| %& T3 o& 7> Vt Wt Xt Yt Zt `t  u .u +u @u #u }h !^ $u 5- %u T[ &u *u =u -u ;u >u ,u 'u )u !u ~u {u ]u &3 ^u y7 /u (u _u 2_ +- 4; 61 :u x7 <u 4} [u }u |u 1u Kr 2u o1 ^k 3u 4u 5u 6u 7u 8u 9u 0u au bu cu du eu fu gu hu iu ju ku lu mu nu ou pu qu ru su tu uu vu wu xu yu zu Au Bu Cu Du Eu Fu Gu Hu Iu Ju Ku Lu Mu Nu Ou %t Pu Qu Ru Su Tu Uu Vu Wu Xu Yu Zu `u  v .v +v @v #v $v %v &v *v kt =v -v ;v >v ,v 'v )v ",
"!v ~v {v ]v ^v ]v ^v /v x5 (v _v :v <v !8 w8 [v }v |v 1v 2v 3v 4v 5v 6v 7v 8v 9v 0v av bv cv dv ev fv gv hv iv jv kv lv mv nv ov pv qv rv sv tv uv vv wv xv yv zv Av Bv Cv Dv Ev Fv Gv *5 Hv Iv Jv Kv Lv Mv Nv Ov Pv Qv Rv Sv Tv Uv Vv Wv Me R4 Xv Yv Zv `v  w .w p[ k6 +w y& Y* @w #w 5% 3# X* $w %w &w *w =w -w ;w >w ,w _0 'w )w !w w& ~w _: -= c= c= x& y& l@ 6{ k* {w H; ]w K- a; #w ^w t] 61 5a /w T& (w 7& T& l9 1; (0 _w g& :w <w [w }w |w 1w 2w 3w /: 4w 5w 6w 7w }> 8w D& r= e= 2a [  9w 0w T; aw g| bw cw dw ew fw gw gw hw iw bf jw kw 0t lw mw nw ow pw qw rw sw tw uw vw ww xw yw zw Aw Bw Cw Dw Ew Fw Gw Hw Iw Jw Kw Lw Mw qv Nw Ow Pw Qw Rw Sw Tw Uw Vw Ww Xw Yw Zw `w  x .x +x @x #x $x %x &x *x =x -x ;x >x ,x }f 'x )x !x ~x {x ]x ^x /x (x _x :x <x [x }x ",
"|x Y6 1x 2x 3x 4x 5x ^g 6x 7x 8x 9x 0x ax bx cx dx ex fx gx hx ix jx kx lx mx nx ox px qx rx sx tx ux vx wx xx yx zx Ax Bx Cx Dx Ex Fx Gx Hx Ix Jx Kx Lx Mx Nx Ox Px Qx Rx Sx Tx Ux Vx i< Wx Xx Yx Zx `x  y .y +y @y #y $y %y &y *y =y -y ;y _s )a L[ >y ,y y8 'y )y !y ~y ~y {y z: 4h ]y n. ^y /y (y _y :y <y [y &w }y |y 1y 2y 3y Ed 4y Z- X8 5y 5y 6y 7y 8y z; P% r& P' 9y 1% V; A;  & z& )@ )@ %% 0y 5# 5{ 5{ 5{ (w (w s& t* '- ~, ay by #> cy dy ey fy gy hy iy jy ky ly my ny l= oy py qy ry !> /g g] sy ty uy vy wy q<  m xy yy zy Ay By Cy Dy Ey Fy Gy Hy Iy Jy Ky Ly My Ny Oy Py Qy Ry Sy Ty Uy Vy Wy Xy Yy Zy `y  z .z +z @z #z $z %z &z *z =z -z ;z >z ,z 'z )z !z ~z {z ]z ^z /z (z _z :z <z [z }z |z 1z 2z 3z 4z 5z k7 7x 6z 7z 7z 8z 9z %b &8 0z az bz cz h[ dz ",
"ez fz gz hz iz jz kz lz mz nz oz pz qz rz sz tz uz vz wz xz yz zz Az Bz Cz Dz Ez Fz Gz Hz Iz Jz Kz Lz Mz Nz Oz Pz Qz Rz Sz Tz Uz Vz Wz Xz Yz Zz `z  A .A +A @A #A $A %A &A *A =A -A ;A >A ,A ,A 'A )A !A ~A {A /2 ]A ^A /A (A _A :A <A [A }A |A 1A 2A 3A 4A 5A 6A 7A 8A 9A 0A aA bA cA ,h dA eA fA gA hA iA jA kA jg lA mA nA oA pA qA rA sA @6 S> S> :$ tA O- uA <> <> b5 vA fe wA ;7 '- <7 u) xA f* <7 U; ]* yA 'c Y+ Y+ E' zA >2 AA BA CA DA EA FA GA HA IA JA KA LA MA NA OA PA -/ QA RA SA B9 TA UA VA _d nc WA XA YA ZA `A  B k7 .B +B @B #B 7z g6 $B 86 %B &B *B =B -B ;B >B ,B 'B )B !B ~B {B ]B ^B /B (B _B :B <B [B }B |B 1B 2B 3B 4B 5B 6B 7B 8B 9B 0B Mz aB bB cB dB eB 8v fB gB hB iB jB kB lB mB nB oB pB qB rB sB tB uB vB wB xB yB zB AB BB CB DB EB FB GB ]e ",
"HB IB JB KB LB MB NB OB PB QB RB SB TB UB VB WB XB YB ZB `B  C .C +C @C #C $C %C &C 5B *C =C -C ;C >C ,C 'C )C !C ~C {C ]C ^C /C (C _C :C <C [C }C |C 1C 2C 3C 4C 5C 6C 7C 8C 9C 0C aC aC bC cC dC 0C eC fC gC hC iC az i5 /A jC kC lC mC nC oC pC qC an rC 5A sC tC uC vC |< wC xC yC zC AC BC CC DC EC FC Pg GC HC IC JC KC LC 1~ MC NC  @ B) !$ .< >{ 3^ R/ OC PC QC RC SC TC <{ UC g* M5 r; VC WC WC XC YC ZC `C  D |# 7* ($ X} M1 .D +D W4 @D #D $D %D &D *D =D -D ;D >D ,D 'D *u ec Dh s/ )D !D ~D {D ]D ^D /D (D _D :D <D [D }D |D 10 1D i5 i5 yB 2D 3D 4D 5D 6D 7D 8D 9D 9D 9D 0D aD bD cD dD eD fD gD hD iD jD kD lD mD nD oD pD qD ^C rD sD tD uD vD Mz wD aB xD yD zD AD BD CD DD ED FD GD HD ID JD KD LD MD ND OD PD QD RD SD TD UD VD 2} WD XD YD ZD `D  E ta .E ",
"cl +E @E Ie #E $E %E &E *E =E -E ;E >E ,E 'E )E !E ~E {E ]E ^E /E (E _E :E <E [E }E |E 1E 2E 3E 4E 5E 6E 7E 8E 9E 0E aE bE cE dE eE fE gE hE iE jE kE lE mE nE oE pE qE rE sE tE uE vE wE xE yE zE AE BE CE DE EE FE GE HE ^A IE JE KE LE ME NE OE PE QE af )g ;g K2 |r X[ M| RE SE Y% ca TE UE VE WE XE YE ZE `E  F S: .F +F `! W< *4 _$ ii @F #F L' R/ e! $F .6 W' xA %F Q; &F v' *F =F -F ;F L' *( %@ }& e! $F >{ *; n' ii $| >F ge ,F 'F L( )F !F ~F 3( {F ]F ^F /F (F _F :F <F [F 14 }F 12 L: B9 t> |F 1F $g 2F 3F 4F 5F 6F 7F 8F 9F 0F aF bF 6z cF dF eF fF gF hF iF jF kF lF mF vE nF sE 8C oF pF qF rF sF tF uF vF wF xF yF zF AF BF CF DF EF FF GF HF IF JF KF LF MF NF OF PF QF RF SF TF UF VF WF XF YF ZF `F  G j3 .G +G @G #G $G %G &G *G =G -G ;G fq >G vj ,G 'G ",
")G !G ~G w| {G ]G ^G /G 9k (G _G :G <G [G }G |G 1G 2G 3G 4G 5G 6G 7G 8G 9G 0G aG bG cG dG eG fG gG hG iG jG kG lG mG nG oG pG qG rG sG tG uG vG wG xG yG zG AG BG CG DG EG FG GG HG IG JG KG KG LG MG NG OG PG QG RG SG TG UG #8 VG WG XG YG ZG `G  H .H +H K: ;g |1 @H #H $H ,0 %H &H f8 *H b= =H -H ;H >H ,H 'H )H _} %~ !H ~H 8] *@ E0 {H .@ ]H qg ^H /H (H _H :H <H QC u) '# %@ [H v; <7 [H }H _H |H 1H /H (H W' 2H 3H 4* 4H 5H 7~ 6H 4] 7H 8H Xb 9H 0H dh aH Mh bH cH dH (8 @k eH (i fH ug gH hH iH jH 7c kH wt lH mH nH oH pH qH rH sH tH uH vH wH xH yH zH iF NG AH BH CH IG DH EH FH JG GH HH IH JH KH LH MH NH OH PH QH RH SH TH UH VH WH XH YH ZH aE `H  I .I +I @I #I $I %I &I *I =I -I ;I >I ,I 'I )I !I ~I {I ]I ^I /I (I _I :I <I [I }I |I 1I 2I _9 3I 4I 5I 6I ",
"7I m| 8I R4 9I 0I q8 aI bI cI dI eI fI gI hI iI jI kI lI mI nI oI pI qI rI sI tI uI vI wI xI yI zI AI BI 2E BI CI pG DI EI FI GI HI II JI KI LI MI NI OI PI QI RI SI TI UI VI WI XI YI ZI `I  J .J +J @J #J $J %J &J *J =J -J ;J >J ,J 'J )J !J ~J {J ff ~d ]J ^J /J (J _J :J <J [J }J |J x7 ^f -& 1J 2J  e 3J 4J X( 5J 6J 7J 8J 9J 0J l, 6> NC aJ bJ QC cJ dJ +@ eJ X' 0# W' fJ gJ #@ a& hJ t) %@ iJ _; 5; -( jJ W' kJ %! lJ ]% mJ @6 nJ h) $/ 0H oJ )] pJ qJ rJ sJ tJ uJ vJ w[ _2 wJ xJ yJ zJ AJ BJ CJ p/ ^J Tj DJ EJ )l FJ GJ HJ IJ JJ KJ LJ MJ NJ OJ PJ QJ RJ SJ TJ UJ VJ WJ XJ YJ ZJ `J  K .K +K @K #K $K %K &K *K =K -K ;K >K ,K fv 'K )K EI !K ~K {K ]K ^K /K (K ^K _K :K <K [K }K |K 1K 2K 3K 4K 5K 6K 7K 8K 9K 0K aK bK cK dK eK fK gK hK iK :7 jK kK lK mK nK oK pK ",
"qK rK sK lq tK uK }_ [f vK wK xK yK zK AK BK CK DK EK FK GK HK IK JK KK LK MK NK OK PK QK RK SK TK UK VK WK XK YK ~K DI ZK `K  L .L +L @L #L $L %L &L *L =L -L ;L >L >L ,L ,L 'L )L !L ~L {L ]L ^L /L (L _L :L <L 'G v( [L }L |L 1L 2L 3L 4L 5L 6L Ql 7L nc 8L 9L 0L aL bL 65 cL dL eL 2j 7| f} fL Dd gL hL iL jL kL lL mL nL nL *{ H^ $' 5~ oL g  pL ^% `( .< qL rL /H sL UC tL ^' ]= X& L< UC uL u' B0 /[ e! l~ vL {| pL wL xL yL .D zL K( nL AL Dk BL CL DL n^ EL x( u; )= kn FL GL HL IL JL KL LL ML NL OL PL QL RL SL TL UL VL WL XL YL UG ZL `L  M .M +M @M #M $M xs %M Pb &M *M =M -M ;M >M ,M 'M )M !M ~M {M ]M ^M /M (M _M :M <M [M }M |M 1M DI {K 2M ZK VK 3M TK 4M .I 2E 5M 6M 7M 7M 8M 9M 0M aM bM cM dM eM fM gM hM iM jM kM lM mM nM eb j( oM 1J pM qM rM sM tM ",
"uM vM wM xM yM zM AM BM CM DM EM FM GM HM IM JM KM LM MM NM OM PM QM RM SM TM QK UM VM WM XM +I YM ZM VK `M  N .N oG +N @N #N |E $N %N &N *N =N -N ;N >N ,N 'N )N !N ~N {N ]N ^N /N /N (N _N :N <N [N }N |N 1N 2N 3N y[ 4N 0z p7 5N 6N 7N 8N 9N 0N aN bN cN dN eN fN gN hN iN jN kN lN mN nN A, q& oN 0w pN qN ia rN sN tN uN uN K(  ~ Z, yL vN wN xN `(  D `3 o' V! ~| yN zN X' L' [7 ee H- v) }H AN }; '' o' `( (# xN BN M^ CN DN 4] ${ EN ]] FN GN HN lk IN JN KN j( 6a u7 LN MN NN ON PN QN RN SN TN UN VN WN XN YN ZN `N  O .O +O @O #O $O %O y[ y7 &O Zx *O =O -O ;O >O ]x ]x ,O 'O )O !O e3 ~O {O ]O ^O /O (O _O :O <O [O }O |O 1O 2O 3O 4O 5O 6O pG 7O 8O )K hG 9O +I 0O aO bO cO 5M BI dO eO fO gO hO iO jO ^u kO lO mO nO oO pO qO rO sO uy tO uO vO wO xO yO zO AO ",
"BO CO DO EO FO GO HO IO JO KO LO MO NO OO PO QO RO SO TO UO VO WO XO YO ZO `O kG  P .P +P 2E 3E 2E @P `M pG ~K .N oG #P $P %P &P *P =P -P ;P >P ,P 'P )P !P ~P {P ]P ^P /P (P _P :P <P [P }P |P ^G 1P 2P 3P 5r 4P 5P 6P 7P i6 n7 8P 9P 0P aP bP cP dP eP fP gP hP iP jP kP lP mP 4g nP a, oP t] p$ pP qP rP sP )< tP uP vP  { y{ wP P5 F^ Z! S1 /) xP yP Z3 sr Q/ V! c! zP .4 v' y* v* ee 1{ ,% zP AP V! o' ~) ~)  4 BP CP  ]  _ G^ 5] x{ L~ L~ DP EP FP GP HP IP JP O+ R' P- KP LP #l MP NP OP PP QP RP SP TP UP VP WP XP YP ZP `P  Q .Q +Q =8 ;8 6P // @Q #Q )O )O #Q $Q %Q #Q &Q *Q sh =Q -Q ;Q >Q ,Q 'Q )Q !Q ~Q {Q ]Q ^Q /Q (Q _Q :Q <Q [Q }Q |Q oG ~K DI 1Q )K 2Q 3Q 4Q 2E 5Q 6Q 7Q }M 8Q 9Q 0Q aQ bQ cQ dQ eQ Et fQ gQ hQ iQ jQ kQ lQ mQ nQ oQ pQ qQ rQ sQ tQ uQ vQ wQ ",
"xQ yQ zQ AQ BQ CQ DQ EQ FQ GQ HQ IQ JQ KQ LQ MQ NQ OQ PQ QQ RQ SQ TQ UQ VQ WQ XM |M 1Q 7O }M XQ YQ ZQ `Q oG  R .R +R @R #R $R %R &R *R =R -R ;R >R ,R 'R )R !R ~R {R ]R ^R /R (R _R :R <R [R }R |R 1R 2R 3R 4R 5R 6R >= r0 7R 8R 9R no 0R aR bR cR dR eR fR gR hR iR jR kR lR mR nR oR pR Rj t9 !! 0{ qR +1 rR Z| sR tR 7H w{ c' c' uR 9! vR wR xR yR zR *4 h  AR 4^ o' ^[ S! m{  *  * )@ P% BR V! ,% c! CR DR ER FR GR HR IR JR 0! KR E^ ]] 7! v{ LR FP MR NR OR PR 9y a$ r* QR ]J RR jH SR TR UR VR WR XR YR ZR `R cP  S .S +S @S #S $S %S 8R I8 &S *S =S -S ;S mf >S ,S 'S )S !S ~S {S ]S ^S /S (S _S :S <S [S }S |S 1S 2S 3S 4S 5S 6S 7S %C 8S {K  R 9S 9S 6O 2M 0S XQ aS bS cS pG 1M aS dS eS fS gS hS iS jS kS lS mS nS oS pS qS rS sS tS uS vS 2F wS zs xS yS zS AS BS ",
"CS DS ES FS GS HS IS @h JS KS LS MS NS OS PS QS RS SS TS US VS WS XS YS ZS `S  T .T 1M FI +T @T #T $T %T .N &T *T =T -T ;T >T ,T 'T )T !T ~T {T ]T ^T /T (T _T :T <T [T }T |T 1T 2T 3T 4T 5T 6T 7T 8T 9T 0T aT bT cT dT eT fT gT hT iT jT kT lT mT nT oT pT qT rT sT tT uT p] df *} vT Xt wT u; '* &. P% Ej xT yT zT AT BT *2 r/ T1 5! 5!  ~ n' bj CT DT NC ET .4 `3 o' uL ;= C, O+ z* 8& FT O' GT o' o' )4 X^ s6 w0 HT IT &; JT c' KT LT MT NT BT T^ ]i OT PT QT db ,[ ,[ RT ST TT UT VT WT 1u XT YT ZT rT `T  U .U +U @U #U $U %U &U *U =1 ;J m7 M[ =U -U ;U >U ,U 'U )U !U ~U {U ]U ^U /U (U _U :U <U [U }U |U 1U 2U 3U 4U 5U 6U 7U 8U 9U 0U aU bU cU dU eU fU gU hU iU YQ WK `M 1M jU kU lU mU nU oU pU qU rU LM sU tU uU vU wU xU yU zU AU BU CU DU EU FU GU HU IU JU KU ",
"LU MU NU OU PU QU RU SU TU UU VU dm WU XU YU ZU `U  V .V +V @V #V $V %V &V *V =V -V |M FI  N ;V 2M &T >V ,V 'V ,T )V !V ~V {V ]V ^V /V (V _V :V <V [V }V |V 1V 2V 3V 4V 5V 6V 7V 8V 9V 0V aV bV cV dV eV fV gV hV iV jV kV lV mV nV oV pV qV rV sV tV uV vV wV xV yV zV AV BV CV !g *< K2 DV EV 2^ U3 U3 FV GV HV IV JV KV LV TT [/ MV NV OV PV N3 QV N{ RV ]|  4 `3 g{ W+ SV TV #: T# UV M5 V+ X' ,% `3  4 VV (% ^c WV XV YV ZV `V  W MT .W +W !2 @W #W 0r $W %W -2 Q% FT &W *W =W -W u> ;W WU >W ,W 'W )W !W ~W {W ]W ^W /W (W _W :W <W [W }W d6 |W 1W 2W 3W 4W 5W 6W 7W 8W 9W 0W aW bW cW 5V dW eW fW gW hW iW jW kW lW mW nW oW pW qW rW rW rW sW tW *I uW vW wW xW gU yW zW FI FI AW BW CW DW EW FW GW HW IW JW KW LW MW NW OW PW Gr QW RW SW TW UW VW WW XW YW ZW `W  X ",
"uo .X +X @X #X $X %X &X *X lf =X vj -X ;X >X ,X 'X )X !X ~X {X ]X ^X %x /X (X _X :X <X [X }X |X |X 1X 2X 3X 4X 5X 6X 7X 8X 9X 0X aX bX cX dX eX fX gX hX iX jX kX lX 3T mX nX oX pX qX aD rX sX BE tX uX vX wX xX yX zX AX BX CX DX EX FX GX HX IX JX KX LX MX NX OX PX QX RX SX TX UX VX WX zf XX U& U& YX ZX `X o^  Y .Y #l 8[ +Y @Y 3[ #Y $Y $Y b> %Y &Y @/ CP  @ vN *Y =Y ^H bJ -Y k@ ;Y >Y ,Y  D ]| 'Y E~ )Y 1~ b> !Y 5! ~Y {Y ]Y ^Y &2 /Y (Y _Y ~} :Y <Y [Y vJ U& ]' cj }Y 9A |Y 1Y 2Y 3Y 4Y 5Y 6Y 7Y 8Y 9Y 0Y aY bY cY dY eY fY gY hY iY YL jY kY lY mY nY oY pY qY sE rY aV sY tY uY vY wY xY 4V yY zY AY BY CY DY EY FY GY HY IY 0X rW JY KY LY MY NY OY cU dU dU PY 6O DI QY RY SY TY UY VY WY XY YY ZY `Y  Z .Z +Z @Z #Z $Z %Z &Z *Z =Z -Z ;Z >Z ,Z 'Z )Z !Z ~Z {Z ",
"hj ]Z ^Z /Z (Z _Z :Z <Z ^Z [Z }Z |Z 1Z 2Z 3Z 4Z 5Z 6Z 7Z 8Z 9Z 0Z aZ bZ cZ dZ eZ fZ gZ hZ iZ jZ kZ lZ mZ nZ oZ pZ qZ rZ sZ tZ uZ vZ wZ xZ yZ zZ AZ BZ CZ DZ EZ FZ GZ HZ IZ aW JZ qX KZ LZ MZ JG BE NZ OZ  K PZ QZ RZ SZ TZ UZ VZ WZ XZ YZ ZZ `Z  ` .` aN +` @` ^D #` $` %` &` *` =` -` ;` >` 3l ,` %% 6{ '` Jo )` !` ~` {` 4< ]` ^` /` (` 7k _` z{ :` <` r{ )2 [` vA iJ ~| }` ^H v) |` B$ 1` 2` -| ]| x/ T) 3` 4` 5` 6` ]] z{ 7` 8` 9` 0` KT W( $Y a` 1g #_ b` Gf c` R+ d` e` f` g` h` v> i` j` k` l` m` @` n` o` p` q` r` s` t` u` v` w` x` y` z` A` B` C` D` E` F` G` H` I` MZ J` aV 0V JZ uY 8V wY xY K` L` M` N` O` P` Q` R` S` T` U` V` 9X W` X` Y` Z` ``   .. .+ .@ .# .$ .% .& .* .= .- .; .> ., .' .) .! .~ .{ .] .^ ./ .( ._ .: .< .[ .} .| .1 .2 .3 .4 .5 .6 .7 .8 .",
"9 .0 .a .b .c .d .e .f .g .h .i .j .k .l .m .n .o .p .q .r .s .t .u .v .w .x .y .z .A .B .C .D .E .F .G .H .I .J .K .L .M .N .O .P .Q .R .S .T .U .V .W .X .Y .Z .` .]U IZ uY  ..0V ...rX +..@..AH #..$..%..&..*..=..-..;..>..,..'..)..!..~..{..]..^../..(.._..:..<..[..}..|..da Vj 1..2..3..4..f& 5..f& 6..7( (1 7..8..9..N( 9J Gi ha 0..a..b..c..d..e..f..g..!$ m' Y' }& V_ h..v) ^H 3' o& <H i..j..QC fJ ($ N{ k..+] l..m..n../n W| o..p..^0 {2 q..+u r..s..t..[  5# 5# b9 u..v..O4 /5 w..x..y..z..3J A..B..C..D..E..F..G..H..I..J..K..L..M..N..O..P..Q..R..S..T..ZJ U..V..W..X..aV qX Y..uY 8V wY Z..`.. +..+.++.@+.#+.$+.%+.&+.*+.=+.-+.;+.>+.,+.'+.)+.!+.!+.~+.{+.]+.^+./+.(+._+.:+.<+.[+.}+.|+.1+.2+.3+.4+.5+.6+.7+.8+.9+.0+.a+.b+.c+.d+.e+.f+.g+.h+.i+.j+.k+.^l l+.m+.",
"n+.o+.p+.q+.r+.s+.t+.u+.v+.w+.x+.y+.z+.A+.B+.C+.D+.E+.F+.G+.H+.I+.J+.K+.L+.M+.N+.^s O+.P+.Q+.R+.S+.T+.U+.V+.W+.X+.Y+.Z+.`+. @..@.+@.@@.#@.$@.%@.&@.*@.=@.-@.;@.>@.,@.'@.)@.{U !@.~@.{@.]@.^@./@.FG (@._@.:@.<@.[@.}@.|@.1@.2@.3@.4@.5@.6@.7@.8@.9@.0@.a@.b@.c@.d@.e@.f@.g@.h@.i@.&a j@.Uj {n c` G+ k@.l@ l@.m@.n@.o@.p@.,g q@.j' r@.s@.FP a..t@.2~ u@.v@.w@.x@.y@.z@.'' dJ A@.^H e{ uL V& ;Y ^H jJ H' -' _* [] G~ B@.C@.D@.EP a..FP P( E@.F@.x~ G@.H@.OT I@.;e J@.t& k@.G+ x^ K@.L@.M@.Qj N@.O@.P@.Q@.R@.S@.T@.U@.a@.V@.W@.X@.Y@.Z@.`@. #..#.+#.@#.##.$#.%#.&#.*#.=#.-#.;#.>#.sE ,#.GX '#.)#.uY !#.~#.7@.{#.]#.^#./#.(#._#.:#.<#.[#.}#.|#.1#.2#.3#.4#.5#.6#.7#.8#.9#.0#.a#.b#.c#.d#.d#.e#.f#.g#.h#.i#.j#.k#.l#.m#.n#.o#.p#.q#.r#.s#.t#.u#.v#.w#.x#.y#.z#.A#.B#.C#.D#.E#.F#.G#.",
"H#.I#.J#.K#.L#.M#.N#.O#.P#.Q#.R#.S#.T#.z+.U#.V#.W#.X#.Y#.wM Z#.`#. $..$.+$.@$.#$.$$.%$.&$.*$.=$.-$.;$.>$.,$.'$.)$.!$.~$.{$.]$.^$./$.($._$.:$.<$.[$.}$.|$.1$.2$.3$.4$.5$.6$.7$.8$.9$.0$.a$.b$.c$.d$.e$.f$.g$.h$.i$.j$.k$.H+.#O l$.m$.n$.o$.p$.q$.r$.cr s$.t$.u$.v$.w$.Nb x$.y$.z$.K: A$.j> B$.T= *$ C$.l@ D$.E$.F$.G$.G$.'6 4] H$.Z[ I$.z> J$.K$.L$.u@.M$.N$.O$.{$ d  ,' v) 1- uL P$.=@ 5a <8 Q$.|` Y' <$ `+ R$.S$.T$.U$.^4 S: LR .3 V$.W$.=' X$.$d vT Y$.Z$.`$. %.c= 2% *$ x& .%.+%.1Y @%.#%.u| $%.%%.&%.*%.#i =%.s$.-%.;%.>%.,%.'%.)%.!%.~%.{%.]%.^%./%.(%._%.:%.<%.[%.w+.}%.|%.1%.2%.3%.4%.5%.6%.7%.8%.9%.0%.a%.b%.c%.d%.e%.f%.g%.h%.i%.j%.k%.l%.m%.n%.o%.p%.q%.r%.s%.t%.u%.v%.w%.x%.y%.z%.A%.B%.C%.D%.E%.F%.G%.H%.I%.J%.K%.L%.M%.N%.O%.P%.Q%.R%.S%.T%.U%.V%.W%.J#.X%.Y%.Z%.",
"`%.7n  &..&.+&.@&.#&.$&.%&.&&.*&.=&.,U 'A -&.;&.>&.,&.'&.)&.!&.~&.{&.]&.^&.80 /&.(&._&.:&.<&.[&.}&.|&.1&.2&.3&.4&.5&.6&.7&.8&.9&.0&.a&.b&.c&.d&.e&.f&.g&.h&.i&.j&.k&.l&.m&.n&.o&.p&.q&.r&.s&.t&.u&.v&.w&.x&.y&.z&.A&.$B B&.C&.D&.E&.F&.G&.H&.I&.J&.K&.L&.M&.N&.O&.P&.Q&.Td ~d f` @%.m> R&.S&.k{ G$ *$ z& T&.U&.V&.W&.X&.Y&.;1 #~ Z&.`&. *.y( 0J .*.^4 }2 r{ +*.X{ 33 Z5 Z5 #@ xA +; 7< T& <8 @*.#: :{ #*.+6 }# w@.$*.%*.6] |) P5 D^ s{ pl P5 P5 &*.**.W2 =*.-*.;*.A! >*.*$ x& A[ ,*.UA '*.>` )*.!*.~*.{*.]*.^*./*.(*._*.:*.<*.[*.}*.|*.1*.2*.3*.4*.5*.6*.7*.8*.9*.0*.a*.b*.c*.d*.e*.f*.g*.h*.i*.j*.k*.l*.m*.n*.o*.p*.q*.r*.s*.t*.u*.v*.w*.x*.y*.z*.v*.A*.B*.C*.D*.E*.F*.G*.H*.I*.J*.K*.L*.M*.N*.O*.P*.Q*.R*.S*.T*.U*.V*.W*.X*.Y*.Z*.`*. =.e ..=.+=.@=.#=.$=.%=.&=.*=.==.-=.;=.",
">=.,=.'=.)=.!=.~=.{=.]=.^=./=.(=._=.:=.<=.[=.}=.|=.1=.2=.3=.4=.5=.6=.7=.8=.D_ 9=.0=.a=.b=.c=.d=.e=.f=.g=.h=.i=.j=.k=.l=.m=.n=.o=.p=.q=.r=.s=.t=.u=.v=.w=.x=.y=.z=.A=.B=.C=.D=.E=.F=.G=.H=.I=.J=.K=.L=.M=.N=.O=.P=.Q=.R=.S=.T=.[f =d -- U=.V=.W=.X=.Y=.Z=.`=. -..-.+-.@-.#-.$-.%-.&-.*-.=-.g] D! /, G$ *$ [  --.;-.>-.,-.'-.)-.!-.4, G3 ~-.{-.]-.3c (7 *H ^-./-.(-._-.t] A_ L5 L; N< :-.x- <-.[-.}-.B, [-.gJ |-.1-.2-.<! 3-.[| 4-.5-.6-.7-.B1 8-.9-.Bl 0-.a-.b-.c-.w& d-.e&  6 /g e-.f-.!d pN 1Y g-.h-.i-.j-.k-.cR l-.m-.n-.o-.p-.q-.r-.s-.:f t-.u-.v-.w-.x-.y-.z-.A-.B-.C-.D-.E-.F-.G-.H-.I-.J-.K-.L-.M-.N-.O-.P-.Q-.R-.S-.T-.U-.V-.W-.87 X-.Y-.Z-.`-. ;..;.+;.@;.#;.$;.%;.&;.*;.=;.-;.;;.>;.v8 E| P< {x ,;.';.);.!;.~;.{;.];.^;./;.(;._;.:;.%v <;.[;.};.|;.1;.2;.3;.4;.5;.6;.",
"7;.8;.xy 9;.0;.a;.b;.c;.d;.e;.f;.g;.y5 h;.i;.j;.k;.l;.m;.n;.o;.p;.q;.5*.r;.s;.t;.2&.u;.v;.w;.x;.y;.z;.A;.B;.C;.D;.E;.F;.G;.H;.I;.J;._- kq K;.L;.M;.N;.O;.P;.Q;.P;.R;.S;.T;.U;.V;.W;.X;.Y;.Z;.`;. >..>.w( +>.@>.#>.$>.%>.&>.*>.=>.->.J; No E5 ;>.>>.,>.'>.)>.!>.~>.{>.]>.J{ ^>./>.j| (>.W;._>.v! de :>.&$ <>.[>.}>.Cd j( |>.1>.2>.s .3>.4>.5>.6>.7>.8>.9>.0>.a>.t9 A, u6 l9 [   & g; ce K, [>.l9 y; __ (4 b>.s;.c>.d>.e>.f>.g>.h>.yy 6| i>.j>.k>.l>.m>.n>.w8 C( <- (= :>._= v! o>.p>.q>.}k />.^>.@_ r>.}..s>.t>.u>.v>.w>.x>.y>.z>.n_ A>.t; }: 5*.B>.C>.S=.D>.s .R=.om E>.F>.G>.H>.I>.J>.K>.L>.M>.N>.O>.P>.Q>.R>.S>.T>.U>.V>.W>.X>.Y>.Z>.J| `>. ,..,.+,.@,.#,.$,.%,.&,.*,.=,.-,.;,.>,.,,.',.),.v8 !,.W;.~,.Ly CM {,.],.^,./,.(,._,.:,.<,.[,.},.|,.1,.2,.3,.4,.5,.6,.7,.Qy 8,.9,.",
"0,.a,.SS b,.c,.d,.e,.7,.f,.g,.%Q h,.i,.j,.k,.l,.m,.n,.o,.p,.q,.r,.s,.t,.u,.v,.w,.x,.Q=.y,.z,.A,.B,.C,.D,.E,.F,.G,.H,.I,.J,.K,.l7 L,.k7 M,.N,.O,.P,.Q,.R,.S,.T,.U,.:P V,.W,.X,.Y,.Z,.`,. '..'.+'.@'.#'.$'.%'.&'.*'.='.-'.;'.>'.,'.HE t; gd ''.)'.!'.m7 ~'.Mc x[ {'.]'.^'./'.('._'.:'.<'.['.g* e& }'.|'.:>.e= S- #- *$ +% Q{ fp +& 1'._: fp ^@ k{ 2'.3'.-= 4'.5'.7= R% M= x= @% 6'. = += 9$ N= 9$ f- 7- l= 7'.j- 8'.9'.0'.x2 a'.ny b'.S+ h= c'.d'.e'.8& (w f'.0  Z# |'.:>.de (= vJ g'.h'.~i i'.le j'.k'.l'.fj m'.n'.o'.p'.q'.ea r'.}: -h s'.t'.>'.u'.v'.w'.x'.y'.z'.A'.)y ;-.B>.B'.C'.D'.E'.F'.G'.H'.I'.H'.J'.K'.L'.M'.N'.O'.P'.Q'.R'.+w C~ +w S'.T'.U'.V'.W'.X'.Y'.Z'.`'. )..).+).@).#).$).%).&).A[ ~h *).=).-).;).>).,).').)).{q !).~).{).]).^)./).M+.().{q _).:).<).[).}).|).",
"1).2).vQ 3).4).5).6).7).8).Ib 9).0).a).b).c).d).e).f).g).h).i).j).k).l).m).Ul n).o).p).q).O0 H8 r).s).t).t).AX u).v).w).x).y).z).A).B).C).D).E).F).G).H).I).J).K).L).M).N).O).P).Q).R).S).T).U).V).W).X).Y).Z).`).U&. !..!.+!.q;.I8 @!.#!.$!.%!.&!.*!.=!.-!.;!.{m >!.a/ ,!.oM oM '!.)!.)!.!!.!!._8 s2 qP ty |5 p_ b< K5 2_ C, ~!.{!.#,  = ]!. = n@  = L= d= ^!.u7 *- 7> r* kd c= Y* Q{  & b% p* U& a& /!.(!.d& T- n@ y= #= 2; K, y= ,> 9= B$ B$ >+ P- !, B, A_ c/ M5 ]~ s9 _!.[  f[ :!.<!.bg a0 o>.[!.E8 :u E7 ty ty (8 |/ }!.R'.|!.h[ 9z q;.+!.C'.1!.2!.3!.4!.5!.6!.7!.8!.9!.0!.a!.b!.c!.d!.e!.f!.g!.h!.i!.j!.k!.l!.m!.n!.o!.p!.q!.r!.s!.t!.u!.v!.w!.(s x!.y!.z!.A!.B!.C!.r).D!.E!.F!.G!.H!.L6 I!.J!.K!.L!.M!.N!.O!.P!.Q!.R!.S!.T!.U!.V!.W!.X!.Y!.Z!.`!. ~..~.+~.=i @~.#~.$~.",
"%~.&~.*~.=~.-~.-~.;~.$M 6u dq >~.,~.'~.)~.!~.~~.{~.]~.^~./~.(~._~.:~.<~.[~.pY }~.|~.1~.2~.3~.4~. B =8 5~.w( 6~.7~.8~.9~.0~.H#.a~.b~.c~.d~.e~.f~.g~.h~.i~.j~.k~.l~.m~.n~.o~.p~.q~.r~.s~.t~.)U ;&.u~.v~.w~.x~.y~.z~.A~.T=.B~.C~.C~.;8 D~.E~.F~.G~.H~.I~.J~.K~.L~.M~.N~.O~.Pl ~5  e P~.Q~.S).R~.S~.T~.*j U~.V~.W~.X~.Y~.Z~.`~. {..{.f[ [- u! x= := (' G+ 2^ +{.@{.#{.y~ t, $) /$ ;# p! UC #: m) V+ ${.%{.^) +/ n_ &{.i! a; := R= 6'.ce K= S- 3r *{.;b ={.-{.;{.>{.d4 ,{.'{.){.!{.z).~{.{{.]{.^{.^{./{.({._{.:{.<{.[{.}{.|{.1{.2{.3{.4{.5{.6{.j7 ='.7{.D'.8{.9{.0{.z#.Ea a{.b{.c{.d{.e{.f{.g{.h{.i{.j{.k{.l{.m{.n{.o{.p{.q{.r{.V0 s{.t{.u{.v{.w{.OO KO x{.y{.i7 C~.z{.x'.A{.B{.D!.C{.D{.E{.F{.G{.H{.I{.J{.K{.L{.M{.N{.O{.P{.Q{.R{.S{.T{.U{.,~.V{.W{.X{.Y{.Z{.`{. ].KU .].+].@].#].",
"$].9/ %].&].*].3).=].-].;].>].,].'].)].!].~].{].Eb ]].^].3R /].(]._].:].<].[].}].|].1].2].,k 3].4].{h )y 7P l[ v).5].6].7].8].9].0].a].b].c].d].W0 e].f].g].h].i].j].k].l].m].n].o].p].q].r].<~.s].t].u].v].(@.w].x].S=.y].B~.B~.z].A].B].C].D].E].F].G].H].I].J].K].L].M].Ne N].O].P].Q].`d R].S].T].U].Fo V].W].X].Y].Z].`]. ^.6- N$ )@ := .^.+^.2r U- @^.#^.T} $^.%^.&^._# pL  D `3 *^.^# _# =^.-^. ! ;^.>^.,^.h= (' A& /, w= e& C  ee X{ K( '^.jH Cg )^.m/ !^.fz ~^.{^.]^.^^./^.(^.&]._^.:^.<^.[^.}^.|^.1^.2^.3^.4^.5^.6^.7^.8^.9^.0^.MJ 6~.z{.uH a^.b^.c^.d^.e^.f^.g^.h^.i^.j^.k^.l^.m^.n^.o^.p^.q^.r^.s^.t^.x~.u^.v^.w^.x^.y^.z^.A^.B^.C^.D^.E^.F^.G^.C~.H^.)y k7 I^.J^.K^.L^.M^.N^.O^.P^.Q^.R^.S^.T^.U^.V^.W^.X^.Y^.Z^.`^. /../.+/.@/.Ob #/.y| $/. ]. i c2 %/.4Z &/.*/.",
"Vv =/.-/.;/.>/.,/.'/.)/.!/.~/.'/.{/.]/.^/.//.(/._/.:/.HQ </.[/.}/.|/.1/.2/.3/.4/.5/.6/.6F 7/.8/.9/.0/.a/. B B{.@f b/.c/.d/.e/.f/.g/.h/.i/.j/.k/.l/.m/.n/.o/.p/.q/.r/.s/.t/.u/.v/.w/.x/.y/.z/.A/.B/.1^.C/.D/.E/.F/.G/.H/.A{.I/.0z J/.K/.L/.M/.N/.O/.P/.Q/.ew R/.S/.T/.U/.V/.A$.W/.X/.Y/.Sk jH |r Z/.`/. (.]} 8j .(.2$ +(.@(.]] #(.@* $(.d@ <>.%(.!$ &(.*(.#{.[} =(.-(.;(.>(.,(.'(.)4 CR e! e! BN )(.;(.!(.~(.{(.](.2l tK ^(./(.((.W& 0{ >[ N1 () _(.:(.he Ch #^.<(.|1 7, oR L: X/.[(.}(.|(.tg Tj 1(.2(.3(.4(.5(.6(.7(.8(.9(.0(.a(.b(.c(.d(.R'.y'.e(.f(.g(.h(.i(.j(.A#.k(.l(.m(.n(.X%.o(.p(.q(.r(.s(.t(.u(.v(.w(.x(.y(.z(.A(.B(.C(.D(.E(.F(.G(.H(.I(.J(.K(.u).[8 r0 G5 L(.M(.N(.O(.P(.Q(.R(.S(.T(.U(.V(.W(.<=.pt X(.Y(.Z(.`(. _.jj ._.+_.3f @_.#_.$_.%_.&_.*_.=_.-_.EJ :d mc ;_.",
">_.&-.,_.lH '_.)_.!_.m+.~_.~_.`f {_.]_.^_./_.(_.__.:_.+g <_.[_.}_.1n |_.1_.2_.3_.4_.5_.6_.7_.8_.9_.0_.a_.[0 =8 b_.c_.d_.e_.f_.g_.h_.i_.j_.k_.w(.l_.%&.GO %&.%&.o/.m_.n_.o_.p_.q_.;%.)].r_.a].s_.t_.p/./].u_.v_.w_.x_.S;.y_.tH z_.A_.B_.C_.D_.E_.F_.G_.H_.I_.^1 ;} 0A J_.K_.o> 8, L_.jH M_.NL N_.O_.P_.r/ E1 Q_.R_.8j u, Q5 ]c S_.U' X# 1{ l@ T_.U_.8[ V_.W_.X_.Y_.Z_.>(.n! ,(.i  `_.sr  :..:.BN +:.>(.@:.#:.$:.%:.&:.b! {Y ]& 9= ,^ %^ +* *:.=:.7] u, Ya -:.R_.wC ;:.P2 >:.L: v..,:.':.8-.7, hl ):.8' !:.V4 (b ~:.{:.]:.^:./:.(:._:.::.<:.[:.UG }:.|:.1:.2:.3:.4:.5:.6:.7:.8:.9:.0:.`!.a:.b:.c:.d:.e:.f:.g:.&&.h:.i:.j:.k:.l:.CO m:.n:.o:.p:.q:.r:.s:.t:.u:.A^ l7 r).v:.w:.x:.y:.z:.A:.up B:.C:.JS D:.E:.F:.G:.@Z .o H:.9).I:.J:.K:.L:.Od M:.N:.O:.m+.*_.)_.4(.P:.Gr P} u| Q:.",
"R:.S:.T:.st :k U:.V:.)_.8 .W:.^*.X:.Y:.$_.M:.y/.Z:.vQ `:. <..<.+<.N].@<.< .#<.$<.%<.&<.*<.=<.-<.;<.><.]> &8 bz bF ,<.'<.)<.!<.~<.f_.{<.]<.^<./<.(<._<.:<.:<.:<.<<.[<.}<.f:.|<.1<.2<.m/.y(.j/.3<.4<.5<.6<.7<.8<.5Z 9<.0<.a<.b<.c<.d<.e<.f<.g<.h<.i<.j<.k<..E l<.{J m<.n<.o<.p<.Cg q<.r<.ik s> s<.t<.Vr '< u<.Q_.Q_.v<._` c' _) w<.x<.}% x& W* =3 y<.z<.0~ z) A<.B<.C<.D<.E<.+:.F<.G<.H<.I<.J<.K<.E<.E<.L<.M<.N<.z) O<.P<.Q<.oL U+ <- u6 s; S_.R<.9' 9j v<.Q_.Q_.S<.[/ T<.3k s<.U<.U<.V<.r<.o<.8' v..M_.W<.df X<.Y<.e4 Z<.`<. [..[.+[.@[.#[.$[.%[.^A 8z &[.*[.=[.>U -[.FO ;[.>[.,[.'[.)[.![.~[.c:.{[.][.^[.h:.o/.h:.h:.i:./[.([._[.:[.<[.[[.}[.|[.1[.2[.3[.4[.h6 -8 ;y 5[.6[.7[.8[.9[.FJ 0[.a[.b[.c[.0f N].4Z .<.r| d[.e[.f[.g[.}[.{k h[.i[.0h j[.m+.k[.l[.m[.n[.o[.p[.q[.r[.s[.",
"t[.9) u[.v[.w[.IO x[.y[.z[.A[.B[.*/.'/.M:.C[.D[.X!./ .+Z E[.@<.2b F[.r| G[.G[.H[.I[.J[.K[.L[.M[.N[.6| .B ;J 1D O[.P[.Q[.R[.S[.Kd T[.U[.V[.W[.X[.Y[.Z[.Z[.`[. }..}.+}.+}.@}.Z[.Z[.#}.$}.%}.&}.*}.7m YD T[.=}.-}.;}.2N >}.Si ,}.'}.)}.!}.~}.{}.<^.Yr Ii ]}.^}./}.Vg (}._}.:}.q<.*< 0i q<.<}.*< W| [}.}}.|}.`$.1}.Z].2}.T1 Z, 3}.z~ ;h 4}.u9 5}.I5 6}.7}.8}.9}.Bm 0}.%' ,( a}.b}.c}.d}.e}.f}.g}.h}.i}.j}.k}.l}.N<.L{ m}.n}.sN @6 U% 4% |- ;h o}.p}. ~ <u q}.D0 Xi !F r}.s}.[}.t}.m<.Cg u}.v}.*< w}.x}.y}.z}.Wv /}.A}.B}.Bo C}.m[.D}.E}.F}.G}.H}.I}.J}.K}.L}.M}.N}.O}.P}.Q}.R}.S}.T}.U}.V}.W}.X}.Y}.Z}.Z}.`}.Z}.Z[.Y}.Z}.Y}.Y}. |.e^..|.+|.@|.#|.$|.%|.&|.*|.=|.^A -|.}= -..;|.>|.,|.yp '|.)|.!|.~|.r| {|.@<.|_.9f 9f ]|.^|./|.Y!.J:.(|. i V:.<b ~5 #~._|.:|.E:.<|.[|.}|.||.64 1|.",
"2|.5*.3|.4|.u..5|.6|.20 }= 7|.8|.8|.9|.0|.a|.b|.c|.d|.e|.f|.g|.h|.i|.j|.k|.l|.m|.n|.o|.p|.q|.r|.s|.+w $8 t|.6{.u|.v|.w|.x|.y|.<Z z|.A|.B|.C|.D|.E|.F|.G|.H|.I|.Z[.Y}.Z[.Z[.Z[.`[. }.J|.K|.L|.M|.$|.N|.O|.P|.Q|.R|.S|.6b T|.U|.V|.W|.X|.Y|.Z|.!/.`|.^ . 1.NS .1.+1.@1.#1.o] $1.%1.&1.*/ *1.(g =1.-1.}r v..;1.>1.xt @~ 1) %{ z~ ,1.<5 tK '1.)1.!1..D ~1.{1.d^ ]1.^1./1.(1._1.:1.<1.[1.}1.|1.11.21.31.41.51.61.71.d^ 81.91.01.m_ c% a1.@!.:5 [| b1.L( _(.r/ c1.d1.;1.e1.jH f1.g1.!_ h1.j/ i1.j1.(! gh Pl k1.@1.l1.m1.n1.o1.p1.q1.Aa r1.s1.t1.u1.J}.v1.w1.x1.y1.cq P|.z1.A1.B1.C1.D1.2 .E1.F1.`[.Z[.Z[.@}..}.@}. }.G1.I|.H1.K|.c].I1.y#.&}.J1.K1.L1.M1.N1.O1.P1.Q1.R1.S1.=!.T1.U1.V1.vX W1.X1.Y1.Z1.`1. 2..2.+2.@2.Y~.Rs #2.`(.$2.%2.&2.*2.=2.-2.;2.>2.,2.'2.)2.!2.~2.{2.]2.^2./2.",
"(2.(2._2.q, 9w :2.r).<2.-h ->.[2.[2.}2.;d :~ fo |2.12.22.32.42.'x r).52.62.72.82.92.02.a2.b2.c2.Q[ d2.s;.e2.f2.g2.h2.i2.j2.k2.l2.#J m2.%s n2.o2.p2.q2.r2.s2.r2.t2.u2.v2.w2.x2.y2.y2.z2.A2.v2.B2.C2.D2.E2.F2.G2.H2.I2.V{ c_ J2.'!.K2.(8 L2.^3 M2.N2.O2.P2.Q2.R2.S2.T2.g| U2.V2.W2.-l X2.TT ]J Y2.Z2.n<.`2.%{ b1.b1.S^ x: S_.^> p_ :f U{  3.v= 91 K/ .3.+3.@3.#3.$3.%3.&3.*3.=3.-3.;3.>3.;3.,3.'3.)3.!3.~3.{3.ki ]3.^3./3.(3._3.c& :3.<3.[3. B }3.@{.|3.13.i' =:.23.33.,:.43.53.63.F} G( 73.83.93.03.a3.b3.c3.Z2.d3.e3.f3.g3.h3.i3.';.j3.k3.a0 l3.m3.n3.f< o3.p3.q3.E2.r3.5<.B2.s3.t3.s3.u3.u3.u3.u3.u3.v3.w3.x3.y3.z3.A3.B3.C3.|^.D3.E3.O%.F3.G3.H3.I3.J3.K3.o5 L3.M3.d2.b< N3.O3.P3.Q3.R3.S3.T3.U3.V3.W3.X3.Y3.Z3.`3. 4..4.+4.@4.%).t|.#4.t|.[3.[!.__ $4.%4.&4.*4.=4.A^ [0 -4.",
";4.x; w; i) j9 fL >4.q9 ,4.'4.)4.)4.!4.]: ~4.u] w: c'.gp }: {4.T|./g [3.bz 6{.-|.]4.^4.N3.b7 /4.(4.b< p_ _4.:4.<4.[4.}4.|4.14.24.34.>%.44.54.64.74.AM 84.84.94.04.a4.b4.c4.y3 z| va d4.'=.(9 e4.f4.g4.h4.i4.1x j4.k4.A_ l4.m4.n4.t; w^ o4.k^ v6 (7 >= a5 p4.q4.r4.dd s4.t4.Vx u4.h8 Lv O6 ~2.v4.w4.x4.R} y4.M' %# Y- v_ z4.t9 A4.B4.:3.%$ s= u7 C4.D4.E4.F4.G4.H4.I4.J4.K4.L4.M4.N4.O4.tL P4.Q4.R4.S4.T4.U4.V4.W4.X4.Y4.Z4.`4.m@ d9  5.K[ .5.9* +5.@5.H+ 2' E7 #5.$5.%5.&5.*5.=5.-5.;5.>5.,5.'5.=/.)5.!5.~5.{5.]5.^5./5.(5.]6 :5 c2._5.:5.<5.[5.[5.)4.O0 }5.|5.15.25.35.P|.45.55.55.65.75.85.95.vc uc 05.a5.b5.c5.d5.e5.f5.g5.h5.i5.j5.k5.l5.m5.n5.o5.p5.q5.r5.s5.n>.b< D_ nA t5.u5.v5.w5.i6 i6 ;8 -8 IE IE x5.y5.z5.A5.V|.B5.C5.D5.!4.E5.n4.)4.M< ld 8y 8y fL RT F5.x; x; Tr ",
"G5.0,.H5.I5.wy 4x J5.K5.L5.M5.bb sf r, t] y_ S~ t] j( b_ `7 N5.co K2.O5.P5.co Q5.Q5.R5.z' S5.T5.U5.V5.W5.X5.Y5.Z5.`5. 6..6.+6.@6.#6.$6.%6.&6.Fv *6.=6.-6.;6.-6.>6.,6.,6.,6.'6.)6.!6.~6.{6.,5.]6.^6./6.(6._- ~4.t] ]: ~4.D5.u] y_ _6.:6.<6.oM [6.XX 7< [7 U' T3 q7 1{ #* v* |; '| i) :' K% z; }6.}e B! V& V& (w S' j= =F Q= P= {@ W7 |6.16.P=  & +> 26.36.46.56.66.56.76.86.96.E/ 06.a6.q, b6.c6.%[ jg d6.e6.f6.g6.h6.i6.j6.k6.s=  3.l6.l6.m6.n6.A@ =F o6.Tr r& P' )! pP p6.q6.S6 j( K; C: |: r6.(2.s6.F_ t6.u6.v6.$^ Z- co P5.o>.w6.[2.t; x6.&{.c/ ~4.3h c/ y6.r;.z6.l: A6.B6.C6.D6.D6.E6.E6.F6.G6.H6.I6.J6.K6.L6.L6.M6.N6.O6.P6.Q6.R6.S6.T6.U6.V6.W6.X6.Y6.Z6.`6. 7.q_ ,!.D_ 15 (2.t; .7.->.->.o>.N5.N5.O5.+7.`7 /g c_ @7.A_ y_ S~ r, r, w9 #7.$7..v .B %7.IE cz &7.y5.*7.=7.",
"~5.`d ~5 -7.T2.;7.>7.,7.W@.'7.)7.!7.ea ~7.{7.{7.]7.'4.j( b_ .7.m3.c< g] g#.^7./7.(7._7.:7.<7.[7.}7.|7.17.27.37.47.57.67.77.87.97./g 07.07..7.t; b_ a7.b_ o>.b7._2.m3.c7.3r Q5.u_ Q5.r6.r6.d7.e7.[> G- <7 ;& &% f7.I[ e7.|- |- e7.I[ .7.s* Z& g7.*$ v!  :  : &$ :>.|'._= h7.i7./= b% y@ C  6{ B= C= C= K= f- S% j7.k7.l7.m7.d} c5 n7.}>.o7.R% Z= `b ,+ p7.q7.r7.s7.t7.u7.v7.D& #w /= /= := Y* k) w7.x7.y7.z7.A7.B7.C7.D7.E7.F7.$- X* U- G7.H7.5> I7.J7.9g A- .^.e- K= C= >] C= @w A& ((.A@ f- /= f= f= := e& &$ v! >*.>*.>*.{~ =$ Q- b_ co Z7 K7.-h =h K; 7< {* L7.M7.N7.c5 m3.O7.P7.Q7.P7.R7.15 v1.v1.v1.v8 IE S7.T7.%7.[3.<0 bF ^A Jp ^A U7.V7. 6.W7.X7.Y7.Z7.`7. 8..8.+8.@8.#8.$8.%8.&8.4_ *8.@1 O5.Q5.Q5.co =8.K; A_ x_ l4.l4.~7._6.-8.;8.>8.,8.'8.F[.P].YU ,{.j0  [.)8.!8.",
":d ~8.{8.]8.^8./8.(8.Yg _8.:8.<8.[8.}8.r* >^ v* c5 |8.It 18.O,.JW 28.38.48.58.68.78.88.98.08.a8.b8.c8.d8.e8.f8.g8.h8.i8.j8.k8.z).l8.w6.A5.m8.n8.U|..B |/ o8.p8.q8.r8.s8.t8.u8.8L v8.w8.x8.y8.z8.A8.v..B9 B8.C8.D8.5: E8.F8.G8.D!.k^ k^ E8 H8.I8.H8.H8.J8.H8.K8.H8.i[ L8.M8.N8.v' M' '> vJ g* K= K$ f- _!.Dd O8.P8.Q8.R8.S8.T8.U8.V8.W8.X8.Y8.Z8.7; `8.|>  9..9.+9.@9.G) Dd i! 1^ X* ce C@ e- b% o, #9.$9.%9.&9.*9.3  7'.=9.oN -9.;9.>9.,9.4) '9.)9.!9./} ~9.{9.z, g= e- L= L= A! 7& h; t* ]9.]9.>4.>4.8y 8y 8y >4.u* G{ P- 5y ^9.O5 Z7 /9.I[ E8 E8 H8.Ed 2' ^-.(9._9.e: :9.<9.[9.}9.|9.19.29.39.49.59.69.79.89.99.K2.r6.T|.09.a9.=e b9.c9.d9.e9.f9.g9.h9.i9.j9.k9.l9.m9.n9.o9.p9.q9.r9.s9.t9.u9.v9.w9.=2.x9.|L y9.z9.[3.L5 q9 r9 (; A9.B9.C9.D9.E9.F9.G9./8.{:.H9.I9.Sg J9.K9.",
"Og L9.M9.N9.O9.P9.Q9.R9.S9.T9.U9.V9.W9.g7.P' go X9.Y9.Z9.`9. 0..0.NB NB +0.@0.3 .#0.$0.%0.&0.*0.=0.-0.;0.>0.,0.'0.)0.!0.~0.{0.]0.^0.,y :_ s0 /0.)y g#.(0._0.]N :0.<0.[0.}0.|0.10.20.30.40.d .50.60.70.80.90.00.'=.a0.b0.c0.d0.e0.f0.kz g0.h0.i0.j0.k0.l0.m0.n0.o0.G} p0.q0.C2 r0.s0.t0.>!..5.#- ]@  & G0 u0..u v0.w0.x0.y0.z0.O<.A0.B0.1j C0.C0.D0.E0.1' #k F0.Vt G0.;7 G0.~= ~! z* <8 %& `c M' p6 tL M' H0.I0.J0.<| ba K0.L0.M0.N0.O0.P0.Q) A( gH Q0.R0.S0.T0.E' U0.$- !; ce V0.y_ K5 W0.X0.Y0.Z0.`0. a..a.+a..a.@a.#a.@a.=5 $a.BM %a.&a.*a.=a.-a.;a.>a.,a.'a.)a.!a.~a.{a.]a.^a./a.Nd Nd Z{.+h (a._a.:a.<a.1x `6 [a.}a.C~.=8 L,.&8 cz |a.1a.2a.3a.4a.5a.6a.7a.8a.9a.0a.aa.ba.ca.k).da.ea.fa.ga.ha.{9 F2.8).ia.ja.ka.la.ma.}f $(.Y; na.oa.pa.qa.ra.sa.ta.ua.O9.va.wa.df xa.:Y ",
"tn ya.za.N9.Aa.Ba.Ca.Da.Ea.Fa.Ga.Ha.B^ a= 4% Ia.Ja.Ka.La.7 .Ma.Na.Oa.Pa.Qa.Ra.Sa.Ta.Ua.Va.Wa.Xa.Ya.Za.`a. b..b.+b.+b.@b.#b.$b.(a.%b.&b.(2.f5 E5 1= *b.=b.-b.;b.>b.,b.'b.)b.!b.~b.{b.]b.^b./b.oK (b._b.:b.<b..a [b.}b.|b.1b.2b.3b.4b.5b.6b.7b.8b.9b.0b.ab.bb.cb.WX 'n db.eb.fb.gb.79 cj >~ ^} .^.hb.{: ib.jb.kb.lb.mb.nb.ob.pb.qb.rb.sb.tb.ub.vb.wb.xb.yb.}4 KT ^c zb.Ab.H' ^H v) [H Bb.uL #: #: R> d  d  ]& Z].Cb.Db.Eb.Fb.Gb.Hb.Ib.Jb.Kb.Lb.H] K] Mb.Nb.Ob.Pb.Cl Qb.Rb.Sb.x' S~ r8 <! Tb.Ub.oR Vb.Wb.Xb.Fo Yb.6i Zb.`b. c..c.+c.@c.#c.$c.%c.&c.*c.=c.-c.;c.>c.,c.'c.)c.)c.!c.~c.40.{c.]c.^c./c.(c._c.:c.<c.[c.}c.|c.1c.2c.)y 3c.15 |: 4c.5c.6c.7c.8c.9c.0c.ac.bc.cc.dc.ec.fc.gc.hc.ic.jc.kc.lc.mc.nc.oc.pc.qc.rc.sc.tc.uc.vc.wc.j= _s xc.yc.zc.Ac.Bc.Cc.Dc.Aa.Ec.Fc.Gc.Hc.Ic.",
"Jc.Kc.^r Lc.Mc.Nc.Oc.Pc.Qc.Rc.Sc.n;.Tc.<i /@ Uc.Vc.Wc.Xc.Yc.Zc.`c. d.@` .d.+d.@d.#d.$d.%d.YT &d.*d.=d.-d.35.2I ;d.>d.,d.'d.)d.,r !d.~d.{d.]d.^d./d.(d._d.:d.<d.>i [d.}d.|d.1d.2d.3d.s[.4d.5d.6d.7d.7d.8d.9d.0d.%a ad.&a bd.K9.cd.52 [2 dd.>c ed.fd.=W ]/ S8.gd.s<.hd.id.jd.a, kd.{c ld.md.nd.K= /= od.&a pd.qd.rd.^3.sd.Pk td.ud.vd.wd.xd.yd.zd.Ad.Bd.Cd.G^ DN 1# yN V_ Dd.sL #: uL ^H '# QC h../H e! *^.VV Ed.0! () I] Fd.Gd.Hd.Id.Jd.Kd.Ld.Md.Nd.Od.Pd.Qd.Rd.Sd.Td.Ud./= Q= f9 w9 Vd.Wd.e| o^ .H 59 Xd.Yd.W&.Zd.G3 `d.4, dd. e..e.+e.k0.@e.#e.$e.*-.VA %e.9d.me j'.&e.&e.#5 *e.=e.EQ -e.;e.>e.,e.'e.)e.!e.~e.@~.{e.]e.^e./e.(e.Z5._e.:e.<e.[e.}e.|e.1e.)v 2e.He )r 3e.4e.5e.6e.7e.8e.Ra.9e.0e.ae.#s be.ce.de.ee.fe.ge.he.ie.j9 l= D_ q2 je.ke.le.me.ne.oe.Aa.Zr pe.qe.re.se.",
"te.ue.^r ve.we.xe.ye.ze.Ae.Be.Ce.De.Ee.Fe.R! Ge.He.Ie.Je.Ke.Le.Me.Ne.Oe.@` Pe.Qe.Re.Se.Te.Ue.=i Ve.Ve.We.Xe.Xe.Qb Ye.Ze.`e. f..f.+f.@f.#f.$f.%f.&f.*f.=f.-f.;f.>f.,f.'f.)f.'G ~d %-.%a %a !f.9A ^1 ~f.{f.]f.z}.53.3g K_.K_.cl ^f./f.(f._f.=W Vi UT :f.<f.[f.}f.|f.1f.<f.;e 2f.3f._) A2 +{.m4.T- k{ 83 4f.5f.6f.7f.8f.9f.0f.af.bf.cf.df.k}.ef.ff.6~ .D gf.:( T{ p! hf.s9 if.eJ sL h..V_ o' -| jf.kf.lf.mf.nf.xL )Y of.pf.M( qf.rf.sf.tf.uf.vf.bi wf.xf.yf.zf.Af.Bf.Og Cf.-= K$ !> 9* c5 `! B^ Df.DV gd.q<.|f.1f.m@.Gh Ef.gd.:< Ff.Gf.Hf.If.^f.Jf.Kf.Kf.Lf.Mf.hL hL ih Rg Nf.Rg !f.5d.Of.%a Pf.t3 Qf.Rf.Sf.ef )r Tf.R).Uf.Vf.Wf.Xf.Yf.Zf.`f.Me.-d.c2  g..g.+g. ~.ua w| @g.#g.$g.%g.&g.*g.=g.-g.;g.>g.Wf ,g.'g.)g.!g.~g.{g.]g.^g.[  /g.s9 w^ R3.(g._g.:g.op <g.[g.we.pe.}g.|g.tj ",
"1g.te.2g.El 3g.4g.5g.bf 6g.7g.8g.h_ >^ |c `% f} 9g.0g.ag.bg.cg.dg.eg.fg.gg.hg.ig.jg.kg.lg.mg.ng.og.pg.qg.rg.sg.w| Qb tg.`e.if  f.uT ug.vg.wg.xg.yg.kh vj */. <.i` Ig j@.zg.^f.NL Kf.Kf.Ag.Bg.!:.Cg.Dg.Dg.Dg.Eg.Fg.Gg.Hg.Hc.ik Ig.Jg.F: :2 Kg.S8.nP UT <f.Lg.f1.R8.[u c( k/ Mg.Ng.Og.id G{ Pg.M= b= Qg.Rg.Sg.Tg.Ug.Vg.Wg.Xg.Yg.Zg.`g. h.%{ .h.X) @' jn ,# .d 3: |3 +h.T& @h.g! #4 #h.$h.%h.=| &h.*h.v9 =h.-h.Bi /) V) ;h.C/ >h.,h.'h.)h.!h.~h.{h.]h.^h./h.(h._h.:h.jh <h.L< R- S' [h.a_ }h.|h.1h.2h.3h.4h.5h.v}.}f.6h.UT 42 Gh ,g Kg.7h.8h.BA ):.*a Hc.TR 9h.0h.ah.bh.TX ch.dh.eh.fh.gh.dl Pb.Tj Tj hh.Kf.s> XN  [.ih.Gr jh.kh.lh.mh.nh.oh.CU Sd ph.tg.qh.rh.sh.ya th.//.uh.vh.)9 wh.xh.yh.zh.Ah.Bh.Ch.Dh.Eh.Fh.Gh.Hh.Ih.Jh.go v9 |c d[ <> 36 Kh.Lh.Mh.Nh.Oh.Ph.Qh.Rh.ue.te.Sh.",
"&5.Th.Jt Uh.Vh.Wh.Xh.P} Yh.Zh.`h.#4.x^ b   i..i.m4.1J +i.@i.#i.$i.%i.&i.*i.=i.-i.nw ;i.;i.P9 >i.,i.Yv 'i.)i.,i.x3 !i.@2..Z ~i.{i.]i.^i./i.(i._i.:i.9L <i.[i.}i.XV |i.#1 e: 1i.2i.3i.4i.5i.6i.7i.8i.9i.6I 0i.ai.TR bi.rP ci.di.ei.eH '6 fi.gi.hi.ii.ji.ki.li.li.ym mi.o0 |i.ni. 8 l; oi.pi.a; g> qi.ri.si.ti.ui.vi.wi.z<.xi.yi.zi.Ai.c2.Bi.;& 06.Ci.*H G) O% )* l) UV Di.]9.Ei.BR ;| 2` Fi.2` Gi.Hi.7& 8  Ii.X7 I[ Ji.Ki.Li.D/ Mi.[_ !& Ni.Oi.Pi.Qi.Ri.Si.Ti.Ui.Vi.Wi.Xi.Yi.x- e# [! uJ >> 07.@d LC #} Zi.7k {2 `i.9i  j._f.=W 'g .j.$d +j.1} e1.@j.J_.TR Td.j` #j.$j.%j.&j.3g 8) sn *j.=j.-j.Zb R&.1f ;j.!9.>j.,j.'j.)j.!j.~j.{j.]j.^j./j.Y(.(j._j.:j.<j.[j.}j.|j.1j.2j.3j.4j.5j./9 4j.6j.7j.8j.9j.0j.aj.bj.cj.dj.ej.GE fj.y, g[  - R! Cd 46 P7 gj.#%.ad.i@.hj.ij.re.jj.kj.lj.",
"mj.s'.nj.oj.%7 pj.@7 g7 D( [).qj.rj.Y* [  b9 sj.tj.uj.*f N+ vj.a_ wj.xj.yj.zj.Aj.Bj.Cj.e, 7h.y9 Vh 7h.Dj.Ej.aa Fj.Gj.0w Hj.Ij.Jj.z[ I/ j; g] Kj.[3 k^ Lj.Mj.Nj.4: Nj.u[ Qi n_ H{ w6 w6 Oj.&e Pj.Qj.Qj.Rj.30 Sj.V2 Tj.9a Uj.Vj.B[ z6.Wj.Xj.Yj.G^.Zj.Zj.G^.Nj.|7 z7 J4 <m `j.p& r9  k..k.+k.@k.#k.$k.%k.&k.>} $d *k.=k.-k.*F 8; ;k.JP v7 M' p9 '[ E  )@ ,* >k.)@ C  )@ ee ee Q% 1- q; ,k.'k.@^ :- V& k@ ,* y@ %% J& C  a& s& O< )k.!k.=b ~k.{k.T_ ]k.^k.ub./k.(a (k._k.:k.<k.[k.}k.|k.1k.2k.3k.M5 !& (6.y9 7) 4k.5k.6k.7k.8k.9k.0k./2 5k.ak.l: bk.)m ck.9: i3.2* 17 dk.ek.fk.gk.dk.hk.ik.jk.kk.lk.{m N| w[ mk.m_ N| nk.O0 ok.ok.pk.qk.rk.sk.tk.uk.vk.wk.xk.yk.zk.A< Ak.Bk.Ck.Dk.*S Ek.Fk.h8 Gk.Hk.Ik.Jk.Kk.Lk.co N+ b/ [-.J; d/ Mk.fp B& k) R5.m>.Nk.Ok.Pk.C[ q2 2!.lS Qk.B[ Rk.",
"j( 9= Q{ 7= 1_ Sk.Tk.Uk.Vk.ry z& A& 8= Wk.Xk.Yk.Zk.`k. l..l.+l.b/ @l.#l.$l.%l.&l.*l.=l.-l.;l.>l.,l.'l.)l.!l.~l.{l.]l.^l./l.(l._l.:l.@4.$} R7.a/ a/ b< K5 m8.H5 H5 p_ 10 :5.<l.+B +B v8 f5 Kj.`L [l.d7 }l.X4 67 p_ |l.D_ _2._2.EV 1l.1l.1l.2l.3l.4l.4l.5l.6l.X; 6l.7l.8l.9l.0l.G4 al.bl.cl.dl.el.fl.gl.hl.il.jl.lA kl.ll.i9 i9 6- L% P' /@ r& B! ml.ml.f& v9 A>.G/ c5 t_  ; I; :> H- 2c {* d# ;k.T3 d# v_ 9* }% }3 >*.ml.j@ W& !! nl.R' D* a{ +* +* a* ol.pl.pl.ql.rl.sl.tl.ul.vl.wl.xl.-F r* u* 'k.:> 5- 5- N' N' t_ c5 c5 s_ r_ q_ a/ Q[ yl.F8 zl.K5 [3 $; K5 Al.Bl.r[ Cl.Dl.El.Fl.n7 Gl.Gl.Gl.J5 Hl.D8 Il.Lj.Ng.:5 Jl.k^ $; 2h |- Kl.}: Ll.Ml.Nl.2' %; c2.4}.~8 Ol.Ol.Pl.Z6.Ql.Rl.Sl.Tl.Tl.Ul.Vl.Wl.Xl.a_ o6 Yl.Zl.`l. m..m.+m.b& z& 2a 8= @m.#m.#m.{4.$m.%m.&m.*m.*m.&{.n7 ",
"<l.q_ =m.=9.e'.-m.;m.>m.,m.'m.)m.!m.~m.{m.]m.^m./m.(m._m.:m.<m.[m.}m.|m.1m.2m.3m.4m.5m.6m.7m.8m.9m.0m.am.bm.cm.dm.em.fm.gm.hm.im.jm.km.lm.mm.nm.om.pm.qm.qm.q).Dj rm.(w B& B& 9= $$ sm.tm.um.vm.wm.xm.ym.zm.Am.Bm.s: Cm. - Bt e= 2a ((.b% Bt Bt $- $- Dm.C& Em.Fm.Gm.Hm.1J j= Im.Jm.Km.Lm.Mm.Nm.Om.Pm.Qm.Rm.s2 Nl.o_ Sm.c@ s7 K- A= A@ u! u! /= /= Tm.P= !; 7b Um.Z5.Vm.Wm.Xm.k: P5.Ym.Ym.K7.V- Zm.`m.*!  n..n.7= Q= ((.((.2a ((.Y* E! E! :: !* v$ 25 1c H7.H7.+n.@n.#n.$n.%n.&n.*n.=n.-n.;n.#$ '& >n.>n.>n.c-.,n.'n.'n.&_ )n.)n.!n.'& ~n..n..n.{n.]n.=! ^n./n.(n._n.g#.:n.<n.[n.}n.|n.]' ]' j! wc.1n.b9 Ji.2n._2.uK (2.^(.^(.3n.4n.)5.]|.5n.6n.7n.8n.9n.0n.an.bn.cn.dn.en.fn.gn.hn.in.jn.kn.ln.mn.nn.on.pn.qn.rn.sn.tn.un.vn.wn.xn.yn.zn.An.Bn.Cn.Dn.En.Fn.Gn.Gn.Hn.7'.]' In.",
"Jn.W<.{-.Kn.I2.Ln.Mn.Nn.On.Pn.Qn.Rn.Sn.Tn.Un.Vn.Wn.Xn.Yn.Zn.`n. o..o.+o.@o.#o.U(.$o.~/.Tf.kf  f.kf #_.%o.&o.*o.=o.-o.o[.;o.&j >o.,o.'o.)o.!o.~o.{o.]o.^o.S4 /o.(o.XV 3| .5.2'.(f p= _o.:o.<o.[o.}o.:1 |o.1o.2o.3o.4o.C( k{ _= 5o.&$ 1'.f& /, R= 8= Oo )( 6o.Zj.KC 7o.8o.9o.0o.ao.bo.co.do.eo.fo.go.ho.io.jo.$g Xd oe ko.zf *b u6 (= lo.#& M= M= {; s= f= mo.no.oo.po.O].qo.ro.d4 '-.so.to.`d.uo.vo.wo.&j.xo.yo.zo.O= L> L> e; 9$ Ao.Bo.R= v9 1% Co.Do.~-.8l p> Eo.Fo.Go.Ho.Io.Jo.Ko.Lo.Mo.No.Oo.WB Po.Qo.>h m7.R% e& h7.Ro.<~ Ro.e& G$ (= lo.So.i7.e[ To.]1 Uo.Vo.Lr Wo.Xo.Yo.s[.pA Zo.`o.g= @, )= w_ ik.A1 '-.V2. p..p.+p.@p.#p.$p.%p.&p.rp *p.$s =p.-p.P9.;p.jf 0h >p.#o.,p.'p.)p.!p.~p.{p.]p.^p./p.(p._p.:p.<p.[p.}p.|p.1p.2p.3p.4p.5p.6p.7p.8p.9p.0p.ap.bp.7k.cp.dp.q0.Zt ",
"(f.ep.fp.iH Nj gH gp.hp.ip.jp.kp.lp.jb.mp.np.op.pp.pp.qp.rp.sp.tp.qp.`:.up.up.vp.Rn wp.xp.wp.yp.wp./^.zp.Ap.ih.Bp.2g.Cp.L@.4g.Dp.Ep.Fp.Gp.Hp.Ip.=Q Jp.Kp.Lp.Mp.Np.':.}h *F `j.a_ Op.Pp.Qp.R].'j.$< _}.SX @l Rp.Sp.Gn ,_ Dj A- fp /= e= c- W] Tp.Up.Vp.Wp.Xp.Yp.Zp.`p. q..q.+q.@q.#q.$q.%q.&q.ce.*q.Ze.=q.Og N_.m@.Q~ -q.;q.5-.f' 61 8& := @= K$ >q..# 1: ,q.'q.)q.!q.~q.fH A( {q.]q.^q./q. j.(q._q.:q.<q.[q.}q.|q.b/ .^.;] Q= K, u! 5o.x& i] 1q.2q.3q.gl >` 4q.5q.6q.Rn 7q.8q.9q.0q.aq.bq.cq.dq.eq.fq.gq.hq.iq.jq.kq.lq.A: J- mq.F; ~w A& f= p* nq.oq.pq.qq.na rq.sq.tq.uq.Pl Me vq.wq.xq.E5.w9 ]= A2 7: yq.zq.Aq.Bq.Cq.Dq.Eq.Fq.Gq.Hq.Iq.Jq.E} 7q /b Kq.Bo vj Lq.Mq.wp.`{.Nq.Oq.Pq.Oq.Oq.{/.Qq.Qq.Rq.Sq. <.]|.Tq.b@.aN Uq.Vq.Wq.Xq.Yq.Zq.`q. r..r.fN +r.[(.KP 3, @r.-` #r.$r.",
"%r./i &r.*r.=r.-r.;r.>r.,r.'r.)r.!r.!r.~r.{r.]r.^r./r./r.WU WU WU (r._r.:r.<r.[r.[r.}r.}r.PL PL cf 4d.|r.1(.):.;` a( V].1r.2r.3r.4r.5r.6r.7r.8r.9r.0r.5Y V:.ar.br.cr.^i dr.er.#; uA !&.fr.gr.hr.ir.jr.kr.43.lr.mr.nr.k] or.b5 t* _: /] ,` ~= p~ pr.qr.rr.sr.tr.ur.vr.wr.xr.yr.zr.Ar.Br.Cr.Dr.%g Er.`[ Fr.Gr.Hr.<4 <4 q}.)6 S< 33 wA H- a1 Ir.Jr.I& Kr.Lr.Mr.Nr.Or.}u Pr.Qr.Rr.Sr.BL 5( Tr.Ur.Vr.AT Wr.Xr.Or.Yr.Zr.6k K[ 0$ ^. Ir.`r.0; @*.33  s..s.|2 +s.D0 @s.#s.$s.%s.xg.<^.&s.*s.=s.-s.;s.>s.,s.'s.)s.Pe.!s.~s.{s.]s.^s./s.Q; K> E; D&  & +; (6.(s._s.:s.<s.[s.Z2.Nf.}s.pc ^o.|s.1s.1:  ; M8.R> 4< 2s.3s.4s.w$.5s.`:.6s.7s.P:.8s.9s.0s.as.bs.cs.}Y ds.es.fs.Wj 4d.gs.hs.hs.is.,3 ,3 n1.js.qp.qp.ks.ls.WU yg.ms.ns.os.!j.ps.qs.rs.ss.ts.us.vs.ws.xs.ys.zs.As.!9.%5 /i %r.:! ",
"Bs.Cs.Ds.Es.Fs.Gs.Hs.Is.Js.Ks.Ls.Ms.Ns.Os.Ps.Nh.Qs.Rs.Ss.Ss.Ss.Ss.Rs.Ts.PW Us.Nh.Vs.Ws.Xs.Ys.Zs.`s.f| es.Dg.X/. t.%1..t.Jg +t.@t.#t.9r.$t.%t.&t.<s.W~.*t.=t.-t.;t.>t.,t.|3.V/ O5 :u 't.)t.!t.~t.{t.]t.p> [(.^t./t.8` gd.(a p6 7> G; (t.$: _t.:t.<t.[t.}t.|t.1t.2t.3t.4t.5t.6t.7t.8t.9t.0t.Zd.at.bt.ct.&2 dt.et.ft.gt.ht.t~ E2 it.Z5 jt.kt.z$ lt.mt.nt.ot.pt.qt.rt.st.tt.ut.vt.wt.[' A{ Tr.[' xt.yt.zt.At.Bt.Ct.Dt.Et.Ft.]f [. z$ Gt.Ht.-Y ($ F^ <u [/ It.It.3! dt.V$.6J Jt.M_.5, Kt.Lt.Mt.Fg.Nt.Ot.Pt.Qt.Rt.St.Tt.Ut.Vt.Wt.Xt.Yt.-9.3'.6= J% Zt.1h.(s.`t.;W  u..u.+u._d :b @u.,7.#u.$u.=b +; L8.+*.%u.&u.*u.=u.-u.;u.>u.$t.$t.Rb 7r.,u.'u.)u.!u.kr.~u.{u.X/.[(.tg es.qj lr.}r.!u.df [r.]u.Nh.Us.PW Ts.^u./u./u./u./u.^u.Rs.PW (u._u.:u.<u.[u.}u.|u.1u.2u.3u.4u.5u.6u.7u.8u.Cs.",
"9u.0u.au.bu.cu.du.eu.fu.gu.hu.iu.ju.ku.lu.mu.pj 'q.nu.nu.nu.'q.'q.ou.ou.pu.qu.Lg ru.su.Kn.tu.uu.vu.wu.xu.yu.zu.Au.1Y [(.oR a( im 2g Pb.!g jd.}r W/..u.@j.NL d0 Bu.Cu.6d.8| b5 ]f .7.Du.Eu.Fu.ue Gu.z$.Hu.Iu.Ju.Ku.A0 Lu.Mu.Zt.Nu.K; Ou.=:.at.Pu.Qu.Ru.Su.Tu.Uu.Vu.Wu.Xu.Yu.Zu.`u. v.:}.Rk .v.+v.Cm Y( @v./! /! /! ct.@v.@v.#v.uN $v.V0. ( #= u! (/ gL %v.&v.*v.=v.-v.;v.>v.,v.'v.)v.CL kL L{ !v.~v.{v.]v.^v./v.(v._v.Nn :v.]@ #= `* <v.[7 9! y{ [v.Y~ /! /! /! /! ct.@v.ct.}v.|v.+D 1v.2v.3v.4v.5v.6v.7v.8v.9v.0v.cr av.bv.cv.5, <) dv.~n.M- qg :| ^_ '] Kt.ev.fv.Pf.eh.>3 Ho }r.gv.hv. u t] [> rA iv.B}.&/.jv.kv.:Y Au.lv.Og _}.WT Q2.Rg mv.f1.K2 )^.w..Vj p/ 9( jd.nv.P} ov.>5.ov.Uh.R2.pv.qv.Nh.rv.Ts.Ts.Ts.Qs.Qs.sv.Qs.pj tv.uv.vv.wv.xv.yv.zv.Av.Bv.Cv.Dv.Ev.Fv.Gv.Md.Hv.",
"Iv.Jv.Kv.Lv.Mv.Nv.Ov.Pv.Qv.Rv.(n )F %:.Sv.Tv.nR Uv.Vv.zu.Wv.Pb.K_.Kf.K_.TX Xv.Yv.L: !_ Hf.'g Hf.Lo |(.Zv.]J `v. w.Uv.w...w.p> +w.@w.#w.Nf.$w.%w.%w.%a <n eh.i@.WX &w.v> *w.M5 91 1; =w.-w.;w.6-.;1 32 /a 7! 6-.>w.]a ,w.{6 >0 'w.)w.!w.~w.{w.]w.^w./w.(w._w._w.(w.:w.<w.[w.}w.O4 |w.G( V8.d1.d1.._ 1w.2w.Y( @v.@v.@v.@v.3w.0^ tN 4y |a 3; a  So.%_ 4w.5w.6w.J^ 7w.8w.8w.9w.0w.aw.m..bw.[r cw.dw.ew.fw.]1.gw.V8.hw.iw.jw.|_ }'.N= `* kw.D* *{ xP 3w.@v.@v.@v.@v.@v.Y( lw.mw.nw.bt.Hi .} ow.Yt TX pw.qw.rw.(w.sw.tw.uw.vw.ww.5s.o^ ft.xw.qy yw.Zt.zw.Aw.T1 Bw.Cw.Dw.H: B1 Q0.Ew.N: Fw.Gw.a0 91 )w.m) Hw.!d n/ &-.$-.Iw.+u.&w.Jw.Kw.h| Lw.Mw.Nw.Ow..w.q> i` Pw. w.Wv.X/.Qw.Rw.Sw.Tw.Uw.Vw.Sk Ww.Xw.Yw.z}.Zw.mR mR {f.{f.`w. w.Zw. x..x.+x.@x.mP #x.$x.%x.&x.*x.=x.-x.;x.>x.Fs.,x.",
"'x.Or )x.!x.~x.{x.]x.^x.QT V<.u}.`$./x./` (x.sJ !_ _x.K2 K2 _x.Vw.Hf.h1.:x.J2 1] 1] Rk <x.Z[ 4k [x.bh.wo.Jf.TT Qj Xt Rw.5, LP Ig ij.Mf.`v.pN f` |..Fo Hg.}x.Dg.|x.1x.2x.iJ [H ~= 3x.4x.5x.6x.2}.C0 7x.D2 K~ Q_. F Ya 8x.9x.Zt.#; 0x.ax.bx.cx.dx.v#.ex.fx.gx.Yn 6q Ss.Oh.hx.ix.x> ]/ G( jx.kx./x.lx.mx.d^ (| @v.@v.!H nx.0^ ox.px.~# cc B@ P= I& qx.rx.sx.tx.ux.8^ ${ vx.wx.xx.yx.Ds.zx.Ax.+| +n Bx.:` Cx.Dx.M( Ex.Fx.Gx.Hx.0$ P= Q& Ix.@* Jx.ox.0^ Y( !H @v.@v.Kx.M~ Lx.d1.Mx.Nx.*/ G( T8.(< *< Ox.Px.Qx.Rx.Sx.Tx.Ux.Vx.Wx.Xx.ou.Yx.Zx.`x.n) U8 G7 W0. y. F -:..y.)6 7x.C0 T1 *2 +y.@y.b'.G- -h.*p #y..Y $y.Fg.Gu.Lw.g-.d3.%y.Rg h@.&y.*y.=y.=` u> =` @j.q> `j ]J *a cl hd.j/ |} ]/ %H <x.>_ L: -y.63.;8.;8.LV Hf.h1.CJ ;y.>y.,y.'y.)y.'H H( !y.{h.~y.{y.]y.^y./y.(y._y.:y.<y.",
"[y.}y.|y.1y.2y.#9 3y.%r.'g v..>` 4y.5y.-k.#u 6y.7y.8y.P( Ph ]q.9y.]q.0y.&/ X3 X3 ay.by.cy.jx.L$.L$.(i dy.ey.F} ki.+W Vw.SA Hw.>g fy.Ig o> o> {i p/ 2..gy.so.TA hy.Ti M| ,' b* -h.25 $7.z8.iy.jy.ky.@} [v.nk ly.tP Ya S<.F^ my.U' ny.oy.py.qy.ry.sy.ty.uy.vy.wy.xy.xy.11 *r.Gh !y.Q: V| ga {< yy.zy.Ay.By.2w.xP Cy.Cy.Dy.AL Ey.Fy.Gy.At H& C@ !; Hy.3l Iy.Yo.Jy.Fn HN Ya y{ %) Ky.Ly.My.Mf W8.Ny.Oy.Py.Qy.Fi Ry.-} =t.Sy.Ty.x' {; n@ Ix.*^ Uy.Vy.0^ Dy.Wy.Cm Cm 7w.Xy.pJ Yy.P<.Zy.;_ $_ $_ c( >g H( -W `y. z..z.+z.@z.#z.$z.%z.&z.*z.=z.-z.w* Va R< wP ;z.tP HN >z._(.[/ 4p ,z.'z.)z.p2 D, Z5 <{ !z.'g ~z.{z.gh.Bg.hh o/ nR 6c ]z.Qj Vj U<.^z.Lo /z.Hj h` Hj -` Gg +W LV ow.}1 )_ .} (z.<(.9y.9y._z.:z.A( I: I: x> A( m@.<z.%5 [z.}z.|z.}}.R2 VX [1 1z.2z.3z.4z.5z.6z.7z.8z.9z.",
"0z.ci az.bz.W9.ST cz.Z! 4l R<.^2 dz.ez.R4 F..9s.fz.gz.y> hz.hH iz.R: R: jz.jz.1| 2] N~ 1| sg |] &/ &/ ;q.kz.lz.mz.Yb /< m0 4c 3q.=W nz.Kg.=W oz.;e pz.Gh -a qz.z6 wh @*.*F j( 8= 6= g9 rz.sz.tz.=_ [4 #~ .{ :(.HN Ya uz.I1 vz.wz.xz.yz.zz.Nv Az.Bz.Cz.Dz.Ez.Fz.fp.Gz.24 )9.Bn Hz.Iz.A( Jz.l/ }} Kz.Lz.2& Mz.Nz.Oz.@v.Pz.Qz.Rz.Sz.|H e'.Z; l6.#& v! }- Tz.m7.Uz.b7..{.x~ Vz.3` X$.xL yL Wz.Xz.yL .D Yz.Vz.AA Zz.`z. A.wc.f& 0$ @% y= .A.-7 +A.8w.@A.#A.`].$A. h.%A.&A.*A.=A.-A.l/ q/ (< As.N: fp.%r.nN gk.gk.;A.:! **.9-.'n >A.,A.'A.)A.!A.G0 ~A.D^ #^.{A.]A.HN ;/ F^ ^A./A.(A._A.:A.No rj.R% !> t) ]* /6 f-.Ij h` *} <A.'z.nP :f.*l [A.}A.S8.S8._f.Hf.]/ |A.H3 Ew.|A.Cw.|] |] 7y.K^ W].1| sg N~ jz.jz.1A.P( 2A.3A..(.4A.5A.i@.+w.Ow.6A.7A.8A.9A.0A.|4 aA.bA.0e cA.dA.eA.JC fA.",
"gA.hA.iA.jA.x< 4-.Ti kA.yt 5! e` lA.mA.nA.oA.2o.Vb `u.pA.qA.fi.8u.rA.7` 7` 7` Db.sA.7` 3A.Rh >w.6-.Wd.p[ Al.d< G8.Sj.tA.uA.4-.4w.4-.(2 (2 j] vA.CJ wA.xA.yA.Z/.zA.AA.~= ^' !> b  BA.k{ CA.DA.EA.FA.y> GA.b| t/ ;:.]g gH e< HA.IA.S'.Y# JA.KA.LA.Kn MA.NA.W| }1 &l T| 1} S| S| nN OA.PA.QA.Lf.jd.RA.SA.TA.23.,6 pf.UA.3( nk Bd.Xz.o4.VA.a  .= h* 9$ f= V0.+{.|l.B, s9 WA.XA.@' @' W} E' R} YA.`{ A/ ZA.k! `A.o>. B..B.e= := ^. |6..= +B.#; @B.+{ $/ $/ $/  { #B.$B.%B.x}.&B.W$.*B.=B.-B.M: ep.%r.Hz.ep.1} &r.&r.W].;B.>B.,B.'B.)B.!B.~B.{B.8x.i, )6 h1.]B.r/ ^B.-q. y.w{ ;z.z] /B.(B.}3 Bt 2a _B.V/ @*.E0 :B.!/ <B.[B.}B.|B.1B.iH ey.^/ iH iH (e 2J j] H: 2B.&4.]_ B^ 3B.4B..(.D1 ay.W].W].W].W].W].5B.S: `$.M: 6B.Q| 7B.8B.9B.0B.aB.bB.AA wR 5] b' cB.Iz.dB.QR /{.eB.fB.gB.hB.",
"(4 (4 q7 q7 Y7 L; Xm.:| iB.|-.4% 2'.jB.o[ c5 6l.kB.nA <).lB.mB.nB.<m D- oB.D!._7 v6 2h n>.}_ c} _2.}_ 67 k6 !8 In.(4.Qi pB.qB.I< 6P rB.sB.|f Gj.B^ tB.uB.[5 43 PC Bb.X- Cm.`o.F; A@ <>.vB.a3 o).wB.xB.yB.zB.AB.f, w[ D8 Bi.BB.oj.:f A& 6= CB.DB.EB.FB._q.v3 GB.HB.IB.JB.KB.;b 5|.LB.n).MB.NB.=!.Nj.|7 OB.OB.PB.QB.RB.SB.TB.UB.VB.~y WB.<= 16.6'.6'.u= u= g= 7'.[a |e /f XB.6B.YB.QV q{ nJ () Bf ZB.`B.'- 0>  C.)( d= L> w= 6'.6'.h* .C.!'.}n.+C.@C.#C.$C.ZB.Ki.%C.&C.*C.#1 =C.-C.;C.>C.vo.J6 ,C.'C.=/.4f.uy.)C.!C.~C.{C.]C.^C.G^.a1 /C.00 >2.6@ (C.1q._C.:C.Oj l0.0, <C.[C.Zw.}C.|C.v& #w 1C.2# 2C.}% @*.W/ U: 1q.3C.j@.^e Y% 4C.5C.Wh 6C.Dl.7C.8C.9C.&S 0C.;d Mj.aC.bC.v[ cC.C7 H[ dC.eC.fC.gC.hC.Ut gC.iC.R| jC.kC.3i.lC.mC.*4.1q.nC.a>.=h oC.S< T< *H %; pC.,d *b ty `4 qC.",
"z& p* Y* Dm.g= M+ S% .5.-& G{ L& c- rC.C( 0= sC.v9 1; tC.V- uC.:v.Hp c'.c'.0k Zm.v: vC.wC.xC.yC.K[ zC.AC.BC.CC.h= x, DC.EC.FC.4h n7.t_ Lk.GC.[> v_  ; vj.7< m4.P1 HC.]' Q= N= a  x= 9$ 5% Zm.IC.JC.KC.L8 LC.7'.rj.^; .# 9= Gn.i! 0; j! MC.NC.B: OC.PC.%m.QC.RC.V|.w: QC.=e gp c'.w: =e c'.<f $m.SC.=e '!.E5.v: ]f 7a d= d= TC.x' UC.:!.y- 16..= ]!.Z; Q& Q^ VC.WC.S& #$ Wk.XC.YC.ZC.S7.y5.c[ `C. D.o7.o7..D.+D.c- @- y= ]!..=  = C& @D.#D.B: $D.%D.&D.CC.ak 3h |- aC.!8 !'.*D.=D.pk.-D.;D.70 >D.,D.9g.%).'D.)} )D.!D.s5 ~D.3= VC.{D.4# k{ a= x' .^.7= Ct $b ]D.^D./D.(D._D.:D.xz._f d& e- L= R- D& A, o6 u_ u_ ,!.q_ No Kj.c< aC.aC. l h> <D.]j 60 [D.}D.>n.|D.1D.2D.@m.3D.f} 4D.5D.b) n3.y_ ]: }_ W{ c< 6D.ss y6.7D.Dd g7.+h./f 7D.8D.9D.K- `8.w_ w9 ^~ A& p* z& 0D.1'.6# R+ ",
"j_ j_ |5 d2./g nd.aD.g> d- Q& Z_ += 6'.bD.bD.@% w= v= t= d9 J7  3.bD.lt.C@ @% x= r7 6'.6'..= K7 G& G& K7 y= _' o, yC.cD.4a dD.S% q= r= g- #- A@ g- h- g- y- d-.O= 9$ w= N= a  x= x= x= @% .= @% @% x= .= Q{ eD.fD.gD.hD.I6 M3 iD.*2 *2 Hz.21 Iz.jD.kD.lD.mD.nD.oD._9.2>.xk.pD.qD.rD.<f G; (= Jr.@% x= bD.@% u= t= O= u! u= w= M= M= a  a  a  J= L= C=  - x^ R! c= *$ >*.>*.>*.*$ *$ z& *$ 9= f= /= A@ A= BA.2r 2r S- M$ y=  =  =  = n@ L= x= 6'.bD.r7 r7 v= v= w= 5'.u= P= sD.((.l@ a= ZC.MJ tD.uD.L,.;8 *D.c< p_ vD.%S wD.xD.No.yD.P[ b1.IA.zD.%; @@ AD.BD.f[ <= a  L= M= N= M= a  .= 6'.6'.x= x= 9$ ce e- =4 f& v& T= v& v& CD.v& L& L& v& v& A! _: F; B& BA.W* >] A$ Q& y= n@ a  M= x' A= #- _: A! /= P= O= v= v= v= @% @% @% x=  = y= DD.g=  - ^!.ED.+- l= !c Xm.`8.`c D, ",
"FD.Ij.$'.y< Ut en ]m S~ GD.x= 6'.6'.h* f- r= Bt 3a At ;< =D.=8 9z [i [i n3.7= ]; bD.bD..= a  a  Q& K7 L$ HD.ID.CJ JD.KD.LD.SA MD.8_ Ek.ND.OD.Ul PD.PD.QD.RD.SD.TD.UD.VD.WD.XD.YD.5x ZD.`D. E. = .E.+E.@E.#E.k/ $E.{F %E.{u &E.*E.=E.lH mh (k -E.vl ;E.j0 oa Xd ,G >E.,E.6d.'E.)E.`X !E.~E.o7 07.n3.4..$= fj.:2.n7 z< {E.]E.`2 ^E./E.(E._E.:E.<E.[E.}E.}E.|E.1E.2E.<h <h <h 8C.rB.|h.D: 3E.El.u_ 4E.u_ X7 .7.N5.O7.5E.}2.6E.7E.'!.&{.90 go _>.7E.8E.R7.sf h9 -& f} ]; #w fp e9 9E.15 0E.aE.&e.=c bE.cE.dE.U4 ;E.hw XN eE.fE.gE.hE.iE.;W r> 1v.W$.aA RR ds.6j 9` jE.kE.N= @% 6'.L$ lE.bg mE.w1.Eg nE.oE.pE.py qE.rE.d/ sE.jE.tE.3n.uE.=7.y5.[v @d 4: 3: z7 u0.c>.F; n@ K7 G& K7 .= 6'.6'.J7 l6. 3.R= A& ((.U- 1^ j= u& (= [- f- N= w= x= .= .= .= @- vE._6.H{ #k 0/ (9.m< Ak.wE.",
"<> q7  ; 35 #^ _4 /7 'w.{f T& @= += k) `j.xE.Q< yE.bd.(b uq.zE.AE.a3.a3.$1.U: BE.CE.C& M= a  K$ n@ /g.DE.EE.Dp.FE.GE.HE.IE.JE.KE.LE.ME.NE.OE.PE.Jn QE.RE.SE.TE.UE.m^ VE.df WE.K{ [w.XE.;1.tC..^.YE.ZE.`E. F..F.+F.TE.@F.P~ #F.$F.%F.&F.*F.N@.;8._< =F.Zd.fp.q0.-F.Q~ D1 ;F.H1 M| A( V<.mk _t.>F.,F.y6 4D.'F.50 )F.!F.~F.Y&.{F.Ew.he -q.]F.]F.^q.Y% 2) -F.ec 5! C0 I} 5! |p @~ ^F.y( y( 0! 'h.t/ NT &*.GA./F.Mj }F B1 F} Oj Bn F( F( dy.>c fd.L_.vT (F.2k _F.B[ :F.8w -y q2 6l <F.[F.Rh..} |w.oz.}F.Fj |F./< 1F.ei.hl 5, 2F.3F.4F.5F.6F.7F.8F.9F.6A 0F.JN '1 aF.d( bF.cF.dF.T- Gn.eF.fF.Og Pf.Pf.oe &< gF.hF.iF.AE.jF.'u.kF.lF.%z.mF.nF.oF.pF.qF.rF.sF.bm tF.uF.MN vF.S- d- d& M=  = N= wF.xF.Z5.yF.zF.$e.AF.BF.hh CF.Kv DF.pk.-h A_ `% .= 16.x' l= I[ :| EF.35 FF.N' vj.GF.U; ",
"@6 l' S^ HF.IF.JF.KF.N{ N' }6.E= r= &m.S{ LF.MF.NF.OF.PF./Y Z[ /< ]/ Jz.ga QF.A1 RF.<| `m.@% T- SF.TF.UF.VF.ef WF.(}.XF.YF.YF.,G )E.>{.&-.i` |(.L: ZF.XF.uq.bw U~.`F. G..G.+G.@G.#G.$G.jm U7 %G.&G.*G.=G.-G.;G.Co *< >y.>G.,G.'G.)G.!G.~G.mn {G.Zt ]G.^G.ec /G.xC &u >w.1A.Dh xC /G.Y].!2 ;/ (G.E1 _G.:G.6[ |c <G.[G.}G.%/ |G.1G.2G.S{ 7H x{ L~ T} 3G.4G.5J Y~ 5G..3 9[ 6G.7G.8G..@ 9G.}&  D 0G.aG.bG.V< cG.dG.Ur.)] It.Z~ !Y x{ c' `) eG.cB.KT !Y Q_.@(.fG.gG.], ^' R_.xC -y.hG._(.Gj iG.Fj xC sA.6-.x{ '} jG.]B.kG.4-.lG.mG.LV nG.oG.P4 _q._q.pG._d qG.qa Np.rG.sG.tG.uG.Q{ 6a vG.wG.xG.Yr.FE.yG.zG.AG. X BG.CG.DG.EG.FG.GG.qw.W~.=q.HG.IG.JG.tt KG.LG.Gl MG.NG.OG.PG.~!.Jr.6'.I, QG.RG.SG.U| TG.iv.%a ih pG.V4 Yn UG.VG.WG.W$.XG.K7.$= K, T= {* +/ >@ YG.ZG.a> `G. H..H.+H.",
"w/ @H.D) &@ #H.$H./$ CP -h.%. `* #w %H.ew.&H.Q0.&u ^B.Bw.wC R_.:(.:(.Ya 8j *H.2$ 3G.=H.!4.t= C; -H.Sr.;H.>H.,H.Qg zu.Gu.f` FG.r> 0t.x}.i1.'H.vy.)H.d^ 8y.I: ug Xt cl !H.~H.{H.]H.55 ^H./H.(H._H.:H.<H._h.[H.}H.|H.1A.hz.v/ |i.1H.y> |F.U| ;1 2H.X].2$ Dh 3H.4H.sR 5H.1A.6H.)H 6H.#^.&u 9^ K( uN L~ 7H.8H.kk.u& 9H.0H.<4 3G.L~ aH.bH.<' <' <' u{ cH.N] dH.eH.fH.gH.`~ hH.iH.jH.4` 6* d  W/ kH.Z( lH. ! [v.4A.4A.mH.FN nH.7^ nH.8^ K] oH.bH.pH.qH.Cy.rH.1G.sH. - EC.#] tH.uH.J( vH.wH.xH.yH.5H.1A.9H *H.+(.5H.zH.sR AH.ec .(.BH.Rh 3q.CH.DH. 3 EH.|J FH.&/ GH.HH.IH.JH.KH.LH.MH.NH.OH.9f.PH.QH.RH.SH.TH.UH.;} O4 Fn VH.WH.PA.Ic.XH.8t.YH.}Y ZH.`H. I.qj O@..I.kc +I.l` @I.#I.M, r7 cD.AA.$I.1A.%I.7j 1$ he Ch Ch 7-.&I.7k kx.<x.*I.=I.-I.<>.B@ ;I.A* {$ Y1 >I.>I.$)  ] ,I.'I.zw.",
"U] )I.kH.)I.n' Q> {| kH.%& !I. ( wc.aI T<.xP ]] z{ NT [/ It.5( 5( ~I.3! Tr.Hr.E1 [/ l^ {4.{I.]I.^I./I.(I._I.&r.nP _z.%I.Gj :I.:I.U8.&n X( [4 9j 3G.u<.<I.$E.[I.ZX }I.|I.+[ 1I.2I.A0.3I.4I.xr 5I.6I.7I.8I.9I.0I.pJ u<.Br nL S5 `! $Y _G.k/ #^.T} Ya aI.rg *H.=_ bI.=_ cI.cI.{A.~I.Qz.FN dI.@{ eI.K( EN fI.B~ Q% gI.hI.iI.4H.Qy.@v.jI.kI.lI.u{ ={ mI.Uy.nI.oI.pI.1& qI.D<.rI.Dy.sI.`: 95 `C Ed.pH.|[ ': tI.uI.uI.vI.6^ Uy.mI.Jx.u{ u{ lI.kI. [ 3w.4H.wI.%) xI.`% s_ yI.zI.95 uN @{ a~ cA AI.et.)H R: )H =_ 5H.:I.1A.Dh 9H .(.D0 ;z.%n BI.CI.Z, c] t{  { @} =(.l..DI.EI.FI.GI.HI.II.JI.zJ KI.,x.LI.MI.NI.OI.PI.3k QI.RI.=I.o..SI.$d `E .1 U8.:I.Zy.li.9y.9y.>a Vw.TI.UI.VI.WI.XI.C@ IC.YI.^B..(.+(.S<.Tr.A{ Tr.9j +s.It.[/ <u wP fH.ZI.Dj /!.`I.5{ [7  J..J.4& [` n' -: -: +J.^{ ",
"F> @J.l~ -> )I.#J..< C> r* j@ $J.<2.%J.&J.M( |G.U^ {a @v.ht./! ct.ct./! Y~ *J.NT LT 9[ }: !; =J.-J.;J.>J.,J.3H.Ur.Ur.'J.4p Zo )J.1A.jz.kL !J.A{ *A.~J.1I.{J.]J.^J./J.(J._J.:J.<J.[J.}J.|J.1J.U% 2J.3J.4J.5J.6J.gt.$*.7J.#{ 8J.Tr.;z.Q_.9J.Bd.0J.^A.aJ.Qy.bJ.#^..F T: o..'/ dt.cJ.<' qH.J] qH.J] qH.dJ.^! W}  * eJ.fJ.gJ.&n hJ.fy.WH.px.iJ.X8.Uy.nI.jJ.$] kJ.}( lJ.=> mJ.Km nJ.oJ.7J.pJ.y/ $| v~ qJ.rJ.V^ %] S( }] $] oI.sJ.6^ wx.tJ.uJ.vJ.1] <f.wJ.wI.*{ xI.]' +H.8[ 8J qH.J] J] J] J] 8^ FN xJ.5B.5B.lk Xb N~ )H Qy.Py.S<.yJ.zJ.`E +(.AJ.t~ BJ.CJ.dI.`~ Kx.DJ.EJ.FJ.GJ.HJ.c% IJ.JJ.KJ.LJ.MJ.NJ.OJ.PJ.QJ.RJ.SJ.cw.TJ.Jo UJ.dt.A{ 8H 4G.4H.VJ.`o WJ.Ur.Ur.-_ %I.X3 XJ.YJ.ZJ.`J.lt. K..K.O3 ^4 *J.LR +K./! AI.ft.ft.ht.ht.R) KT 'h.@K.#K.z* $J.y& >^ /[ 4H .J.#J.)I.l~ l~ $K.=; ",
"%K.f~ '(.&K.'(.S] +! *K.=K.-K.;K.>K.dH.,K.L^ Pz.U^ Wy.Y( 'K.Y( 0^ `: u~ `].wP }2 d) s6 fG.)K.!K.@I.~K.{K.]K.6g =_ fc ^K./K.(K._K.Hr.Gr.Gr.&2 [' gw.:K.<K.ud.<K.[K.}K.|K.1K.2K.3K.4K.5K.0_ *m.6K.7K.8K.9K.:h.0K. w.3! 8J U^ A{ u, S<._` _` z{ K] L~ $I.xJ.CL %~ aK.bK.fH.+~ ${ ${ #{ ~H h) #{ #{ <' #{ bH./) R' cK.06 rx.dK.%5.eK.ik |Y fK.gK.hK.iK.jK.s~ kK.=p lK.mK.nK.oK.pK.h  }# X{ L' jJ h  qK.rK.mJ.sK.l! tK.S( P) Ly.uK.vK.wK.xK.yK.zK.k/ =(.dt.E4.AK.B- ;7 qH.#{ <' 8^ h) h) h) h) ${ %{ ^F.Ck BK.BK.|| BL n..X~ ht.cH.v{ CK.DK.AJ.u, 01.@v.~H EK.FK.GK.HK.IK.JK.KK.LK.MK.q, NK.OK.PK.QK.RK.1K.ud.SK.TK.UK.yd.VK.WK.8H &2 aK.XK.S<.YK.ZK.`K. L.VJ.:I.R8 .L.+L.@L.#L.AC.x- ~1 #H.d) !Y 4! .| Cm Cy.3w.Y( $L.Y( Y( xP nL %L.&L.*L.^) 6o.yC.^f ;7 l~ [# S] R] R] R] f~ _p ",
"=L.kK.-L.;L.>L.,L.'L.{% IC.)L.b^ !L.~L.BT BT Cy.0^ 0^ DP i~ {L.9! uI.R( 8^ fH.{& a> ]L.oM d- ^L.QI./L.(L._L.4G.&n WJ.VJ.bI.:L.YK.<L.Lb.[L.}L.qb.|L.Fs.1L.2L.3L.4L.5L.Pi.6L.7L.8L.C, }6.P% y@ $= 9L.0L.aL.bL.y}.cL.@I.P( U8.!< 9j T} A{ Tr.CK.ht.#A.8^ &{ 9! |G.Pz.dL.fH.Oz.+v.J( J] 8^ 8^ ${ ${ ${ 7J.*{ $5.8$ eL.fL.gL.hL.iL.jL.kL.lL.om.mL.nL.oL.N/ nK.pL.qL.rL.sL.tL.uL.vL.wL.p; #; D, xL.yL.zL.AL.BL.CL.qK.DL.EL.): FL.7^ GL.HL.$r.IL.Q8 JL.KL.LL.;*.ML. D.mr <' t{ u{ ${ 7J.${ vx.8^ K]  { I^ I^ AI.ct.R) xH.7H Qz.EN .| U1 <4 Tr.It.*J.R: `^ N~ Z| OR NL.}C.1(.hK.OL.S* x& 5a M7.X; CA PL.QL.RL.SL.TL.UL.VL.SK.WL.XL.N<.d^ ft.9}.$I.BL YL.ZL.cI.bI.=_ 4G.j~ `L. M..M.+M.#, @M.rA M1 3* _(.a~ #{ ${ h) v{ #M.FN nx.`: u~ y{ @(.-H.$M.L( +i.!A.,$ VV pL %M.%M.&M.*M.=M.Z3 ",
"V5 -M.OV K_ ;M.d> >M.YG.,M.'M.)M.!M.7w.y{ `].`: `: ~M.nb.{M.9! M( Dx.|G.]M.^M./M./M.(M.E5.Q& _M.:M.<M.#` [M.}M.|M.1M.2M.:I.T^ 3M.4M.5M.~3.6M.7M.8M.9M.0M.aM.bM.cM.dM.eM.^( fM.gM.hM.$# *$ z& $= '= iM.jM.kH.kM.AH.lM.mM.nM.oM.^0 #B.X].+s.R3 *2 *2 !Y c' +~ /* DN @{ Ck pM.qM.;/ @{ Qz.rM.sM.uN K( qH.R( tM.6a eL.Z_ R- /g.uM.uM.E; {!.+^.vM.vM.@, `% `% o, 1^ vJ Q- 4; 1; <-.HC.c/ }/ /g ]: Em.'n.Tp.wM.wM.qi.xM.yM.zM.AM.BM.|D.CM.DM.CM.]D.EM.FM.GM.HM.Z* M% m) w0 Ny.8J 8J EN eI.J( 3w.Nz.IM.Fr.ai JM.8^ t{ @(.@(.5! Y~ *J.U1 <4 E1 dt.[/ Gj +j.KM.LM.-F.MM.LM.dJ ]# NM.z= 1'.,* w@ OM.=h.PM.QM.RM.SM.TM.UM.VM.Qv.WM.XM.Es.xd.YM.ZM.`g.`M.4p &n  1  N..N.2M.Z| +N.@N.#N.$N.d- %N./M.&N..J.*N.S5 u{ =N.Xz.-N.;N.nH.>N.Dy.Dy.`].BT Cm Xy.,N.'N.<G.|-.)N.!N.~N.{N.]N.^N./N.kH.",
"(N._N.:N.<N.CK.a! ${.{^ b  [N.ti 6! $Y `) }N.sM.nL nH.8^ .| BT BT |p |p k~ |N.b[ &, 1N..C.d- 8> 2N.:7 <).3N.4N.p] lc 5N.6N.7N.8N.9N.0N.aN.bN.cN.dN.eN.fN.gN.hN.$l 8A.pC.u6 '[ r& }e '* L% 5  iN.L$ .E.^~ rL 6c jN.kN.k% F! 8l.5; `, lN.D2 #~ t{ ^B.w{ F^ L3 W< mN.+6 TV PC QC nN.{H oN.k, X! 1~ @[ &Y pN.m' B- #,  = x= 2a ((.fp !, 2c _-.qN.H{ ]m 1-.rN.0w Ej.;h 3-.sN.,1.tN.13.#{.8] K} N7 uN.vN.B  yw.wN.g} g} xN.s; f7.b_ j: != 0; 2^ a; #- f-  = 6'.B@ 5a L' FR yN.r{ zN.zN.AN.4` W^ BN.CN.p! m' M7 {% ># 5K.)2 DN.Z~ 1G.!Y 5! EN.FN.s_ GN.]y jM.Ab.>M.HN.Vz.o6 sD.L$ IN.P1 (0 x^ T& [  v9 7'.JN.KN.LN.gB.MN.NN.ON.PN.QN.RN.SN.cN.TN.UN.VN.GL f) WN.ka XN.oa YN.ZN.`N.~1 M$  O..O.{= vL w) it.|p |p .| Z~ .| @{ +O.DP cJ.#A.@O.%/ .| #O.$O./] d# ># '] *2 %O.OV -M.i{ ,I.",
"4& !$ X+ &O.*O._4 n9 =O.Q^ -O.*^.~~ ]M.PV ]M.;O.$Y q{ 5~ uR uR /* =:.>O.+d j{ K! 4{ )^ }> Z; z= )* nl.,O.`  4y 'O.lD.)O.!O.~O.{O.]O.^O./O.(O._O.:O.<O.[O.}O.|O.)w.&- 3k.1O.L- ;k.>| W_ @( w* {: c; 6'.T- 2O.3O.|z.c^ 4O.l, e` /7 UC 2: %: XC uA U/ uN.4& .J.[` P$.4& 5O.+' 'c b] [H ;k.$^ %@ |# 5H }# G7 b>.Dm.#= C& {n.^-.,1.1h.6O.k/ `i.7O.ym K$.8O.t~ d' zL 9O.0O.]M.aO.j' Z! Vz.>% ER t, 5] 5] bO.nw.P<.cO._) dO.;z.7-.7-.|A.)9.!F.[/ h] 2h i[ eO.Jr.Q& l@ fO.gO.-@ g..>Y hO.W' 0_ u) my.+' (-.4& 5H iO.jO.C^ ;h.,# kO.}h ), /> uA b5 lO.u) mO.!z.nO.3! Eo.oO.01  = c; B4.., .: W_ Y_ #( R' q& 9* sf sy pO.qO.rO.sO.tO.uO.Gg.vO.wO.xO.~z.yO.3K.zO.Dg.n'.AO.@@ BO.7{ X_ R; Q& CO.A* DO.$^ ,# /* k~ !Y dO.wP 4( K( Dx.EO. ~ %Y FO.y~ t, GO.HO.IO.JO.#* WC KO.YV M^ LO.MO..6 ",
" k.I| b/ NO.wc.j! 2^ OO.PO.QO.sL uR Y~ 5! z{ #] RO.&@ }h Vd.L! @@ /^ o; l{ )k.SO.TO.C* UO.Z; y$ s7 J% q$ a$ .% VO.L! WO.XO.YO.ZO.`O.;u  P..P.+P.@P.#P.L% )! J% o9 1O.GT $P.<c XC .: `  N@ X# o, 6'.bD.6'.M+ c{ %P.&P.*P.^_ gC.vA s) Mu.]m q6 K! =P.5; s; p6 p6 p6 s; uA ]= s; -; v) F! H- -P.+; 5- p6 {7.og @= @= )( ]: L1 ;P.9j Sy.1}.QA |A.bx.C<.>P.,P.Nz.jJ.'P.)P. 4 +! |# gO.mJ mJ ^% !P.+6 M7 kH.~P.{P.]P.&u 6J gN.sf.@A.oR aA ^P.pJ t~ <e /P.h[ (P.Z_ T- )( e7.E) RC $@ Y- <7 d% _P.UC G0.43 :u ;7 %@ R> %@ PC s) p; U; *w.:P.<P.m' &( .k -1 [P.}P.|P.77 CE.|6.bD.bD.Bt m{ L@ L@ >| er.a* yA 1O.q& 1P.z; )!  D.2P.3P.}i.4P.5P.6P.7P.8P.9P.0P.aP.bP.cP.dP.k9 q$ Y& !! ED.K7 eP.<7 q! SO.f* -h.fP.gP.<c hP.R} Co.ji @p {a .3 BT [/ *J.<; R6 iP.jP.M% 6y kP.[> lP.E) XC V' ",
"_= (w U3 Q% Q% s& +& mP.E= B@ v9 }5 a| y( nP.F0./> $@ #^ `  oP.,^ pP.pP.qP.w* L7.r9 rP.;^ G& M$ sP.S% p$ tP.$(.c@ tP.$(.uP.u+ vP.wP.xP.yP.zP.AP.)! J% }6.L% M% N7.-h.m) 2H BP.K@ @( J@ I~ %( 4..6'.bD.bD.#- .: CP.f% #: !# h# 0@ 4{ $* q! I! d% d% 1{ ,^ [7 TO.pP.D* ;= v* |> %F v) }H DP.|> 2{ .* (; 8= y$ G& R& W* EP.(7 1l _C.FP.Lu.E0 jO.]% 0J GP.HP.IP.JP.KP.LP.MP.NP.OP.PP.QP.RP.;# 'Y =M.qJ.SP.TP.UP.VP.WP.XP.YP.rI.($ ji wR wR 3c K3 #~ 3< ZP.Dg R& Z; )K.E! >4.m{ |> 6y F! _P.v) _P.|> ;= |> ;= w* qP.<8 d% d% <8 d% 1{ B* X# }c `P.~c z* UC +@ ^^  Q.Wk.6'.bD.bD.M; &( P@ @( K@ W_ F! O- CN.vA 5- V; N% O% I% 0; .Q.+Q.@Q.#Q.$Q.%Q.&Q.*Q.=Q.7{ $(.a$ $(.q$ r& ny y$ G& ve :- @* -Q.;Q.qP.pP.TO.,^ BO.>Q.t! /> e` z~ L3 ,Q.'Q.kO.=9..- Z* )Q.k{ R! rj.g* a1 k{ a; _= ",
"5{ k* c= !Q.Oo c= Gn.e# B@ Z; ~Q.{Q.]Q.&{.Xm.`8.uP.Y_ #( H~ >| v* v* v*  * A, U- 2a r= d- F= H& H& z$ ^Q./Q.(Q.(Q._Q.Z= :Q.p= HM.<Q.[Q.}Q.|Q.)Q.1Q.N5 N5 N5 4'.x' g; a; /, 9= $$ w& _: hd S& sD.l6.bD.6'.#- ~, =Q.2Q.E* 1` v0 I7 @* D* ;= ;= |> ;= |> v* O' 3Q.4Q.5Q.6Q.7Q.7Q.7l.8Q.9Q.0Q.Gm.k) $- D& #= H& H& L, E; 7a eL.aQ.GC.YI._C.rx.d' i{ Zm bQ.cQ.dQ.eQ.fQ.gQ.hQ.iQ.HC U: jQ.J~ ($ X$.kQ.lQ.mQ.nQ.oQ.pQ.qQ.0L.rQ.bQ.N7 r6 c' 5< 5-.[5 ag ,M.<i  - sQ.H& H& c& y' j= ^f )w.:> %F %F :H 'k.%^ %^ ;[ hf.-7 [7 ,^ q! [7 q! 3{ [7 P@ P@ 9@ O@ P@ t! }c tQ.1{ A! 6'.bD.J7 A= uQ.d` X& B! X& X& X& i! =$ Wk.h= S' h; Pg.7& _!.vQ.wQ.xQ.yQ.zQ.<- a1 v9 VE AQ.BQ.AQ.z^ R; F= G& H& B@ C& 3a ny.6y D* pP.[7 a@ a@ CQ.CQ.I~ [7 J;.:5 [5 Qi <0 DQ.N= `* )Q._!.Q% {~ {~ U3 EQ.)@ G$ ",
"`* M$ M$ B@ M$ M$ K, M$ G& M$ H& #, E& h- x- FQ.GQ.Z# B= q= r= K= L= L= T- T- .E.c; .E.#= M$ M$ M$ k- HQ.IQ.Q* o- JQ.KQ.LQ.x= j- s* Z& 0; )! 0; 0; Z& A, j! B& MQ.j_ NQ.w* @* .* ~[ nl.+h.j- Jr.|6.l6.r7 5'.d& d& d& d& d& #- d& sD.K= sD.K$ B= L= L= L= L= K$ K= ce 9$ Q= Q= w& _!.sC.[  b& OQ.o+ `% 2a 0  2; )K.iP.PQ.9{ Q^  & l= V0.=9.(P.QQ.RQ.+h.O% n6 SQ.+> @> TQ.h= _!.<- R! t& g* h9 }-.}% UQ.VQ.WQ.XQ.YQ.W- 0Q.ZQ.`Q. R.67 uK k: y; [>..R.+R.MK.z$ sQ.K, n@ e- x' ly u% dH BD.BD.@R.4> o7.m= #R.m= ny Gn.Hn.S% $R.S% -= _: -= -= Hn._: _: %R.&R.%R.&R.ce 6'.6'.bD..E./= T& a& '[ *R.F$ ee tC.;< ;2 ^@ )Q.u& (' $$ d-.d-.d-.d-.$$ x' .= 16.=R.C% -R.;R.JQ.>R.,R.G& G& H& G&  = L$ @- *m.'R.fp fp fp #$ Oo !Q.!Q.hd {!.`= F; 2a +- Z_ G& G& M$ Z_ d- d- d- )c E& E& >] ",
"F& D& U- k= 3  i! )R.)R.!R.&W ~R.F= `* {R. n.]R.^R.c2.oB.B~ i] [8 u_ ll.[-.j: :[ xL.+{.u9 /R.(R._R.:R.r- <R.[R.}R.|R.1R.2R.C, z4.3R.>@ 'c DO.4R.F0 kJ uL |h 5R.yL 3! 6R..y.bO.it.]M.Yz.7R.S& 8R.{@ 9R.0R._] _] aR.c  *& a* bR.Ym.A2 :5.q_ u_ Lk.W- o6 Lk.[> ll.z4.^f i= A, B, ld.wR 13 9x.zw.*p )# cR.B* dR.f= R- M$ 3; H& E= 8> eR.fR.gR.hR.iR.jR.kR.lR.mR.nR.oR.K, M$ Q& M$ K, R& K, c- V% Q& M$ 2; pR.qR.rR.sR.tR.uR.vR.wR.xR.yR.zR.R; p= y$ 3; AR.Z* )c f-  & Y& v* [7 BR.CR.V8 Q; p6 u_ `% U& g* GD.DR.i= &W t: '> Ri y, G| oy oy r, oM c/ k: CB.I7.G) xL.xL.]y ER.FR.8R.GR.EV 2-.1-.YA. ^.w) HR.IR.JR.*! __ #@ BR.KR.LR.MR.1- G7 *% @; v9 NR.OR.PR.QR.RR.SR.TR.UR..n..C.=K.v: z_ Zm.b9.VR.b9.&W &W oM [2.WR.07.XR.YR.Ri 0= '= `* 3; H& vM.ZR.g* Oo Oo Y* E! C& Z# A$ B@ ",
"`R. 9.}# _$  S..S.+S.@S.#S.$S.)= _' M$ %S.&S.*S.-g =S.-S.;S.>S.,S.'S.)S.$s.!S.Is.~S.{S.]S.^S./S.(S._S.:S.<S.[S.}S.|S./{ 1S.2S.3S.4S.^Y dJ.pJ %~ @} .(.K$._x.5S.6S.7S.8S.9S.0S.aS.bS.cS..y.6; a] dS.eS.fS.gS.hS.#| iS.jS.P<.Ei qA.mD.Pj.^% kS.Z{ <( ]] CK.U1 z{ wP RO.9}.lS.mS.nS.oS.pS.qS.rS.sS.tS.X1 uS.E0 vS.GR.h* sD.o, sj.wS.xS.yS.#D zS.AS.BS.CS.DS.ES.(!.H| ~w f= 0  BA.Z_ FS.GS.+' t_ 5% z= L$ @- c& gy HS.IS.JS.KS.LS.MS.NS.OS.PS.QS.RS.g> L$ .= SS.K> +; TS.JR EK.US.T^ Sr.VS.WS.0~ a^ x0.2( XS.zf J} A0 P5  ~ ^] T) {| :$ YS.gP.c  RV ZS.`S. T.Ob.{f..T.+T.@T.#T.TC.k6.}| c> $T.%T.#N.&T.Ct.*T..T.=T.11 ,2 -T.]L. S.:$ ^% ;T.>T.9A.,T.`4 'T.)T.!T.~T.{T.]T.^T./T./T.(T._T.s~ :T.<T.[T.^c }T._z.|T.:n 1T.q..2T.-W -y.3T.4T.A$ `* `= ), 5T. ^.0[ +6 6T.p6 F! n6 $= GR.",
"=7 7T.8T.9T.0T.aT.bT.cT.>F e> [7 {: )K.c% .>.+k dT.6) |J Uk v> @j.Cg.eT.fT.gT.hT.iT.jT.kT.lT.mT.nT.Dh.oT.pT.qT.rT.GH.0h.sT.;} tT.uT.vT.NJ.wT.xT.yT.zT.%v.(A.d^ c^ AT.AT.ft.BT.CT.;M.#] DT.R> u: ET.FT.GT.HT.wx.aH.A) lu.BV BV IT.JT.KT.|[ bH.LT.+F dL.4( 6^ =N.Xz.R( mI.MT.u{ NT.OT.PT.QT.0}.RT.ST.~N.gO.tL TT.UT.VT.WT.XT.dK.YT.ZT.`T. U..U.+U.@U.#U. { JF.$U.IA.Nf `4 pO.`} 3h {n.+R.b* ll.e9 %U.E, GC.&U.`j.*U.O7 X/.=U.-U.;U.o<.R8.>U.,U.'U.77 9R.)U.!U.S) md.k, gJ.~U.{U.]U.Fv.^U./U.%A.FN a~ (U.7J.pI.pI.K( *J.ft.#v.#v.8J _# _U.Fo Fo Do :U.<U.[U.}U.|U.1U.2U.3U.4U.ng TV 5U..3 6U.7U.8U.Lx.9U.0U.WV aU.bU.cU.dU.eU.fU._h.gU.hU.iU.jU.kU.L$.Ob.lU.mU.nU.oU.pU.qU.rU.sU.tU.uU.vU.wU.xU.yU.zU.AU.BU.CU.DU.IP EU.0y.oz.hH FU.GU.#= HU.n9 IU.JU.KU.LU.MU.LU.NU.OU.{H f} _: ",
"PU.QU.RU.SU.TU.UU.VU.mN.:$ T> +* rj.sQ. ( f9 0_ v' ^* E0 !% F' !% w) @6 5~ WU.XU.YU.ZU.`U. V..V.+V.@V.#V.$V.O7 w0 %V.&V.Yt *V.=r.+:.=V.eI.-V.&A.Ei Ei P<.;V.ht.&2 T} {a BT Z~ RO.>V.U) Y+ %^ R% ,V.'V.)V.!V.~V.{V.]V.mI.mI.*{ {M.~Y =V.6` 6^ :` Uy.Uy.sJ.yS.^V./V.Uy.Cx.(V.Cx.MT._V.:V.Vy.<V.[V.}V.]| |V.1V.5w 2V.3V.4V.5V.6V.7V.8V.9V.0V.aV.bV.w~ -' X! cV.cV.5` #[ g  <$ dV.&, O5 eV.fJ fV.Z' gV.NC S{ @p >M.hV.iV.)Y uI.jV.kV.lV.mV.nV.oV.[}.pV.qV.rV.sV.tV.uV./c 3H vV.B<.'K.'K.'K.wV.lI.u{ Cx.mI.6^ xV.yV.zV.oI.={ Cx.wx.mI.|[ Mb.7J.cH.-/ -/ AV.:` !(.~V.BV.CV.DV.EV.F; -7 !% X! s{ RO.>M.Y~ ht.gt.+K.+K.FV.GV.J^ &H.HV.IV.JV.hH.): KV.Yo.LV.MV.NV.6y.2( OV.PV.QV.a~ RV.SV.TV.xx.#M.N] UV.VV.IA.jQ.{! WV.XV.sA Z} YV.vA ZV.`V.L,  W..* {% ^$ .W.+W.@W.#W.$W.%W.e* E5.k) ",
"/g.T' &W.{= h! *W.MR.DO.=W.)# -W.0; ;W.z$ z$ >W.[: (; ,W.'W.)W.!W.p& ~W.{W.]W.^W./W.(W._W.:W.Km <W.[W.;6 h  ii }W.)I.-{ T) {H ;# 'p |W.ji 1W.#5.4&  J.YS.YS.YS.YS.iB.2' %; a* ty N+ z* I; 3  h- T6 2W.3W.4W.)~ Nb.s~ 5W.Y^ 6W.7W.+J.8W.9W.]P.0W.aW.^V.^V.^V.bW.cW.oL.dW.eW.fW.h~ %K.gW.=p B0 D4 hW.iW.jW.kW.i; lW.mW.nW.oW.pW.qW.qW.rW.sW.V^ <^ tW.M) <& uW.<, p' )) H' vW.wW.>, xW.GS.yW.,) zW.AW.!4 V! )4 <# BW.o~ o~ CW.lJ.DW.EW.FW.GW.HW.IW.JW.KW.LW.MW.'1.NW.iW.OW.}` PW.:] rI.QW.Ly.!: 4~ RW.P) SW.]P.TW.^V.UW.yV.VW./V.jJ.WW.U5 XW.lJ.rI.Jx.Dx.~Y YW.ZW.`W. X..X.+X.@X.0; X7 L' VC #X.P[ hD.IA.b1.3}.$X.3}.3}.x~ b> Z, VV.9J %X.,(.6* Z{ `{ $5.&X.MO.X+  < LO.*X.=X.-X.kK.;X.>X.|1.,X.'X.)X.!X.5- $^ 5; ~X.., I; {X.]Q.Hy.b- )K._' *^ m$ ]X.P; ^X.*p u) Y' /X.{= ^~ .- ",
"3# (X._X.kJ -W.)^ d{ d{ DO.v, W8 B* V; F; W* B@ ~R.B& v% :X.<X.[X.}X.|X.1X.2X.3X.4X.5X.6X.7X.8X.CR  4 .4 X^ R] `_.W5 9X.0X.aX.bX.H' iO.,$ p6 :> K! 9l.<c AA.AA.AA.^* tA |-.43 $@ #@ xA o; cX.dX.eX.fX.gX.hX.iX.jX.<^ kX.lX.mX.mg U] nX.%K.Ek oX.pX.DW.DW.DW.qX.d~ rX.sX.tX.uX.vX.,4 ,4 *[ P# >4 wX.xX.yX.:@ zX.AX.BX.CX.DX.EX.<W.FX.+b VV .! `_.q' p' D> <& p' GX.HX.c! IX.JX.>, KX.LX.MX.%u >, NX.d! DR OX.p' <& [[ M) Pm PX.g  QX.)(.RX.SX./T.TX.UX.VX.WX.XX.YX.ZX.`X.W  ~   Y..Y.+Y.@Y.#Y.$Y.6e %Y.'T.&Y.qX.*Y.OV.=Y.fi GP.-Y.oJ.N_ U] zL.>( ;Y.>Y.>( ,Y.zs.9e 'Y.)Y.!Y.U% '! 3k.H- T3 v_  ; 73 GF.GF.uA s; VC ~Y.ll.@; {Y.p; r; ;# ^# .J.[` C> G> D> PX.-> R] X^ ]Y.`_.^Y./Y.(Y._Y.:Y.<Y.[Y.}Y.|Y.1Y.2Y.3Y.4Y.5Y.U3 E; ~R.L, >] a1 1% P; T' 6Y.DO.MR.d{ ~c kJ !z.~# 01 Z= ",
"H& ~R.Gt.K[ -W.-W.)^ z+ 7Y.z+ v, LR.9@ 8Y.v9 Q{ 3; 2; hd 9Y.0Y.aY.-* bY.cY.dY.eY.fY.gY.:@ hY.cJ iY.9X.jY._^ kY._^ sr c! cJ P] n{ T> T> -$ lY.`' jJ jM._H n' ,F $) ,2 +H.r_ J| AA.-h.t! T# X& +- mY.N: lk ~P.nY.DR d~ `_.oY.pY.$h.pi 'T.c6.qY.rY.qY.sY.tY.uY.uY.xk vY.wY.xY.yY.Q/ ~) ~) ~) ~) %h.)) zY.AY.BY.CY.DY.EY.FY.GY.HY.S/ |` V_ IY.#h.=| s' )) )) )) s' s' '{ ,{ JY.u   ) KY.Z* $= 7> LY.JY.MY.NY.yY.)) )) q' OY.)) ,{ PY.QY.[& R/ u' RY.SY.TY.UY.VY.WY.XY.1X.YY.ZY.%h.4^ o' c! 4^ %h.NY.NY.xY.vY.xk uY.oY.sY.sY.W, `Y.`Y. Z.c6.&p M) &Y.&Y.PX..Z.+Z.nY.Uy.dt.'0 @Z.Q^ <- 'k.@*.%( X{ <| <c #Z. @ JF.KF.Z{ x/ ]{ $v.jJ $Z.7T.#*.j..>{ yr B0 G> sr DR DR DR .4 CR ~) e! (c %Z.&Z.*Z.=Z.-Z.dY.eY.bY.;Z.0Y.9Y.|  sD.F= y$ F; j* $(.-W.*W.DO.h, h, MR.D+ -W.>Z.qy 1C.x- /g.",
"F= F= c& <i =^ TO.,^ I~ @( @( t! BR.z+ #P.,Z.8'.^= 'Z.)Z.!Z.~Z.!{ {Z.]Z.^Z./Z.]# +( (Z.cR.#* kd h= u7 p{ iY.9X.9X.$F $F G> P] _Z.m) Bb.[H mO.:Z.;' &, mO.$^ p& u* v* D* ;7 L' D+ <Z.~^ X# S- K, [Z.q@.}Z.|Z.)4 sr 1Z.tY.2Z.xk vY.3Z.4Z.5Z.6Z.7Z.8Z.9Z.0Z.ZY.ZY.aZ.bZ.cZ.#Y.dZ.eZ.fZ.gZ.hZ.iZ.jZ.kZ.~X.lZ.G- mZ.nZ.oZ.pZ.qZ.rZ.sZ.5> tZ.*[ uZ.!| =| s' s' *| =| n{ vZ.wZ.xZ.)# m$ '& G= 3; t* r  .O.wZ.f! =| =| f! s' s' U! !| Y5 yZ.zZ.%F AZ.BZ.CZ.DZ.EZ.FZ.GZ.`8.#P.HZ.T! IZ.vY.uY.yY.JZ.p' s' $h.KZ.LZ.MZ.NZ.NZ.OZ.NZ.PZ.QZ.&Y.JZ.RZ.SZ.3Z.xk tY.TZ.1Z.TZ.DR _^ Y) N~ UZ.2; 6= &- *W.U8 T# s; %J.o; t! &U.^' s; VZ.WZ.dJ -$ #! <* <* '% XZ.YZ.I> V! ~) ~) Q/ %h.p' ZZ.z2 `Z.=P.!  (Z.&*  `.ig .`.+`.@`.#`.2Z.$`.%`.Ir.Z* 2a &`.*`.P@ BR.*W.Ee.7@ 7@ 4{ |{ -Q.i! Q^ B@ F= Q& ",
"F= F= A$ rj.M# a- +( G; FT Q% =`.A, -`.;`.>`.,`.'`.)`.!`.~`.{`.]`.^`./`.(`.(c [7 u* P{ `A.{w 5{ (= R! z2 >Z.z2 Cd Cd 61 _`.:`.}O.[  x^ U& Q% Q% C, n) >) 6y :' M% 9y (X.b'.u6 n, '^ d@ K> )K.sQ.q* c2.J| N; 8l.<`.G> gZ.uY.[`._^ ~) ^] }`.b& f'.|`._c 1`.2`.2`.3`.4`.~  5`.+, S' 6`.7`.8`.9`.0`.a`.b`.p; ;2 8{ c`.z$ 3; R- Z_ R& W* Im.1O.SC :; -( [& jJ ,) -] 5; V_ -( jJ /H mr n8 d`.sQ.g9 r! e`.^[ f`.*[ ~X.nf.I> AN AN AN f`._; 5l.g`.W* sQ.R- F& h`.i`.CE..i.:> #4 zY.j`.k`.l`.m`.n`.o`.H% p`.5Q.q`.r`.s`.s`.^Y.^Y.t`.u`.v`.96.(^ w`.x`.uY.y`.xk &Y.~{ =; ;; ;> #' z`.H& K, 2- 7{ j) w* =P.G- w* X_ :' 6- M7.35 #@ Mi.M% B- 2^ A`.l9 >> B`.C`.!X.96.D`.7; Kk.E`.G7.A& U& Z& M7.M7.d% F`.G`.a`.H`.I`.J`.K`.L`.M`.N`.O`.P`.Q`.R`.S`.G0 +; p& ~[ :' q! Z/ D+ u6 2; H& F= )c ",
"G= 3; Z* H= S% _w 3% P= Q= P= u= e- T`.U`.V`.W`.X`.Y`.Z`.``.  +. ++ +@ +Ct v& >*.G+ &$ # +P^ J  1Q.;] 0$ I& e& [- A@ )c B@ B@ B@ `* `* ~R.A= g- h- $ +% +PO.& +& +U% U% #w A= c- ,> IO.)K.sQ.H& L, <- 5{ CD.g& _!.H% }^ J> 1H r; `B.* +]@ 8R.!; = +BO.@b i# - +; +x* ; +1Y.vP.> +, +' +) +vR.! +~ +{ +] +{D.F= H& H& F= ~R.#, #, W* k- F7.k) R% vJ +& +& _!. 6 u& `% f[ a= ^ +,& / +H& F= ( +_ +: +`8.N7.z, g& L< hJ hJ q7 fO.< +l= [ +F& B@ B@ )K.F= F= F= B@ /] } +| +1 +2 +3 +4 +5 +6 +25 v0 5`.cR.7 +cR.+( 8 +9 +{   Y.k* @# N5 AD.$: (^ -| -| iY.eJ :- 7& R+ K- V; ve H& sQ.S- {!.E! ((.b% Dm.Hn.$R.0 +a +b +;^ c +(f 2a e& A@ B= B= r= BA.A= y- d +e +2% f +g +h +i +h +j +j +$# 3' |e `& k +l ++m.m +n +o +p +q +r +s +t +u +P`.4'.P& I& I& f= v +pP `& j= B@ F= 3; Z# ",
"FQ.S- h- w +x +U+ x +U+ PQ.y +z +A +.R.B +C +D +E +F +G +my H +I +D! V& {~ <- 2r J +#, K +D= K +K +K +L +o@ o@ >] A$ B@ G& G& H& F= H& H& H& F= H& G& G& G& G& sQ.R& F& z= r= r= K= $= q= R- C& 7= DR.O< P% c9 K- K- %} k= c` =F 1^ M +B= @= Q& )c )c #, N +O +P +Q +R +@k.EZ.U* S +T +U +l- l- ``.. +g> y$ `b @X.@X.V +U' !^ U' 6- H; c9 {~ %} %} =F c` 3a M +M +W +a +X +S% S% 8> ~R.#, D= x +U+ HU.U+ @X.@X.x +x +x +Y +Y +:Q.x +c-  & s& j* P% Z# G& G& H& sQ.Z +` +-R.@k. .+..++.+@.+#.+$.+@.+%.++ +&.+#.+*.+=.+1C.B4.Q^ M$ 2; 3# WC.(/ (/ -.+%_ @, Bt ^!.{!..- I, ~R.d- ;.+M$ R& H& A$ ~R.2; z$ sQ.H& H& H& F= B@ B@ B@ B@ B@ F= F= F= H& H& F= B@ ~R.~R.A$ A$ >.+E= E= E= E= A$ #, )c A@ C& 8= ((.,.+'.+).+!.+~.+C +{.+].+^.+`I..R./.+9{ 9{  ( (.+_.+_.+:.+Z* `* <.+E= ",
"pP [.+@* =^ =^ q& J% -< c` M; `* <.+`* R- DD.}.+|.+1.+y' ]{ 4y W8 %F b] Y} Z} zw.yA +; 2c __ <2.!= D, 9E.2.+3.+2.+h9 V- (f  - 4.+3; F= H& H& H& H& M$ V% >] A$ `= f[ -2 5; iJ l, @{.,1.W0.Q[ er.<_ Fj.Aw.1< Af Of C2 C2 zt #k 5.+e8 .7 9y 6.+>q.0$ e& &$ x& 7.+8.+9.+0.+xl.a.+b.+QQ.c.+d.+e.+hP.R} u^ 1-.<| .*.K} }| #{.f.+g.+h.+FO.FO.,F $X.:G.i.+'2 J~ X} w) E' 9x.H+ V/ !k.j.+6-  * `& M% =P.X- Q; `j.4$ ]* b] my.*% k.+k.+33 ^* f> (M.SV i, i, |= l.+80 c} 4h d7.}: eb m.+n.+o.+p.+0.+q.+r.+s.+B% V`.iy }y t.+S= O= O= ~; N5 B$ rb >= H{ oB.G< /-.:P.:P.u.+v.+S_.`G.o6 7> -& :5.p_ q_ r_ t_ /' <- b% J= B@ M$ #, M$ H& H& F= H& F= F= ~R.Z# q= @, rj.k= c` K- k= DR.w.+o6.o6.A`.y; 7< f7.V8 x.+%# y.+r* A, s9 `% z.+K. A.+B.+W* Z* C.+G= V% +^.k= Q% s& }6.K% N% t7 7g l= ",
"P% r& ~[ q$ k9 Q$ D.+E.+F.+@( e& K= @= @- <>.ny :Y.+5.G.+H.+I.+vz.F' 8] a' aj J.+K.+;O.L.+~~ J~ ,2 ,2 {! YG.>2  S.@) Ab.T' M.+#$ F= H& H& G& n@ C= _= ((.w& o+ ~= R< :G.dO.>M.2}.2}.I} I} 2H.N.+F: [` yN yN yN -( -( :{ W' /H $^ X8 'k.<> <7 u* fL u* O.+<Y.P.+Q.+R.+S.+T.+U.+V.+W.+X.+Y.+Z.+.] ~~ KF.l, ZG.]L.rA i.+JF.`.+<% Y'  ++.+++++ ,  ,  ,  , @++#++$++%++~# >Q.m{ c{ b* u) &++l$ 1- qg %# Q; Bb.m, *++QU.=++&& gV.SV SV -++-++/$ {$ ;++>++2~ j, ,++@S.$S.e> '++KF.)++!++~++gi {++]++^++/++(++_++:++cP.<++]9.z; }6.r& N% >^ bR.>= *H K} Nf IA.[++}++#{.Z{ S1 C^ 4r /a |2 |++tP |++|++iI.yI.[++%{.Q; T= Dm.b% A@ >] H& ;.+H& H& F= h- M; m{ ^H :$ vL &N.Z} a> ZG.YG.1++,2 i.+2++uS.3++4++LT `&.5++6++SV gV.kl.7++8++9++e# !; M= Q& r= ]w Y_ 0++J@ Q$ CQ.L@ >| q& M% Tr ",
"a++>[ e@ -^ k9 O{ b++c++c++F.+d++R= += 9D.C( T3 :Z.G7 e++', u^ m) 0{ $(.p$ Y_ #( #( O{ O{ W_ >| H~ #( H~ *`.W_ f++|% g++.O.B- +& F= K7 Q& B= l@ 5# ml.w* *F nN.h++v, i++)# ]X.7Y.d{ D+ ~c I! j++C* k++WZ.o) l++m++ZC Q! g9 A, i! +& SQ.n++oN u7 :: o++p++q++(F Q`.r++2y s++t++u++v++w++x++^Y y++y++i.+*b ;k.q$ q$ .% @* =^ 7@ e% z++M# )# A++m% !^ U' U' $* w* >4.L% N% 9  7$ W& 7$ ml.B++[.+EQ.K& q& 1` d% ~^ BR.T' G! G! (p C++=# D++E++(p r! c{ C* I! n9 n9 #* uA g..^% 5& R$.F++G++H++I++J++K++L++M++F* N++TR.O++P++/f z2 id Q++@h.s, `& z* G0 p; Dd.R++ ) IY./0 S++$^ +; .; T++U8 Zt.U++V++#: ^X.^X.}8 o; 9l.kd y& A& := M= Q& G& F= R% F5.W++X++Y++Z++,^ I7 D* a{ SO.D* =^ #* 3{ pP.;Q.;Q.M7.9> V; J0.e' Yz.'F b1.j..t] (/ )K.K, M= `++#( c++ @+.@+b++k9 be 0{ K& 9  u@ ",
"R+ (w '[ e@ q$ R$ O{ +@++@+Y/ f +f- .A.T3 f* n$ +( P; @^ i@ G@ %. F@ @@+@@+@@+be be R$ k9 b@ t$ O{ ,O.+: +: Q$ #@+]# $@+k++)! T& H& ]!.^!.pP ^M.%@+<% WZ.o) b* .: ,^ $* +* .: .: H~ [{ Va 3{ 8@ k$ z  G! E++(p S# V' &@+7$ W& +% l) *@+=@+-@+$> ;@+>@+,@+'@+)@+!@+~@+{@+]@+^@+>O./@+~& p! ~= $@ WC &U._4 $* -^ @@+0{ !! a$ q$ .% .% *^ I~ N@ +: j9 c@ D4 LR.#* ~[ w! B! B! 7$ 7$ ml.ee K& }e E+ 7$ B! &`.FT 1P..* .* )* ~[ q& 4{ 0++I~ @( b$ O{ .% a$ @@+@@+be @* G7 wz.&N.~% !P.(@+hH.`].#A._@+:@+<@+[@+'.+}@+|@+1@+9. 2@+I +3@+4@+4@+5@+$& t& c= g* o; 6@+7@+/0 =# 8@+7 +9@ -Q.9@+~c m9 -W.7@ 4{ )^ -W.`  {| <* O# s) {X.VC OQ.2a  = G& 6= &@+ 2 mO..J.0@+M@ b$ #( #( #( t$ b@ k9 R$ q$ q$ q$ -^ @@+@@+e@ 0{ i9 C+ !^ ]X.z+ @; z_ Q1 W* w@ be a@++@+*^ k9 q$ @@+K& r& w! %. ",
"Bo.Bo.de y@ W& s7 b@+-^ nl.Y& V% S' Y& )# 7{ j@ F$ w! w! v@ *R.C! c@+c@+a++G@ F@ d@+h@ h@ r$ e@+e@+e@+r$ f@+t$ t$ S$ u$ Z/ ml.G+ H& y= 4a U# g@+5++h@+i@+W# H@ e@ !! a$ k9 *^ P@ !^ *W.LR.SO.H~ a{ j) '| ~[ e@ %. 9  w! N$ N$ N$ j@+k@+l@+m@+d$ 4Y.s# n@+o@+' +p@+q@+r@+s@+o$ Q' o& R$ H@ J& Q+ t@+f +y@ ee H@ >[ >[ -^ 0{ 0{ ~[ 8& +% M& M& N$ N$ N$ *. d@ $% 9  u@+6% i@  . W_ v@+M@ M@ p$ 7{ S$ N$ s7 d@ +: Q' BO.8Y.8Y.K& %. b@+9  '[ b@+!! @@+-^ 0{ >[ ~[ 8Y.EQ.8& ee W& M& 8Y.>| w@+}h y+ g% x@+y@+z@+A@+B@+o@+C@+D@+E@+F@+G@+H@+I@+u@ !I.c@+c@+*. l. D4 [7 1{ [7 #* .: j) *W.*W.qP.Y_ q$ @@+0{ -^ q$ ~[ )^ J@+*, K@+.S.kJ u6 Q& Z; a; 7$ m$ C+ Y; b$ b$ f@+,O.t$ e@+e@+e@+R$ s$ d@+@@+e@ G@ %. a++c@+L@+M@+@* c{ R' nl.@* ]X.p6.v9 A@ >[ Y/ Y/ k9 @@+e@ N$ y@ }'.lo.F  ",
"N@+N@+N@+N@+5o.de &$ de K$ d- <.+V& `/ a@ 9  `++Q+ O@+O@+P@+Q@+r@ F$ w% R@+S@+T@+U@+V@+V@+G@ G@ W@+v$ w$ s7 c@+H@ %. >[ q$ t& _= G& z= 01 P@ a@ +* '^ O% W& E+ E+ b@+'| >| [7 *W.L- F! ., X_ j9 R' >^ d@ N$ w% w% w% w% w% N$ C! X@+Y@+Z@+`@+ #+.#++#+1@ @#+##+d-.'= !; J& t$ be e@ %. H$ $#+$#+%#+&#+*#+*#+=#+j@ H@ %. a++c@+w% O@+Q@+v@ F$ F$ s@ s@ F$ C! C! M& M& N$ N$ j@ M& H@ be R$ i@ w! w! N$ EQ.W& C! C! C! M& s@ F$ v@ v@ ~@ t@+s7 %. W@+e@ %. 9  D  -#+&#+=#+%#+;#+>#+v@ @@+S$ be O@ w$ (' ,R.,#+'#+)#+!#+;  ~#+{#+]#+^#+/#+(#+N$ N$ w% N$ u@ u@ u@ N$ K& D* =^ SO.#* BR.bJ -Y -Y h, 9@ ,^ @* &. w$ c@ +* ,^ $* d{ #* 4; M$ R& f= 6{ W_ q$ e@ @@+@@+i@ `/ g@ `/ g@ d@+S$ d@+d@+d@+F@ !I.u@ N$ F$ r@ Q@+P@+P@+d++Q+ w! 4{ tP.W@+_#+E& C& D! >k.G$ G$ 5o.lo.N@+N@+%#+",
".( %#+$#+%#+:#+N@+N@+<#+w=  = A +{~ F@ M& `++t@+;#+[#+`++}#+O@+P@+Q@+v@ p@ I$ |#+1#+z@ 2#+C! F$ s@ v@ D  E  E  ~@ j@ j@ r@ I& 9$ G& ((.t7 o$ 3#+.: 4#+>q..( 5#+5#+5o.6#+2% 7$ $% F$ C! t@ u@ N$ C! C! w% w% N$ w$ 7#+8#+9#+0#+(#+a#+b#+c#+d#+e#+f#+g#+h#+i#+$# # +u! v! j#+b$ @: oP.y@ *#+:#+*#+5#+5#+:#+*#+5o.5o.k#+M& &. s@ O@+}#+l#+w% N$ m#+F$ n#+o#+C! C! a#+w% d++k@ -#+M& %. -^ R$ a++~* ~@ H$ M& N$ s@ F$ p#+v@ F$ F$ C! C! s@ O@+P@+v@ c@+c@+M& q#+N@+N@+*#+*#+r#+*#+:#+*#+f +nl.+* ,O.s#+>q.ce (= F  t#+u#+v#+w#+x#+y#+Y@+z#+I@+C! b{ A#+B#+C#+L@+N$ N$ N$ N$ C! M& N$ u@ w! B! 9  r& k@ -#+=#+&$ >q.P& := <  c@ D#+E#+@* A& Q& M= f= H$ M& w! H$ ~@ %% E  H$ s@ C! N$ 1#+z@ |#+N& |#+2#+s@ v@ Q@+O@+}#+}#+`++[#+[#+~@ >[ W@+i@ F#+M$ a  s= lo.G#+N@+5o.%#+%#+:#+H#+",
"@% ;] h +$#+$#+I#+G#+Bo.C@ @% F#+U3 J#+q#+6#+i7.R= K#+q#+[#+F$ u@ a++D$ T@+z# R$ R$ s$ >[ &. C! p@ p@ s@ s@ s@ p@ 1#+~* Q= 9$ M= G& d- S- S& +* Y& #& N@+G#+:#+N@+N@+N@+de 6#+2% r@ s@ F$ }#+r@ H$ F$ t@ t@ N$ w$ L#+M#+N#+O#+P#+Q#+R#+S#+T#+U#+V#+W#+s@ &$ &#+6#+So.8& F@ R$ be H@  : :#+:#+N@+:#+:#+*#+*#+*#+*#+&#+q#+[#+`++[#+[#+[#+k#+J& M& %. 4{ 8@ 7@ K@ F@ ~* s= e- f= C! q$ F.+X#+R$ *$ f= 0$ r@ a++be be g@ E@ *. s7 r@ ~* O@+`++`++}#+r@ `++g +*#+:#+*#+*#+*#+:#+:#+:#+:#+# +d@ W_ O{ G@ j@ }'.de &#+0$ Y#+Z#+`#+ $+.$+U#++$+@$+#$+P#+/#+$$+%$+B#+N$ t@ 2#+C! F$ F$ H$ F$ C! v@ ee 5# de 5o.5o.N@+:#+:#+N@+$# a& W$ &$+*$+#w M$ n@ O= <>.1'.N$ v@ F$ v@ v@ l#+=$+s@ w% H@ G@ e@ G@ D$ -$+C! F$ r@ }#+`++t@+q#+I& _= :>.f +u@ F@ ;$+ = v= >$+G#+:#+$#+$#+,$+j + ' 1Q.",
"H& Z; x= ~; '$+i + : `_ v= 6'.)$+7$ !$+-#+F  k#+d% ml.q#+t@+a#+%. %. D$ D$ S@+V@+V@+G@ j@ d++v@ l#+l#+v@ j#+l#+l#+p@ d++O= P= L= H& H& H& b- (0 y' m6.u= ~; Bo.G#+Bo.Bo.N@+N@+*#+q#+>k.q#+=#+J& O@+R@+a++D$ G@ a++~$+Q#+{$+]$+^$+/$+($+_$+_$+:$+M& F$ v@ 6#+6#+>q.0$ C  N$ F@ F@ %. ee v! .( G#+.( N@+N@+*#+%#+$#+[#+[#+[#+[#+[#+>#+q#+2% q#+&$ >*.W- 5> 61 a& 6.+# + 3.#& J& w% -^ O{ J@ G@ ~* I& h* ;] <$+Y; ]{ Mi.8; Y& ,* >k.-#+;#+[#+[#+`++t@+t@+t@+$#+%#+I#+:#+:#+[$+:#+.( N@+f +u@ F@ s$ %. B! 0$ 6#+6#+de d++C! v$ ~$+}$+|$+.#+{$+1$++$+2$+P#+R#+M@+R@+L@+R@+C! r@ O& ;#+}#+d++d++g +5o.N@+Bo.Bo.G#+G#+Bo.Ao.Ao.T& O' w, F= F= H& #= P= lt.x@ 1#+=$+=$+v@ l#+s@ p@ s@ v@ F$ d@+3$+3$+4$+4$+5$+R$ q$ i@ k#+=#+6$+r& C  f +F  b{ J#+7$+y= v= 8$+5#+5#+i +N@+~; n@ Z; e- ",
"3; F= u= Ao.~; Ao.9$+8$+a  Q& )$+M& 0$+$# $# y@ a$+,* ;#+[#+[#+}#+O& O& Q@+Q@+Q@+Q@+v@ r@ r@ v@ v@ v@ l#+b$+j#+b$+j#+O& ,* ee 1'.y- #= G& b- c$+W& C  J= K7  = 9$ u= d$+G#+:#+:#+N@+:#+5#+lo.*#+_= )@ c@+T@+d@+z# F@ e$++  f$+g$+.# &$ lo.lo.N@+5o.5o.*#+*#+5#+*#+*#+*#+g +w% S@+!I.f& *$ =#+[#+F  $#+$#+>#+[#+}#+h$+i$+[#+[#+>#+$#+%#+*#+*#+9$+.( 9$+ ' ^, {; 9$+>$+N= K$ Q= := 0$ &$  : v! G$ S= a  Ao.P& u! := _= 0$ P& 9$+:#+5o.&#+$#+>#+[#+[#+h$+h$+}#+[#+$#+&#+*#+# +j +5o.G$ T& c@+V@+G@ E  =#+# +*#+*#+:#+;#+f +v! >q.)Q.j$+D! L& 4 +k$+l$+m$+W@+d@+n$+5$+d@+c@+t@+g +N@+5o.;] 5o.*#+N@+N@+Bo.>$+s= u= .= y= Dm.$& o+ FQ.sQ.H& >] b% y@ G$ `++l#+j#+j#+j#+v@ v@ v@ j#+~@ ,* H$ o$+p$+Q@+Q@+Q@+Q@+O@+}#+[#+[#+%% q$+&@+f +F  b{ !$+)$+M$ x= r$+;] P& 8$+~; w= F= H& L +",
"K= ;] :#+:#+N@+:#+.( `_ P= s$+t$+1'.s@ M> Q= So.5o.5o.*#+*#+# +P& 0$ _= u$+I$ v$+q@ O& O& q@ v$+v$+v$+w$+b$+l#+l#+O& >k.,* s@ =$+x@  : >q._= x$+p#+,* := G$ Q= J= y= 9$ Q+ O& f +~; O= O= P= d$+Bo.lo.lo.lo.N@+N@+<#+R= )@+y$+z$+&$ >q.&$ &$ A$+B$+J  G#+5#+5#+:#+:#+:#+*#+i +,$+O@+g +q#+;#+j#+O& t@+t@+x@ i$+C$+[#+[#+[#+[#+;#+$#+g +I#+*#+N@+:#+:#+G#+Bo.Bo.Bo.d$+>$+>$+>$+O= ~; s= d$+Ao.S= e- K$ O= <#+Bo. ' Ao.9$+.( lo.*#+*#+*#+%#+;#+>#+[#+w@ h$+h$+h$+h$+[#+Q+ x@ [#+K#+~* H$ F$ r@ q#+*#+*#+D$+:#+5#+'$+:#+Bo.Bo.Bo.4'.E$+F$+a#+G$+H$+I$+J$+j@ C  ,* >k.>k.&$ de N@+G#+;]  ' #& O= O= #& f +~* A@ G& Z; e- C  C! K$+.# I& P& F  O& s@ ~* k@ d++j#+v@ b$+j#+j#+b$+j#+O& q@ P@+}#+Q+ Q+ O& i$+2#+)@ L$+:= 9$+;] P& So.>q.P& }- 8& M$+G& Q& w= r$+.( Bo.lo..( S= P= e- ",
"N$+O$+P$+j +%#+%#+%#+*#+:#+:#+N@+Bo. ' 5'.u= Bo.Bo.G#+d$+ ' Q$+n@ `* R$+J#+H$ %#+=#+=#+=#+=#+$#+$#+C$+C$+ : $# F  f +f +f +x@ w@ O& ,$+$# F  J& g +de f +x$+Q{ J= Z; S$+g& k@ f +bD.K7 Z; H& a  Ao.N@+G#+N@+:#+:#+G#+G#+Bo.Bo.<#+{; O= C@ m6.T$+U$+P^ G#+G#+G#+G#+G#+Bo.Bo.Bo.Bo.Bo.N@+:#+:#+>k.d++`++`++[#+w@ h$+w@ w@ V$+w@ [#+[#+;#+%#+i +r#+:#+N@+N@+N@+G#+Bo.Bo..( 9$+ '  '  '  ' .( '$+ ' >$+>$+d$+Bo.d$+Bo.G#+G#+N@+:#+:#+:#+*#+I#+$#+>#+[#+[#+i$+h$+[#+[#+w@ i$+[#+t@+t@+v@ x@ i +*#+N@+N@+:#+5#+G#+.( G#+Bo.Bo.G#+G#+W$+X$+Y$+u! s= #& So.So.<#+lo.Bo.G#+:#+N@+:#+:#+G#+d$+a  G& Z; .= P= d++E@ *m.;.+Q& R= Z$+=O.:>.6#+[#+r@ O& O& O& b$+b$+j#+P@+O& q@ O& w@ w@ `$+>#+$#+$#+%#+=#+6#+&#+6#+ %+8& A +G& w= 8$+`_ d$+Bo.d$+L> B@ w= .%+Bo.N@+*#+*#+I#+%#+I#+%#++%+@%+"};
