/* XPM */
static char * South_xpm[] = {
"250 125 4387 2",
"  	c #252200",
". 	c #262300",
"+ 	c #2D2000",
"@ 	c #351D00",
"# 	c #351E00",
"$ 	c #341D00",
"% 	c #331F00",
"& 	c #311F00",
"* 	c #321F00",
"= 	c #341F00",
"- 	c #312000",
"; 	c #302000",
"> 	c #2F2100",
", 	c #2E2100",
"' 	c #2D2200",
") 	c #2B2300",
"! 	c #292400",
"~ 	c #282400",
"{ 	c #272400",
"] 	c #1A1F00",
"^ 	c #1D2100",
"/ 	c #232400",
"( 	c #222300",
"_ 	c #1F2200",
": 	c #1C2100",
"< 	c #1B2000",
"[ 	c #1E2100",
"} 	c #232300",
"| 	c #282500",
"1 	c #2D2300",
"2 	c #2F2200",
"3 	c #272500",
"4 	c #2A2400",
"5 	c #2A2500",
"6 	c #262500",
"7 	c #262400",
"8 	c #252400",
"9 	c #202200",
"0 	c #1F2100",
"a 	c #272600",
"b 	c #252500",
"c 	c #151C00",
"d 	c #171D00",
"e 	c #212200",
"f 	c #242300",
"g 	c #222200",
"h 	c #2A2300",
"i 	c #2C2400",
"j 	c #302300",
"k 	c #242400",
"l 	c #272300",
"m 	c #292200",
"n 	c #2A2200",
"o 	c #2C2200",
"p 	c #2B2200",
"q 	c #2C2100",
"r 	c #2D2100",
"s 	c #2F2000",
"t 	c #321E00",
"u 	c #272201",
"v 	c #222201",
"w 	c #262100",
"x 	c #292000",
"y 	c #2C2000",
"z 	c #2D1F00",
"A 	c #1E2200",
"B 	c #252300",
"C 	c #2B2400",
"D 	c #2C2300",
"E 	c #1C2000",
"F 	c #212300",
"G 	c #2E2300",
"H 	c #202300",
"I 	c #292300",
"J 	c #302100",
"K 	c #301F00",
"L 	c #331E00",
"M 	c #2B2100",
"N 	c #272200",
"O 	c #2E2000",
"P 	c #301E00",
"Q 	c #341E00",
"R 	c #371D00",
"S 	c #3A1D00",
"T 	c #381C00",
"U 	c #2E2200",
"V 	c #3B2000",
"W 	c #282300",
"X 	c #1C1F00",
"Y 	c #1A2000",
"Z 	c #302200",
"` 	c #171E00",
" .	c #151D00",
"..	c #2F2300",
"+.	c #312200",
"@.	c #191F00",
"#.	c #3D2000",
"$.	c #361D00",
"%.	c #2F1E00",
"&.	c #361E00",
"*.	c #342100",
"=.	c #3C2000",
"-.	c #181F00",
";.	c #161E00",
">.	c #141C00",
",.	c #202100",
"'.	c #1B2100",
").	c #352201",
"!.	c #392000",
"~.	c #331D00",
"{.	c #391C00",
"].	c #3A1C00",
"^.	c #2F1F00",
"/.	c #3C1C00",
"(.	c #3D1B00",
"_.	c #3B1A00",
":.	c #3A1A00",
"<.	c #3C1B00",
"[.	c #3A1B00",
"}.	c #391B00",
"|.	c #1D2000",
"1.	c #1F2000",
"2.	c #2D2400",
"3.	c #1C1E00",
"4.	c #2F2400",
"5.	c #312100",
"6.	c #3B1B00",
"7.	c #3D1A00",
"8.	c #3C1A00",
"9.	c #3E1B00",
"0.	c #3E1A00",
"a.	c #332000",
"b.	c #1B1F00",
"c.	c #282100",
"d.	c #212100",
"e.	c #401B00",
"f.	c #301D00",
"g.	c #381B00",
"h.	c #391A00",
"i.	c #501C02",
"j.	c #531D03",
"k.	c #531E02",
"l.	c #1E2000",
"m.	c #242200",
"n.	c #272100",
"o.	c #292100",
"p.	c #222100",
"q.	c #181E00",
"r.	c #181D00",
"s.	c #131C00",
"t.	c #161D00",
"u.	c #191E00",
"v.	c #282000",
"w.	c #272000",
"x.	c #262000",
"y.	c #252100",
"z.	c #262200",
"A.	c #242100",
"B.	c #1A1E00",
"C.	c #322000",
"D.	c #461E01",
"E.	c #4B1D01",
"F.	c #491C01",
"G.	c #411C00",
"H.	c #371B00",
"I.	c #401A00",
"J.	c #3B1C00",
"K.	c #421C00",
"L.	c #431C00",
"M.	c #4A1C01",
"N.	c #4C1E01",
"O.	c #431F01",
"P.	c #2D2500",
"Q.	c #282200",
"R.	c #401F01",
"S.	c #541E03",
"T.	c #521D03",
"U.	c #4A1B01",
"V.	c #3D1900",
"W.	c #2D1E00",
"X.	c #511C01",
"Y.	c #571C01",
"Z.	c #521B01",
"`.	c #431A00",
" +	c #452002",
".+	c #491F02",
"++	c #491E02",
"@+	c #271F00",
"#+	c #231E00",
"$+	c #221F00",
"%+	c #212000",
"&+	c #1B1E00",
"*+	c #1D1F00",
"=+	c #202000",
"-+	c #1E1F00",
";+	c #141D00",
">+	c #131D00",
",+	c #232200",
"'+	c #232100",
")+	c #222000",
"!+	c #201F00",
"~+	c #211F00",
"{+	c #191D00",
"]+	c #211E00",
"^+	c #261F00",
"/+	c #3D1F01",
"(+	c #411F01",
"_+	c #401E01",
":+	c #391E01",
"<+	c #311E00",
"[+	c #371C00",
"}+	c #3E1C00",
"|+	c #411B00",
"1+	c #461B00",
"2+	c #4A1B00",
"3+	c #2A2000",
"4+	c #451B00",
"5+	c #3A1E01",
"6+	c #421F01",
"7+	c #392001",
"8+	c #251F00",
"9+	c #221E00",
"0+	c #252000",
"a+	c #1F1F00",
"b+	c #121C00",
"c+	c #1D1E00",
"d+	c #361E01",
"e+	c #4B1E02",
"f+	c #492002",
"g+	c #3F1F02",
"h+	c #2E1E00",
"i+	c #471A00",
"j+	c #561C01",
"k+	c #451C00",
"l+	c #2C1F00",
"m+	c #391D01",
"n+	c #371E00",
"o+	c #251D00",
"p+	c #2B1E00",
"q+	c #281F00",
"r+	c #281E00",
"s+	c #291F00",
"t+	c #2D1D00",
"u+	c #301B00",
"v+	c #321B00",
"w+	c #321C00",
"x+	c #2E1F00",
"y+	c #321D00",
"z+	c #361C00",
"A+	c #391D00",
"B+	c #3B1D00",
"C+	c #1E1E00",
"D+	c #1C1D00",
"E+	c #281C01",
"F+	c #2C1C01",
"G+	c #2B1C01",
"H+	c #2B1D00",
"I+	c #242000",
"J+	c #342200",
"K+	c #332200",
"L+	c #332100",
"M+	c #352100",
"N+	c #362100",
"O+	c #382100",
"P+	c #362200",
"Q+	c #352000",
"R+	c #221D00",
"S+	c #2D1E01",
"T+	c #2E1E01",
"U+	c #2A1D00",
"V+	c #311C00",
"W+	c #2F1D00",
"X+	c #2C1D00",
"Y+	c #271E00",
"Z+	c #381D01",
"`+	c #2A1E00",
" @	c #301C00",
".@	c #2C1E00",
"+@	c #2D1D01",
"@@	c #261D00",
"#@	c #201E00",
"$@	c #352200",
"%@	c #362000",
"&@	c #372100",
"*@	c #2C1C00",
"=@	c #351C00",
"-@	c #331C00",
";@	c #311B00",
">@	c #2F1B00",
",@	c #2E1D00",
"'@	c #271D00",
")@	c #381E01",
"!@	c #491B01",
"~@	c #791F0E",
"{@	c #75200D",
"]@	c #671E0A",
"^@	c #561902",
"/@	c #4B1B01",
"(@	c #431C04",
"_@	c #641D0B",
":@	c #711F09",
"<@	c #741F08",
"[@	c #75210C",
"}@	c #721F0A",
"|@	c #5E1B03",
"1@	c #501900",
"2@	c #4C1A00",
"3@	c #4A1A00",
"4@	c #481A00",
"5@	c #461C00",
"6@	c #441D00",
"7@	c #411F00",
"8@	c #3D1F00",
"9@	c #391F00",
"0@	c #382000",
"a@	c #381F00",
"b@	c #3A1F00",
"c@	c #2A1F00",
"d@	c #3F1F01",
"e@	c #3F2001",
"f@	c #322100",
"g@	c #322200",
"h@	c #402000",
"i@	c #432001",
"j@	c #422001",
"k@	c #342000",
"l@	c #3A1E00",
"m@	c #3D1D00",
"n@	c #3C1E00",
"o@	c #3C1F00",
"p@	c #3C1D00",
"q@	c #441B00",
"r@	c #421A00",
"s@	c #441900",
"t@	c #461900",
"u@	c #581A02",
"v@	c #6E1D07",
"w@	c #721E07",
"x@	c #711E08",
"y@	c #701F09",
"z@	c #671C06",
"A@	c #441A02",
"B@	c #3F1900",
"C@	c #4A1900",
"D@	c #5A1901",
"E@	c #761B06",
"F@	c #7E1C0A",
"G@	c #7E1F0D",
"H@	c #751A05",
"I@	c #581901",
"J@	c #2B1F00",
"K@	c #4C1A02",
"L@	c #691D07",
"M@	c #701E09",
"N@	c #711E07",
"O@	c #6B1D06",
"P@	c #4F1901",
"Q@	c #451A00",
"R@	c #441A00",
"S@	c #431D00",
"T@	c #3B1E00",
"U@	c #431F00",
"V@	c #412001",
"W@	c #3A2000",
"X@	c #2E2400",
"Y@	c #3E2000",
"Z@	c #3F1F00",
"`@	c #361F00",
" #	c #3B1F00",
".#	c #421E00",
"+#	c #451D00",
"@#	c #4D1A00",
"##	c #521900",
"$#	c #631C04",
"%#	c #74200B",
"&#	c #75210A",
"*#	c #6C1F0A",
"=#	c #5B1D0A",
"-#	c #391C02",
";#	c #521A01",
">#	c #5A1A04",
",#	c #71200D",
"'#	c #77200E",
")#	c #80200F",
"!#	c #631C07",
"~#	c #601C07",
"{#	c #5D1B05",
"]#	c #571801",
"^#	c #501800",
"/#	c #451900",
"(#	c #3F1B00",
"_#	c #57230C",
":#	c #922920",
"<#	c #771908",
"[#	c #6D1905",
"}#	c #631C05",
"|#	c #621E06",
"1#	c #5E1D05",
"2#	c #4C1C02",
"3#	c #3D1C00",
"4#	c #372000",
"5#	c #1F1E00",
"6#	c #322400",
"7#	c #322300",
"8#	c #312300",
"9#	c #3E1E00",
"0#	c #371F00",
"a#	c #391E00",
"b#	c #351F00",
"c#	c #4B1901",
"d#	c #5C1B04",
"e#	c #601C03",
"f#	c #601C04",
"g#	c #691A05",
"h#	c #701706",
"i#	c #842519",
"j#	c #571F08",
"k#	c #4F1800",
"l#	c #531600",
"m#	c #5C1600",
"n#	c #681803",
"o#	c #6F1A07",
"p#	c #5B1701",
"q#	c #631F0B",
"r#	c #822418",
"s#	c #701805",
"t#	c #661B05",
"u#	c #5F1B03",
"v#	c #5A1B04",
"w#	c #451800",
"x#	c #2A2100",
"y#	c #3F1E00",
"z#	c #302400",
"A#	c #421B00",
"B#	c #501C03",
"C#	c #601E06",
"D#	c #721805",
"E#	c #842117",
"F#	c #89291B",
"G#	c #301F01",
"H#	c #491900",
"I#	c #541801",
"J#	c #591902",
"K#	c #611C07",
"L#	c #621904",
"M#	c #551600",
"N#	c #521700",
"O#	c #511700",
"P#	c #4F1700",
"Q#	c #4E1700",
"R#	c #4D1800",
"S#	c #4C1900",
"T#	c #5A1F0C",
"U#	c #98271F",
"V#	c #781504",
"W#	c #5F1401",
"X#	c #481700",
"Y#	c #421900",
"Z#	c #381E00",
"`#	c #332300",
" $	c #2E2500",
".$	c #342300",
"+$	c #381D00",
"@$	c #401900",
"#$	c #421800",
"$$	c #431800",
"%$	c #431700",
"&$	c #541500",
"*$	c #661505",
"=$	c #922D24",
"-$	c #692311",
";$	c #531900",
">$	c #531700",
",$	c #541600",
"'$	c #581500",
")$	c #591500",
"!$	c #5C1500",
"~$	c #541700",
"{$	c #541A00",
"]$	c #762416",
"^$	c #8C2B22",
"/$	c #661403",
"($	c #4E1600",
"_$	c #441700",
":$	c #441800",
"<$	c #4D1600",
"[$	c #6C1301",
"}$	c #871D13",
"|$	c #8E261B",
"1$	c #311C01",
"2$	c #291E00",
"3$	c #4E1800",
"4$	c #501700",
"5$	c #591600",
"6$	c #5D1600",
"7$	c #611801",
"8$	c #5F1701",
"9$	c #5A1700",
"0$	c #571700",
"a$	c #561800",
"b$	c #511800",
"c$	c #291C00",
"d$	c #5D2011",
"e$	c #9D2B25",
"f$	c #7C180A",
"g$	c #621401",
"h$	c #511600",
"i$	c #4C1800",
"j$	c #312400",
"k$	c #2C2500",
"l$	c #292500",
"m$	c #2B2500",
"n$	c #471800",
"o$	c #4A1700",
"p$	c #4C1600",
"q$	c #581601",
"r$	c #671707",
"s$	c #952F28",
"t$	c #6D2417",
"u$	c #281C00",
"v$	c #581800",
"w$	c #591700",
"x$	c #5B1600",
"y$	c #5F1500",
"z$	c #651500",
"A$	c #691500",
"B$	c #611500",
"C$	c #671500",
"D$	c #591900",
"E$	c #7A271C",
"F$	c #8F2D26",
"G$	c #671606",
"H$	c #541601",
"I$	c #4C1700",
"J$	c #411900",
"K$	c #3E1900",
"L$	c #431900",
"M$	c #481800",
"N$	c #6F1503",
"O$	c #8A211A",
"P$	c #932A22",
"Q$	c #331B02",
"R$	c #531800",
"S$	c #581600",
"T$	c #5C1700",
"U$	c #601801",
"V$	c #5D1500",
"W$	c #671702",
"X$	c #6D1702",
"Y$	c #681701",
"Z$	c #611701",
"`$	c #561700",
" %	c #341B00",
".%	c #2A1B00",
"+%	c #642315",
"@%	c #A63430",
"#%	c #922217",
"$%	c #6F1806",
"%%	c #5B1700",
"&%	c #571800",
"*%	c #681D06",
"=%	c #491B00",
"-%	c #461A00",
";%	c #481D01",
">%	c #4A2002",
",%	c #462001",
"'%	c #442001",
")%	c #441F00",
"!%	c #392100",
"~%	c #2F2500",
"{%	c #302600",
"]%	c #302500",
"^%	c #3D1E00",
"/%	c #3E1F00",
"(%	c #3F2000",
"_%	c #481F01",
":%	c #4A1F01",
"<%	c #4C1F01",
"[%	c #411D00",
"}%	c #441C00",
"|%	c #4B1A00",
"1%	c #4E1900",
"2%	c #631B02",
"3%	c #651A02",
"4%	c #551700",
"5%	c #6C1804",
"6%	c #841E11",
"7%	c #A33129",
"8%	c #722618",
"9%	c #4B1800",
"0%	c #621500",
"a%	c #6A1601",
"b%	c #721702",
"c%	c #671601",
"d%	c #711702",
"e%	c #6A1501",
"f%	c #5A1600",
"g%	c #2C1B00",
"h%	c #2A1A00",
"i%	c #82291E",
"j%	c #9F2F26",
"k%	c #831D0F",
"l%	c #661803",
"m%	c #651B02",
"n%	c #5E1A02",
"o%	c #421D00",
"p%	c #401D00",
"q%	c #411E00",
"r%	c #4B1F01",
"s%	c #372200",
"t%	c #441F01",
"u%	c #472001",
"v%	c #4A1F02",
"w%	c #471B01",
"x%	c #4F1A01",
"y%	c #6C1D07",
"z%	c #571902",
"A%	c #551800",
"B%	c #581700",
"C%	c #801B0D",
"D%	c #9C2C25",
"E%	c #9D312B",
"F%	c #361A03",
"G%	c #3C1900",
"H%	c #5E1700",
"I%	c #651701",
"J%	c #6B1702",
"K%	c #7B1905",
"L%	c #781905",
"M%	c #701903",
"N%	c #531D0A",
"O%	c #882215",
"P%	c #8A2113",
"Q%	c #6A1907",
"R%	c #521800",
"S%	c #591A03",
"T%	c #601D05",
"U%	c #4B1D02",
"V%	c #471E01",
"W%	c #3F1D00",
"X%	c #461F02",
"Y%	c #441E01",
"Z%	c #3E1D00",
"`%	c #352300",
" &	c #3A2100",
".&	c #3B2100",
"+&	c #4A1E01",
"@&	c #491F01",
"#&	c #4D1E01",
"$&	c #401C00",
"%&	c #5F1A02",
"&&	c #611A03",
"*&	c #591800",
"=&	c #691702",
"-&	c #7E1E0C",
";&	c #8C271A",
">&	c #5E1E0B",
",&	c #2B1900",
"'&	c #341900",
")&	c #3F1700",
"!&	c #471600",
"~&	c #5A1601",
"{&	c #741804",
"]&	c #7C1905",
"^&	c #741803",
"/&	c #681802",
"(&	c #591601",
"_&	c #3E1700",
":&	c #321900",
"<&	c #2A1900",
"[&	c #6B200F",
"}&	c #8B2619",
"|&	c #7C1D0A",
"1&	c #631701",
"2&	c #581801",
"3&	c #611B03",
"4&	c #5B1A02",
"5&	c #4D1900",
"6&	c #491A00",
"7&	c #441D01",
"8&	c #4B1E01",
"9&	c #2F2600",
"0&	c #431E00",
"a&	c #451E01",
"b&	c #431E01",
"c&	c #491D01",
"d&	c #4C1D02",
"e&	c #4A1A01",
"f&	c #4E1B01",
"g&	c #621D06",
"h&	c #541902",
"i&	c #561701",
"j&	c #7A1C0D",
"k&	c #8A2114",
"l&	c #822215",
"m&	c #331901",
"n&	c #4D1700",
"o&	c #5D1601",
"p&	c #6C1802",
"q&	c #741904",
"r&	c #7D1906",
"s&	c #661602",
"t&	c #5E1601",
"u&	c #661703",
"v&	c #4F1701",
"w&	c #371700",
"x&	c #301900",
"y&	c #2F1900",
"z&	c #421B01",
"A&	c #3F1C01",
"B&	c #3E1E01",
"C&	c #2B2000",
"D&	c #241F00",
"E&	c #502002",
"F&	c #4F1D01",
"G&	c #342400",
"H&	c #521C01",
"I&	c #631F02",
"J&	c #232000",
"K&	c #292001",
"L&	c #371900",
"M&	c #2F1A00",
"N&	c #2E1800",
"O&	c #311700",
"P&	c #581803",
"Q&	c #651905",
"R&	c #6F1A06",
"S&	c #641904",
"T&	c #581802",
"U&	c #421700",
"V&	c #2E1900",
"W&	c #301A00",
"X&	c #381A00",
"Y&	c #361B00",
"Z&	c #4B2201",
"`&	c #631E02",
" *	c #4F1E01",
".*	c #231F00",
"+*	c #3F1D01",
"@*	c #401C01",
"#*	c #351A00",
"$*	c #331800",
"%*	c #5E1702",
"&*	c #631702",
"**	c #631602",
"=*	c #5E1802",
"-*	c #341600",
";*	c #321700",
">*	c #461600",
",*	c #491700",
"'*	c #5C1903",
")*	c #691904",
"!*	c #6D1602",
"~*	c #651601",
"{*	c #631601",
"]*	c #5D1700",
"^*	c #5B1900",
"/*	c #591901",
"(*	c #561900",
"_*	c #521A00",
":*	c #511A00",
"<*	c #4B1B00",
"[*	c #3F1C00",
"}*	c #522103",
"|*	c #571D02",
"1*	c #362300",
"2*	c #372300",
"3*	c #332400",
"4*	c #312500",
"5*	c #451E00",
"6*	c #5C1E02",
"7*	c #5F2003",
"8*	c #4B1900",
"9*	c #4F1900",
"0*	c #551900",
"a*	c #571701",
"b*	c #5A1701",
"c*	c #641602",
"d*	c #611803",
"e*	c #5A1702",
"f*	c #4B1600",
"g*	c #461801",
"h*	c #381600",
"i*	c #351600",
"j*	c #471801",
"k*	c #5B1702",
"l*	c #621803",
"m*	c #591701",
"n*	c #581701",
"o*	c #541900",
"p*	c #431B00",
"q*	c #472101",
"r*	c #651F03",
"s*	c #501E01",
"t*	c #312600",
"u*	c #561D01",
"v*	c #522003",
"w*	c #4C1B00",
"x*	c #531A00",
"y*	c #5A1900",
"z*	c #5D1800",
"A*	c #5F1700",
"B*	c #621601",
"C*	c #6B1A05",
"D*	c #4E1801",
"E*	c #471700",
"F*	c #451600",
"G*	c #341700",
"H*	c #321600",
"I*	c #3B1500",
"J*	c #451500",
"K*	c #421600",
"L*	c #611602",
"M*	c #731602",
"N*	c #6B1601",
"O*	c #7A1906",
"P*	c #8F1D0C",
"Q*	c #971E0E",
"R*	c #A72215",
"S*	c #A82213",
"T*	c #A62112",
"U*	c #A51F10",
"V*	c #9B1E0E",
"W*	c #711701",
"X*	c #6E1600",
"Y*	c #6D1600",
"Z*	c #6D1801",
"`*	c #501A00",
" =	c #471B00",
".=	c #401E00",
"+=	c #382101",
"@=	c #531D01",
"#=	c #591D02",
"$=	c #461D00",
"%=	c #382300",
"&=	c #322500",
"*=	c #382200",
"==	c #461E00",
"-=	c #501C01",
";=	c #3E2001",
">=	c #4E1A00",
",=	c #511B00",
"'=	c #6B1A03",
")=	c #751903",
"!=	c #6A1701",
"~=	c #651600",
"{=	c #691600",
"]=	c #931E0E",
"^=	c #9F2214",
"/=	c #9E2314",
"(=	c #A12416",
"_=	c #9A2317",
":=	c #8E1F10",
"<=	c #8E2112",
"[=	c #7C1A09",
"}=	c #701602",
"|=	c #791907",
"1=	c #691805",
"2=	c #481400",
"3=	c #4B1400",
"4=	c #491400",
"5=	c #6B1806",
"6=	c #791807",
"7=	c #801C0B",
"8=	c #902112",
"9=	c #8F2011",
"0=	c #9C2316",
"a=	c #A02416",
"b=	c #9E2214",
"c=	c #8B1C0C",
"d=	c #681500",
"e=	c #641500",
"f=	c #6C1701",
"g=	c #771A04",
"h=	c #621901",
"i=	c #511900",
"j=	c #4D1B00",
"k=	c #491E01",
"l=	c #541C01",
"m=	c #521D01",
"n=	c #372301",
"o=	c #382301",
"p=	c #531C01",
"q=	c #5C1800",
"r=	c #701600",
"s=	c #6C1700",
"t=	c #6E1700",
"u=	c #801905",
"v=	c #A01F10",
"w=	c #A62010",
"x=	c #A72212",
"y=	c #A82214",
"z=	c #A32113",
"A=	c #931D0D",
"B=	c #8E1D0C",
"C=	c #6B1602",
"D=	c #6E1601",
"E=	c #751603",
"F=	c #471500",
"G=	c #431500",
"H=	c #4F1500",
"I=	c #581501",
"J=	c #5F1601",
"K=	c #681702",
"L=	c #6B1603",
"M=	c #6A1703",
"N=	c #671602",
"O=	c #681703",
"P=	c #6E1803",
"Q=	c #671701",
"R=	c #621701",
"S=	c #571900",
"T=	c #5D1901",
"U=	c #621A02",
"V=	c #611C02",
"W=	c #601B02",
"X=	c #611B02",
"Y=	c #5E1C02",
"Z=	c #4F1C01",
"`=	c #4C1B01",
" -	c #4C1D00",
".-	c #3C2101",
"+-	c #402001",
"@-	c #481C00",
"#-	c #481B00",
"$-	c #621C02",
"%-	c #641C02",
"&-	c #651D02",
"*-	c #5B1A00",
"=-	c #601701",
"--	c #641701",
";-	c #6F1704",
">-	c #6B1705",
",-	c #671704",
"'-	c #661804",
")-	c #681705",
"!-	c #681604",
"~-	c #651703",
"{-	c #5B1501",
"]-	c #5C1501",
"^-	c #5B1500",
"/-	c #5B1400",
"(-	c #5D1400",
"_-	c #591400",
":-	c #5B1401",
"<-	c #681704",
"[-	c #6D1805",
"}-	c #6B1703",
"|-	c #5C1701",
"1-	c #541800",
"2-	c #5E1A01",
"3-	c #661C02",
"4-	c #631C02",
"5-	c #5A1C02",
"6-	c #421F00",
"7-	c #4D1F01",
"8-	c #4C1C01",
"9-	c #4D1C01",
"0-	c #601C02",
"a-	c #601700",
"b-	c #6A1702",
"c-	c #6C1803",
"d-	c #691803",
"e-	c #521500",
"f-	c #531702",
"g-	c #371400",
"h-	c #301400",
"i-	c #2F1400",
"j-	c #2F1500",
"k-	c #331500",
"l-	c #3D1500",
"m-	c #3E1500",
"n-	c #3D1400",
"o-	c #3C1500",
"p-	c #391400",
"q-	c #361500",
"r-	c #331700",
"s-	c #331900",
"t-	c #421D01",
"u-	c #3C2001",
"v-	c #3E2101",
"w-	c #361A00",
"x-	c #321800",
"y-	c #341500",
"z-	c #3B1400",
"A-	c #381400",
"B-	c #3A1500",
"C-	c #381300",
"D-	c #321300",
"E-	c #311400",
"F-	c #321400",
"G-	c #4E1401",
"H-	c #351400",
"I-	c #411500",
"J-	c #391500",
"K-	c #371500",
"L-	c #3A1400",
"M-	c #361400",
"N-	c #361900",
"O-	c #392200",
"P-	c #471D01",
"Q-	c #451D01",
"R-	c #351900",
"S-	c #371600",
"T-	c #3B1600",
"U-	c #311500",
"V-	c #301401",
"W-	c #451501",
"X-	c #5C1502",
"Y-	c #811D0B",
"Z-	c #461502",
"`-	c #2D1400",
" ;	c #2E1400",
".;	c #2D1500",
"+;	c #2D1600",
"@;	c #381401",
"#;	c #601F12",
"$;	c #7B3229",
"%;	c #7F3329",
"&;	c #78261B",
"*;	c #751D0C",
"=;	c #741906",
"-;	c #711A05",
";;	c #721B07",
">;	c #721B06",
",;	c #6F1B05",
"';	c #6A1A04",
");	c #611802",
"!;	c #481C01",
"~;	c #3A2101",
"{;	c #1D2200",
"];	c #292600",
"^;	c #541901",
"/;	c #611A02",
"(;	c #661902",
"_;	c #6C1C05",
":;	c #6C1A05",
"<;	c #6F1904",
"[;	c #701B08",
"};	c #6D1B0B",
"|;	c #7A2C24",
"1;	c #81342F",
"2;	c #66251C",
"3;	c #361301",
"4;	c #301301",
"5;	c #2E1301",
"6;	c #2F1300",
"7;	c #321200",
"8;	c #391300",
"9;	c #711504",
"0;	c #3F1301",
"a;	c #311201",
"b;	c #331400",
"c;	c #331300",
"d;	c #3A1302",
"e;	c #5D251B",
"f;	c #6D2E26",
"g;	c #66231A",
"h;	c #611907",
"i;	c #621905",
"j;	c #601903",
"k;	c #5E1A03",
"l;	c #5C1A02",
"m;	c #551A02",
"n;	c #491901",
"o;	c #352101",
"p;	c #192000",
"q;	c #372101",
"r;	c #3F2101",
"s;	c #3F1E01",
"t;	c #401D01",
"u;	c #411C01",
"v;	c #521801",
"w;	c #5F1A03",
"x;	c #631904",
"y;	c #641A05",
"z;	c #631803",
"A;	c #661D0C",
"B;	c #69261B",
"C;	c #6C2D22",
"D;	c #64281D",
"E;	c #461605",
"F;	c #341400",
"G;	c #301500",
"H;	c #2F1600",
"I;	c #2E1401",
"J;	c #6C1907",
"K;	c #7E1A09",
"L;	c #661805",
"M;	c #3E1401",
"N;	c #311401",
"O;	c #481606",
"P;	c #9B271F",
"Q;	c #C93A39",
"R;	c #C23530",
"S;	c #A3251A",
"T;	c #931B0B",
"U;	c #921908",
"V;	c #8D1A08",
"W;	c #8B1C0A",
"X;	c #891D0A",
"Y;	c #801C09",
"Z;	c #791C06",
"`;	c #6E1903",
" >	c #5F1801",
".>	c #4E1B00",
"+>	c #5B1D01",
"@>	c #5E1D02",
"#>	c #5B1E02",
"$>	c #551F02",
"%>	c #591E02",
"&>	c #5A1D01",
"*>	c #5A1C01",
"=>	c #591C01",
"->	c #541D01",
";>	c #551A00",
">>	c #5B1A01",
",>	c #6C1A03",
"'>	c #831B05",
")>	c #891B06",
"!>	c #891A06",
"~>	c #8F1906",
"{>	c #911B09",
"]>	c #911B0C",
"^>	c #B1322E",
"/>	c #CB4548",
"(>	c #A63230",
"_>	c #3F1503",
":>	c #2F1301",
"<>	c #321201",
"[>	c #331301",
"}>	c #311301",
"|>	c #3A1201",
"1>	c #601502",
"2>	c #3F1200",
"3>	c #331200",
"4>	c #301201",
"5>	c #311300",
"6>	c #59190B",
"7>	c #AF3836",
"8>	c #CB474A",
"9>	c #AF302B",
"0>	c #951D0E",
"a>	c #961B0B",
"b>	c #921B07",
"c>	c #8F1C08",
"d>	c #8E1C07",
"e>	c #861C06",
"f>	c #791A03",
"g>	c #701B04",
"h>	c #561A00",
"i>	c #4C1C00",
"j>	c #5E1C01",
"k>	c #5C1D02",
"l>	c #541E02",
"m>	c #521F02",
"n>	c #5A1E02",
"o>	c #611E03",
"p>	c #5A1D02",
"q>	c #5B1D02",
"r>	c #551C01",
"s>	c #521B00",
"t>	c #561B00",
"u>	c #581A00",
"v>	c #5E1900",
"w>	c #661801",
"x>	c #771A05",
"y>	c #801C08",
"z>	c #891E0C",
"A>	c #901E0C",
"B>	c #911D0C",
"C>	c #931C0A",
"D>	c #981B09",
"E>	c #9B2112",
"F>	c #B12E25",
"G>	c #CD3E3B",
"H>	c #C03835",
"I>	c #791D11",
"J>	c #2F1401",
"K>	c #301300",
"L>	c #5D1704",
"M>	c #5E1704",
"N>	c #591702",
"O>	c #571401",
"P>	c #571501",
"Q>	c #561401",
"R>	c #601603",
"S>	c #6E1504",
"T>	c #791606",
"U>	c #522318",
"V>	c #AD3A36",
"W>	c #B02C29",
"X>	c #A11D16",
"Y>	c #911403",
"Z>	c #861301",
"`>	c #821401",
" ,	c #781401",
".,	c #711500",
"+,	c #6E1500",
"@,	c #661500",
"#,	c #4A1D01",
"$,	c #571D01",
"%,	c #541E01",
"&,	c #461D01",
"*,	c #451C01",
"=,	c #451A01",
"-,	c #332001",
";,	c #342101",
">,	c #581C02",
",,	c #441E00",
"',	c #661600",
"),	c #731400",
"!,	c #7F1301",
"~,	c #871201",
"{,	c #961C11",
"],	c #A52624",
"^,	c #BA4643",
"/,	c #471D11",
"(,	c #3A1301",
"_,	c #721403",
":,	c #751404",
"<,	c #641502",
"[,	c #591301",
"},	c #541301",
"|,	c #531301",
"1,	c #511301",
"2,	c #521501",
"3,	c #471301",
"4,	c #471201",
"5,	c #491201",
"6,	c #4E1200",
"7,	c #5E1402",
"8,	c #6E1403",
"9,	c #631403",
"0,	c #361300",
"a,	c #6C3128",
"b,	c #B33838",
"c,	c #A82A27",
"d,	c #851301",
"e,	c #7E1401",
"f,	c #761400",
"g,	c #711400",
"h,	c #6C1500",
"i,	c #631600",
"j,	c #501D01",
"k,	c #241E00",
"l,	c #411D01",
"m,	c #302001",
"n,	c #341C00",
"o,	c #401B01",
"p,	c #5D1D01",
"q,	c #471D00",
"r,	c #721500",
"s,	c #791401",
"t,	c #831401",
"u,	c #871301",
"v,	c #9A180A",
"w,	c #AB2621",
"x,	c #B83230",
"y,	c #91352D",
"z,	c #3A1604",
"A,	c #561503",
"B,	c #6C1505",
"C,	c #621503",
"D,	c #4D1501",
"E,	c #791602",
"F,	c #C52211",
"G,	c #C01A09",
"H,	c #BE1604",
"I,	c #C11603",
"J,	c #CD1E10",
"K,	c #CB2014",
"L,	c #AB190C",
"M,	c #AE1C0B",
"N,	c #4E1602",
"O,	c #582B20",
"P,	c #C44A49",
"Q,	c #AA2621",
"R,	c #981101",
"S,	c #951201",
"T,	c #901301",
"U,	c #8E1301",
"V,	c #851401",
"W,	c #7E1501",
"X,	c #7B1501",
"Y,	c #771601",
"Z,	c #6D1700",
"`,	c #621A01",
" '	c #4F1B00",
".'	c #4A1C00",
"+'	c #581C01",
"@'	c #5C1C02",
"#'	c #701D03",
"$'	c #731B03",
"%'	c #6D1B02",
"&'	c #621B01",
"*'	c #5C1B01",
"='	c #4A1D00",
"-'	c #3D2100",
";'	c #432000",
">'	c #422000",
",'	c #3F2100",
"''	c #412100",
")'	c #442000",
"!'	c #471F00",
"~'	c #401F00",
"{'	c #581B00",
"]'	c #641A01",
"^'	c #6B1B02",
"/'	c #711B03",
"('	c #781D04",
"_'	c #6D1C02",
":'	c #511D00",
"<'	c #4E1C00",
"['	c #541B00",
"}'	c #611800",
"|'	c #641700",
"1'	c #6A1600",
"2'	c #801401",
"3'	c #8B1201",
"4'	c #911101",
"5'	c #961201",
"6'	c #991A0F",
"7'	c #C65553",
"8'	c #4A2116",
"9'	c #431201",
"0'	c #961202",
"a'	c #B31506",
"b'	c #C81A0B",
"c'	c #CC1F10",
"d'	c #C21907",
"e'	c #BE1504",
"f'	c #BA1603",
"g'	c #BD1805",
"h'	c #B91603",
"i'	c #BC1603",
"j'	c #C01906",
"k'	c #C61D0D",
"l'	c #C1190A",
"m'	c #AB1405",
"n'	c #871202",
"o'	c #3E1300",
"p'	c #733D34",
"q'	c #BD4646",
"r'	c #981609",
"s'	c #941201",
"t'	c #901201",
"u'	c #881301",
"v'	c #821301",
"w'	c #781501",
"x'	c #661700",
"y'	c #621800",
"z'	c #5F1800",
"A'	c #5D1900",
"B'	c #4B1C00",
"C'	c #511C00",
"D'	c #4F1D00",
"E'	c #4F1F01",
"F'	c #731C02",
"G'	c #741C03",
"H'	c #691A02",
"I'	c #641B01",
"J'	c #5A1A00",
"K'	c #452000",
"L'	c #3A2200",
"M'	c #3E2100",
"N'	c #5A1B01",
"O'	c #5F1B01",
"P'	c #6B1B01",
"Q'	c #711B02",
"R'	c #6D1D02",
"S'	c #511D01",
"T'	c #491C00",
"U'	c #4F1A00",
"V'	c #591A00",
"W'	c #601901",
"X'	c #661800",
"Y'	c #6B1700",
"Z'	c #771501",
"`'	c #7A1501",
" )	c #861401",
".)	c #991102",
"+)	c #B93737",
"@)	c #A84843",
"#)	c #3E1908",
"$)	c #351300",
"%)	c #821B07",
"&)	c #A21708",
"*)	c #B51C10",
"=)	c #C71D0F",
"-)	c #C41A08",
";)	c #BE1703",
">)	c #BC1804",
",)	c #BE1F0E",
"')	c #BB1E0D",
"))	c #AF180A",
"!)	c #A71607",
"~)	c #A41505",
"{)	c #A51507",
"])	c #B51F13",
"^)	c #B31F15",
"/)	c #B1180B",
"()	c #BB1907",
"_)	c #531502",
":)	c #572014",
"<)	c #BD3631",
"[)	c #AD1F16",
"})	c #A01201",
"|)	c #9A1201",
"1)	c #961301",
"2)	c #8F1301",
"3)	c #751501",
"4)	c #731701",
"5)	c #671801",
"6)	c #5E1A00",
"7)	c #501B00",
"8)	c #551E01",
"9)	c #611C01",
"0)	c #711C03",
"a)	c #721D03",
"b)	c #651B01",
"c)	c #5F1B00",
"d)	c #571A00",
"e)	c #471C00",
"f)	c #461F00",
"g)	c #631A01",
"h)	c #6B1901",
"i)	c #7C1D05",
"j)	c #7D1E06",
"k)	c #751C03",
"l)	c #701C02",
"m)	c #5F1900",
"n)	c #671700",
"o)	c #811401",
"p)	c #8B1301",
"q)	c #8F1201",
"r)	c #911201",
"s)	c #941101",
"t)	c #9D1201",
"u)	c #9F1609",
"v)	c #BA423D",
"w)	c #481C10",
"x)	c #491300",
"y)	c #B61704",
"z)	c #B91607",
"A)	c #AE190B",
"B)	c #AF1D11",
"C)	c #A11709",
"D)	c #9C1506",
"E)	c #991506",
"F)	c #9F1507",
"G)	c #9B1406",
"H)	c #9D1406",
"I)	c #A4170A",
"J)	c #B41E13",
"K)	c #B4190C",
"L)	c #BB1606",
"M)	c #A61604",
"N)	c #421300",
"O)	c #6F342B",
"P)	c #B53734",
"Q)	c #9E1405",
"R)	c #9B1101",
"S)	c #931101",
"T)	c #871401",
"U)	c #7F1401",
"V)	c #751500",
"W)	c #6D1500",
"X)	c #651801",
"Y)	c #611901",
"Z)	c #4D1C00",
"`)	c #4E1D00",
" !	c #562001",
".!	c #741B03",
"+!	c #661901",
"@!	c #4A1E00",
"#!	c #5D1B01",
"$!	c #711D03",
"%!	c #531E01",
"&!	c #501C00",
"*!	c #631901",
"=!	c #681801",
"-!	c #6E1801",
";!	c #731600",
">!	c #771500",
",!	c #7F1501",
"'!	c #971201",
")!	c #9B1201",
"!!	c #A21202",
"~!	c #B82C27",
"{!	c #A63730",
"]!	c #3F1604",
"^!	c #371300",
"/!	c #891905",
"(!	c #B51506",
"_!	c #B51D12",
":!	c #B92117",
"<!	c #B11C10",
"[!	c #A41404",
"}!	c #A51405",
"|!	c #AC1709",
"1!	c #A9180A",
"2!	c #A71708",
"3!	c #A61607",
"4!	c #A51707",
"5!	c #A61809",
"6!	c #A51708",
"7!	c #A21505",
"8!	c #AC1403",
"9!	c #CC220F",
"0!	c #5D1602",
"a!	c #581807",
"b!	c #B52518",
"c!	c #B21809",
"d!	c #A81201",
"e!	c #A11201",
"f!	c #9C1201",
"g!	c #7A1601",
"h!	c #741701",
"i!	c #6F1801",
"j!	c #6A1901",
"k!	c #601A01",
"l!	c #5C1A00",
"m!	c #691B02",
"n!	c #6E1B02",
"o!	c #481D00",
"p!	c #5C1900",
"q!	c #641801",
"r!	c #761C04",
"s!	c #651A01",
"t!	c #531B00",
"u!	c #5D1A00",
"v!	c #6F1701",
"w!	c #741601",
"x!	c #7D1501",
"y!	c #8C1301",
"z!	c #931301",
"A!	c #971101",
"B!	c #9A1101",
"C!	c #A31101",
"D!	c #A51102",
"E!	c #AD241A",
"F!	c #471605",
"G!	c #4C1201",
"H!	c #C01A07",
"I!	c #B61405",
"J!	c #A01506",
"K!	c #9F1709",
"L!	c #9E1608",
"M!	c #9B1608",
"N!	c #991709",
"O!	c #9B160A",
"P!	c #9A1709",
"Q!	c #9F1708",
"R!	c #A01505",
"S!	c #BD1505",
"T!	c #B21A07",
"U!	c #451201",
"V!	c #6C2317",
"W!	c #A81D13",
"X!	c #A11101",
"Y!	c #891301",
"Z!	c #721601",
"`!	c #631801",
" ~	c #601800",
".~	c #581B01",
"+~	c #4F1C00",
"@~	c #551B00",
"#~	c #5C1C01",
"$~	c #6F1B02",
"%~	c #771D04",
"&~	c #611900",
"*~	c #541B01",
"=~	c #571B00",
"-~	c #5B1B00",
";~	c #6A1801",
">~	c #701801",
",~	c #8A1301",
"'~	c #971301",
")~	c #A31201",
"!~	c #AB1302",
"~~	c #B51D11",
"{~	c #A12519",
"]~	c #411401",
"^~	c #3B1300",
"/~	c #951E09",
"(~	c #A61403",
"_~	c #A21606",
":~	c #A71709",
"<~	c #A61708",
"[~	c #A51607",
"}~	c #9B1505",
"|~	c #A11708",
"1~	c #A11909",
"2~	c #A11707",
"3~	c #A11605",
"4~	c #A81302",
"5~	c #BF1B08",
"6~	c #601401",
"7~	c #511502",
"8~	c #9C1809",
"9~	c #AF1505",
"0~	c #A51301",
"a~	c #A21201",
"b~	c #9E1201",
"c~	c #941301",
"d~	c #811501",
"e~	c #7E1602",
"f~	c #791702",
"g~	c #691901",
"h~	c #681901",
"i~	c #591B00",
"j~	c #5A1B00",
"k~	c #601D01",
"l~	c #581D01",
"m~	c #701B02",
"n~	c #591A01",
"o~	c #751D05",
"p~	c #6E1A03",
"q~	c #5F1A00",
"r~	c #611A01",
"s~	c #641901",
"t~	c #721701",
"u~	c #781601",
"v~	c #981201",
"w~	c #991201",
"x~	c #9C1101",
"y~	c #9E1101",
"z~	c #A61101",
"A~	c #A81102",
"B~	c #931607",
"C~	c #401301",
"D~	c #351200",
"E~	c #511300",
"F~	c #B21704",
"G~	c #B31404",
"H~	c #A21607",
"I~	c #9F1608",
"J~	c #9A1607",
"K~	c #931707",
"L~	c #8F1706",
"M~	c #911708",
"N~	c #911707",
"O~	c #951607",
"P~	c #9B1607",
"Q~	c #A01608",
"R~	c #A31607",
"S~	c #B61403",
"T~	c #A61704",
"U~	c #4A1200",
"V~	c #341300",
"W~	c #5E1504",
"X~	c #961405",
"Y~	c #A81101",
"Z~	c #A41101",
"`~	c #921201",
" {	c #8D1301",
".{	c #751701",
"+{	c #701701",
"@{	c #6D1701",
"#{	c #651901",
"${	c #551C00",
"%{	c #671901",
"&{	c #721C04",
"*{	c #6C1B03",
"={	c #471900",
"-{	c #5A1A01",
";{	c #601C01",
">{	c #5B1B01",
",{	c #711801",
"'{	c #7E1601",
"){	c #881401",
"!{	c #AB1403",
"~{	c #AB1607",
"{{	c #8C1A09",
"]{	c #3F1300",
"^{	c #3D1300",
"/{	c #931905",
"({	c #B61806",
"_{	c #A31403",
":{	c #A21808",
"<{	c #9E1505",
"[{	c #941606",
"}{	c #8A1705",
"|{	c #861604",
"1{	c #861605",
"2{	c #8E1807",
"3{	c #901705",
"4{	c #911704",
"5{	c #961604",
"6{	c #A21503",
"7{	c #5D1301",
"8{	c #711201",
"9{	c #781701",
"0{	c #6D1901",
"a{	c #5F1A01",
"b{	c #5C1B00",
"c{	c #611B01",
"d{	c #5B1C01",
"e{	c #4B1D00",
"f{	c #6C1A02",
"g{	c #481900",
"h{	c #751B03",
"i{	c #6E1C03",
"j{	c #771701",
"k{	c #801501",
"l{	c #A01101",
"m{	c #A21000",
"n{	c #B01001",
"o{	c #A91303",
"p{	c #741503",
"q{	c #551400",
"r{	c #981502",
"s{	c #9D1502",
"t{	c #911604",
"u{	c #8D1705",
"v{	c #871603",
"w{	c #7E1603",
"x{	c #751502",
"y{	c #771604",
"z{	c #781503",
"A{	c #821604",
"B{	c #8A1604",
"C{	c #951504",
"D{	c #A41502",
"E{	c #931502",
"F{	c #4E1400",
"G{	c #AB1303",
"H{	c #AB1001",
"I{	c #9F1101",
"J{	c #931201",
"K{	c #7C1601",
"L{	c #761801",
"M{	c #721801",
"N{	c #5E1B01",
"O{	c #721B03",
"P{	c #731902",
"Q{	c #5E1901",
"R{	c #6C1A01",
"S{	c #5F1C01",
"T{	c #4E1E01",
"U{	c #4D1D00",
"V{	c #601B01",
"W{	c #7B1601",
"X{	c #891401",
"Y{	c #9F1302",
"Z{	c #581201",
"`{	c #3C1400",
" ]	c #851402",
".]	c #A21502",
"+]	c #931705",
"@]	c #921806",
"#]	c #8F1806",
"$]	c #891604",
"%]	c #8E1606",
"&]	c #6B1503",
"*]	c #6B1401",
"=]	c #6E1502",
"-]	c #771804",
";]	c #761703",
">]	c #7A1703",
",]	c #7C1704",
"']	c #7A1502",
")]	c #621402",
"!]	c #B01707",
"~]	c #BC1A09",
"{]	c #BC1C0C",
"]]	c #BF1E0D",
"^]	c #BF1D0C",
"/]	c #AD1403",
"(]	c #771801",
"_]	c #711901",
":]	c #691801",
"<]	c #651C02",
"[]	c #671A01",
"}]	c #731A02",
"|]	c #4A2001",
"1]	c #482001",
"2]	c #412000",
"3]	c #6F1902",
"4]	c #691B01",
"5]	c #691D03",
"6]	c #561C00",
"7]	c #6A1D02",
"8]	c #661A01",
"9]	c #AA1202",
"0]	c #BB1806",
"a]	c #C01705",
"b]	c #C11403",
"c]	c #C91403",
"d]	c #A11203",
"e]	c #611301",
"f]	c #371200",
"g]	c #561300",
"h]	c #741401",
"i]	c #801602",
"j]	c #7B1602",
"k]	c #761602",
"l]	c #721502",
"m]	c #6E1401",
"n]	c #691401",
"o]	c #6A1401",
"p]	c #681400",
"q]	c #701401",
"r]	c #751602",
"s]	c #7A1603",
"t]	c #7F1602",
"u]	c #831602",
"v]	c #391200",
"w]	c #6D1302",
"x]	c #AF1303",
"y]	c #C61403",
"z]	c #BD1402",
"A]	c #BA1705",
"B]	c #B31504",
"C]	c #831501",
"D]	c #6B1801",
"E]	c #671C02",
"F]	c #621C01",
"G]	c #491E00",
"H]	c #511F01",
"I]	c #701901",
"J]	c #681A01",
"K]	c #631B01",
"L]	c #791601",
"M]	c #821501",
"N]	c #BA1C0A",
"O]	c #B91D0B",
"P]	c #B81A09",
"Q]	c #BB1909",
"R]	c #A01606",
"S]	c #7D1602",
"T]	c #7F1804",
"U]	c #7A1804",
"V]	c #781704",
"W]	c #6A1402",
"X]	c #691501",
"Y]	c #5A1401",
"Z]	c #511401",
"`]	c #4F1401",
" ^	c #4C1401",
".^	c #4E1501",
"+^	c #4F1501",
"@^	c #401400",
"#^	c #451401",
"$^	c #6D1501",
"%^	c #941904",
"&^	c #AA1B08",
"*^	c #BE1E0C",
"=^	c #D01E0E",
"-^	c #CA1805",
";^	c #C81402",
">^	c #C71402",
",^	c #C51403",
"'^	c #C11704",
")^	c #BC1704",
"!^	c #AD1804",
"~^	c #8C1904",
"{^	c #661701",
"]^	c #791802",
"^^	c #731901",
"/^	c #6C1901",
"(^	c #6C1B01",
"_^	c #651C01",
":^	c #641D02",
"<^	c #511E01",
"[^	c #4F2102",
"}^	c #5C1D01",
"|^	c #5F1C02",
"1^	c #681B02",
"2^	c #6B1A01",
"3^	c #711902",
"4^	c #741902",
"5^	c #771802",
"6^	c #601601",
"7^	c #821601",
"8^	c #AA1401",
"9^	c #BB1501",
"0^	c #C01502",
"a^	c #C31402",
"b^	c #C51502",
"c^	c #CC1603",
"d^	c #D11907",
"e^	c #C01704",
"f^	c #B21503",
"g^	c #8D1704",
"h^	c #631401",
"i^	c #401200",
"j^	c #341200",
"k^	c #401300",
"l^	c #4D1300",
"m^	c #531401",
"n^	c #4F1300",
"o^	c #4C1300",
"p^	c #4E1300",
"q^	c #501400",
"r^	c #541401",
"s^	c #521300",
"t^	c #411300",
"u^	c #481200",
"v^	c #761401",
"w^	c #A01704",
"x^	c #BC1503",
"y^	c #CA1806",
"z^	c #D41907",
"A^	c #C71502",
"B^	c #C31501",
"C^	c #C01401",
"D^	c #BD1502",
"E^	c #B41501",
"F^	c #A11502",
"G^	c #6C1601",
"H^	c #741801",
"I^	c #6F1901",
"J^	c #691A01",
"K^	c #5D1D02",
"L^	c #4C1D01",
"M^	c #592002",
"N^	c #631D02",
"O^	c #6A1B02",
"P^	c #6F1C03",
"Q^	c #741802",
"R^	c #981804",
"S^	c #AE1703",
"T^	c #C11604",
"U^	c #C41402",
"V^	c #C61402",
"W^	c #CF1A08",
"X^	c #D12010",
"Y^	c #BC1E0C",
"Z^	c #AD1B07",
"`^	c #911804",
" /	c #4C1400",
"./	c #551501",
"+/	c #511501",
"@/	c #581401",
"#/	c #681300",
"$/	c #4A1300",
"%/	c #471300",
"&/	c #431300",
"*/	c #361200",
"=/	c #461300",
"-/	c #531400",
";/	c #7D1401",
">/	c #7E1301",
",/	c #7D1702",
"'/	c #7A1903",
")/	c #6F1903",
"!/	c #3C1F01",
"~/	c #3B1F01",
"{/	c #471C01",
"]/	c #551A01",
"^/	c #691802",
"//	c #6E1802",
"(/	c #7C1803",
"_/	c #871602",
":/	c #891501",
"</	c #831301",
"[/	c #811301",
"}/	c #7D1301",
"|/	c #661400",
"1/	c #3D1200",
"2/	c #3A1300",
"3/	c #501200",
"4/	c #5B1200",
"5/	c #4F1200",
"6/	c #4B1200",
"7/	c #441200",
"8/	c #461200",
"9/	c #5E1300",
"0/	c #8A1401",
"a/	c #8D1401",
"b/	c #8E1401",
"c/	c #911502",
"d/	c #891703",
"e/	c #791903",
"f/	c #6B1A02",
"g/	c #3A1F01",
"h/	c #3D1E01",
"i/	c #6C1902",
"j/	c #781903",
"k/	c #7D1802",
"l/	c #891502",
"m/	c #8E1502",
"n/	c #881501",
"o/	c #6C1401",
"p/	c #571400",
"q/	c #451400",
"r/	c #6B1300",
"s/	c #831100",
"t/	c #631300",
"u/	c #5B1300",
"v/	c #571300",
"w/	c #451300",
"x/	c #351500",
"y/	c #401700",
"z/	c #3E1800",
"A/	c #3B1800",
"B/	c #381800",
"C/	c #371800",
"D/	c #391900",
"E/	c #391800",
"F/	c #3A1700",
"G/	c #3B1700",
"H/	c #3E1600",
"I/	c #431600",
"J/	c #3E1200",
"K/	c #411200",
"L/	c #501300",
"M/	c #5D1200",
"N/	c #601200",
"O/	c #721100",
"P/	c #611200",
"Q/	c #591200",
"R/	c #551300",
"S/	c #441300",
"T/	c #3C1200",
"U/	c #3B1200",
"V/	c #3F1600",
"W/	c #461500",
"X/	c #411600",
"Y/	c #401600",
"Z/	c #3D1700",
"`/	c #3C1700",
" (	c #3A1800",
".(	c #411800",
"+(	c #4A1500",
"@(	c #381500",
"#(	c #591300",
"$(	c #711200",
"%(	c #881101",
"&(	c #B11607",
"*(	c #A51303",
"=(	c #991101",
"-(	c #961200",
";(	c #901101",
">(	c #831200",
",(	c #701200",
"'(	c #5F1300",
")(	c #691300",
"!(	c #6D1200",
"~(	c #6E1200",
"{(	c #691200",
"](	c #661200",
"^(	c #5D1300",
"/(	c #2E1500",
"((	c #2C1700",
"_(	c #2D1800",
":(	c #471701",
"<(	c #7F1B05",
"[(	c #851D07",
"}(	c #7E1C05",
"|(	c #761C05",
"1(	c #721E05",
"2(	c #6A1D05",
"3(	c #4B1C01",
"4(	c #711E06",
"5(	c #771F08",
"6(	c #7C1D07",
"7(	c #7E1D07",
"8(	c #7C1903",
"9(	c #6A1802",
"0(	c #5D1701",
"a(	c #361600",
"b(	c #331600",
"c(	c #2E1600",
"d(	c #6D1300",
"e(	c #731200",
"f(	c #751200",
"g(	c #721200",
"h(	c #6D1100",
"i(	c #651200",
"j(	c #671200",
"k(	c #6A1200",
"l(	c #811200",
"m(	c #911000",
"n(	c #971000",
"o(	c #961000",
"p(	c #971202",
"q(	c #A61608",
"r(	c #8D1101",
"s(	c #8D1000",
"t(	c #8E1000",
"u(	c #881100",
"v(	c #5C1200",
"w(	c #561200",
"x(	c #5F1200",
"y(	c #541300",
"z(	c #421400",
"A(	c #2E1700",
"B(	c #301600",
"C(	c #791904",
"D(	c #7C1C06",
"E(	c #7B1D07",
"F(	c #791E08",
"G(	c #741F07",
"H(	c #651D04",
"I(	c #691E04",
"J(	c #721D05",
"K(	c #751D04",
"L(	c #7B1D06",
"M(	c #7F1D06",
"N(	c #761B04",
"O(	c #381700",
"P(	c #2F1800",
"Q(	c #2D1700",
"R(	c #4C1200",
"S(	c #521200",
"T(	c #551200",
"U(	c #581300",
"V(	c #6C1300",
"W(	c #801200",
"X(	c #8B1200",
"Y(	c #8E1200",
"Z(	c #951101",
"`(	c #9F1202",
" _	c #BA1B0E",
"._	c #D72415",
"+_	c #CD1A0B",
"@_	c #B51000",
"#_	c #B11001",
"$_	c #AF1001",
"%_	c #AB1101",
"&_	c #A61000",
"*_	c #9A1000",
"=_	c #9B1001",
"-_	c #B01100",
";_	c #B71201",
">_	c #BB1101",
",_	c #B81101",
"'_	c #B51101",
")_	c #B21201",
"!_	c #A11301",
"~_	c #732213",
"{_	c #7E1F0E",
"]_	c #821603",
"^_	c #961804",
"/_	c #921904",
"(_	c #8C1B05",
"__	c #7C1B04",
":_	c #262600",
"<_	c #801A04",
"[_	c #8C1A05",
"}_	c #901904",
"|_	c #8B1703",
"1_	c #7B1704",
"2_	c #811C09",
"3_	c #7C1D0B",
"4_	c #461501",
"5_	c #321500",
"6_	c #411400",
"7_	c #441500",
"8_	c #661300",
"9_	c #A21101",
"0_	c #B81001",
"a_	c #BB1001",
"b_	c #BE1001",
"c_	c #BD1001",
"d_	c #BC1001",
"e_	c #B51001",
"f_	c #A31000",
"g_	c #A01000",
"h_	c #A01001",
"i_	c #A91001",
"j_	c #AD0F00",
"k_	c #B20E00",
"l_	c #C11405",
"m_	c #D22014",
"n_	c #C31506",
"o_	c #B30E00",
"p_	c #A81001",
"q_	c #A41001",
"r_	c #A11000",
"s_	c #A81000",
"t_	c #C11001",
"u_	c #C31001",
"v_	c #C21001",
"w_	c #C01001",
"x_	c #511400",
"y_	c #571904",
"z_	c #721A07",
"A_	c #761905",
"B_	c #901704",
"C_	c #971905",
"D_	c #7A1A03",
"E_	c #5C1A01",
"F_	c #501A01",
"G_	c #491D00",
"H_	c #831C04",
"I_	c #901B04",
"J_	c #951905",
"K_	c #9A1805",
"L_	c #7C1603",
"M_	c #731E0D",
"N_	c #621F0E",
"O_	c #3C1501",
"P_	c #311600",
"Q_	c #3E1400",
"R_	c #6D1401",
"S_	c #B01201",
"T_	c #BA1201",
"U_	c #BF1101",
"V_	c #BE1101",
"W_	c #BB1201",
"X_	c #AB1000",
"Y_	c #9B1000",
"Z_	c #9D1001",
"`_	c #A71101",
" :	c #AD1001",
".:	c #B21000",
"+:	c #C01405",
"@:	c #D92113",
"#:	c #CF2013",
"$:	c #B00F00",
"%:	c #B31001",
"&:	c #B20F00",
"*:	c #AF0F00",
"=:	c #9F1001",
"-:	c #961101",
";:	c #8E1201",
">:	c #821201",
",:	c #771201",
"':	c #7F1302",
"):	c #611300",
"!:	c #591401",
"~:	c #881D0D",
"{:	c #AA281A",
"]:	c #A72516",
"^:	c #651902",
"/:	c #5B1901",
"(:	c #8A1804",
"_:	c #A52111",
"::	c #AD2619",
"<:	c #8A1B0B",
"[:	c #8C1302",
"}:	c #841200",
"|:	c #8C1101",
"1:	c #921101",
"2:	c #991000",
"3:	c #9C1000",
"4:	c #A41000",
"5:	c #AE1000",
"6:	c #AF1000",
"7:	c #AF0E00",
"8:	c #B00E00",
"9:	c #AC0F00",
"0:	c #AE0F01",
"a:	c #AC0E00",
"b:	c #AE0F00",
"c:	c #AD1000",
"d:	c #A21001",
"e:	c #8F1101",
"f:	c #841301",
"g:	c #7E1201",
"h:	c #671503",
"i:	c #962213",
"j:	c #AB2315",
"k:	c #9F1E0E",
"l:	c #851602",
"m:	c #711501",
"n:	c #6C1903",
"o:	c #521901",
"p:	c #471E00",
"q:	c #6F1A02",
"r:	c #791501",
"s:	c #861804",
"t:	c #A92718",
"u:	c #A52819",
"v:	c #791A0A",
"w:	c #4E1301",
"x:	c #6A1301",
"y:	c #751301",
"z:	c #801301",
"A:	c #9C1001",
"B:	c #A31001",
"C:	c #B10F00",
"D:	c #B41001",
"E:	c #B40F00",
"F:	c #B50F01",
"G:	c #C00F00",
"H:	c #B80F00",
"I:	c #B60F00",
"J:	c #A00F00",
"K:	c #9D1000",
"L:	c #991001",
"M:	c #981001",
"N:	c #9A1100",
"O:	c #BA1302",
"P:	c #7A1001",
"Q:	c #341501",
"R:	c #72190B",
"S:	c #AA2114",
"T:	c #A72112",
"U:	c #941C0A",
"V:	c #761501",
"W:	c #6B1500",
"X:	c #7D1502",
"Y:	c #9F1F0F",
"Z:	c #AA1E11",
"`:	c #7E1B0E",
" <	c #361501",
".<	c #791100",
"+<	c #BB0F01",
"@<	c #AB0F00",
"#<	c #981000",
"$<	c #A40F00",
"%<	c #B40E00",
"&<	c #B60E00",
"*<	c #B50E00",
"=<	c #A50F00",
"-<	c #980F00",
";<	c #AF0F01",
"><	c #681100",
",<	c #491602",
"'<	c #8B1A0C",
")<	c #A51F11",
"!<	c #871705",
"~<	c #971D0C",
"{<	c #A92112",
"]<	c #9F1E12",
"^<	c #611605",
"/<	c #941001",
"(<	c #9A1001",
"_<	c #9E1000",
":<	c #A60F00",
"<<	c #B71001",
"[<	c #B50F00",
"}<	c #BA0E00",
"|<	c #BC0E00",
"1<	c #C00E00",
"2<	c #B90E00",
"3<	c #9B0F00",
"4<	c #A11001",
"5<	c #941000",
"6<	c #9F1000",
"7<	c #B11000",
"8<	c #D51404",
"9<	c #8C1001",
"0<	c #531300",
"a<	c #381805",
"b<	c #AB3B31",
"c<	c #A71E13",
"d<	c #9B1C0C",
"e<	c #8C1705",
"f<	c #5A1800",
"g<	c #5F1600",
"h<	c #741500",
"i<	c #881704",
"j<	c #941807",
"k<	c #A61B0E",
"l<	c #BD3A34",
"m<	c #441606",
"n<	c #821001",
"o<	c #CE0E01",
"p<	c #AF0D00",
"q<	c #971001",
"r<	c #9C0F00",
"s<	c #A40E00",
"t<	c #B50D00",
"u<	c #B80E00",
"v<	c #A20E00",
"w<	c #951000",
"x<	c #9F0F00",
"y<	c #B40D00",
"z<	c #C91001",
"A<	c #6D1000",
"B<	c #6A2218",
"C<	c #BB332D",
"D<	c #A01B0C",
"E<	c #8F1807",
"F<	c #811602",
"G<	c #591B01",
"H<	c #9C1C0D",
"I<	c #AF251C",
"J<	c #8E3329",
"K<	c #AA1302",
"L<	c #C91202",
"M<	c #AA1001",
"N<	c #990F00",
"O<	c #BE0E00",
"P<	c #B70E00",
"Q<	c #AA0F00",
"R<	c #A30F00",
"S<	c #931000",
"T<	c #B01000",
"U<	c #CE1404",
"V<	c #3A1A08",
"W<	c #B3473F",
"X<	c #AB2218",
"Y<	c #A11C0D",
"Z<	c #731501",
"`<	c #621600",
" [	c #641A02",
".[	c #6C1B02",
"+[	c #581900",
"@[	c #611600",
"#[	c #861704",
"$[	c #9F1B0B",
"%[	c #A71A0C",
"&[	c #C13830",
"*[	c #481706",
"=[	c #511200",
"-[	c #8A1001",
";[	c #D31001",
">[	c #B10E00",
",[	c #921100",
"'[	c #921000",
")[	c #970F00",
"![	c #9F0E00",
"~[	c #AA0E00",
"{[	c #A80E00",
"][	c #A30E00",
"^[	c #9E0E00",
"/[	c #941100",
"([	c #961001",
"_[	c #D01001",
":[	c #760F00",
"<[	c #3C1300",
"[[	c #6F2319",
"}[	c #C2332A",
"|[	c #A51B0C",
"1[	c #981A09",
"2[	c #601600",
"3[	c #561B01",
"4[	c #6A1500",
"5[	c #901806",
"6[	c #A21D0E",
"7[	c #B62E26",
"8[	c #974137",
"9[	c #671100",
"0[	c #AE1303",
"a[	c #C81203",
"b[	c #A90F00",
"c[	c #BB0E00",
"d[	c #AD0E00",
"e[	c #B00D01",
"f[	c #AC0E01",
"g[	c #9A0F00",
"h[	c #951001",
"i[	c #951100",
"j[	c #C31202",
"k[	c #911001",
"l[	c #651300",
"m[	c #3D1A08",
"n[	c #B5483E",
"o[	c #AD2217",
"p[	c #A41B0C",
"q[	c #8C1603",
"r[	c #6F1500",
"s[	c #641600",
"t[	c #351B00",
"u[	c #801703",
"v[	c #A61A0C",
"w[	c #BF2F23",
"x[	c #4A1704",
"y[	c #571200",
"z[	c #8F1001",
"A[	c #CB0F01",
"B[	c #A10E00",
"C[	c #960F00",
"D[	c #9C0E00",
"E[	c #AE0E01",
"F[	c #AE0E00",
"G[	c #B20D00",
"H[	c #B00D00",
"I[	c #A70E00",
"J[	c #9A0E00",
"K[	c #A60E01",
"L[	c #CB1001",
"M[	c #801000",
"N[	c #6F2012",
"O[	c #C22B21",
"P[	c #971A0A",
"Q[	c #8F1604",
"R[	c #A51C0E",
"S[	c #B92E26",
"T[	c #994137",
"U[	c #A61001",
"V[	c #B91101",
"W[	c #AF0D01",
"X[	c #BA0D00",
"Y[	c #BD0E00",
"Z[	c #AE0D00",
"`[	c #A60E00",
" }	c #9D0F00",
".}	c #B60F01",
"+}	c #B70F01",
"@}	c #B70F00",
"#}	c #B71000",
"$}	c #D11302",
"%}	c #A70F01",
"&}	c #761200",
"*}	c #3B1A07",
"=}	c #B44236",
"-}	c #A81B0F",
";}	c #A41908",
">}	c #8F1503",
",}	c #721400",
"'}	c #681C02",
")}	c #5B1800",
"!}	c #611700",
"~}	c #671600",
"{}	c #A21A0A",
"]}	c #A01707",
"^}	c #BD261A",
"/}	c #4C1602",
"(}	c #641300",
"_}	c #A51101",
":}	c #D71001",
"<}	c #B90E01",
"[}	c #BA0F00",
"}}	c #BB0E01",
"|}	c #BA0E01",
"1}	c #B90F00",
"2}	c #A20F00",
"3}	c #9D0E00",
"4}	c #B10D00",
"5}	c #AC0D00",
"6}	c #B90D00",
"7}	c #B50E01",
"8}	c #B60E01",
"9}	c #B30F00",
"0}	c #B80E01",
"a}	c #D51101",
"b}	c #6E1B0A",
"c}	c #BE2317",
"d}	c #A31909",
"e}	c #971908",
"f}	c #6B1600",
"g}	c #631700",
"h}	c #5D1C01",
"i}	c #651700",
"j}	c #751401",
"k}	c #921604",
"l}	c #A51909",
"m}	c #B72920",
"n}	c #993E31",
"o}	c #861200",
"p}	c #B91001",
"q}	c #C41202",
"r}	c #B31000",
"s}	c #B30F01",
"t}	c #AA1000",
"u}	c #AE0D01",
"v}	c #B30D00",
"w}	c #BF0D01",
"x}	c #C60E01",
"y}	c #C40E01",
"z}	c #BE0F00",
"A}	c #C70E00",
"B}	c #C20E00",
"C}	c #C10F00",
"D}	c #C90F00",
"E}	c #C40F00",
"F}	c #C60F00",
"G}	c #C61000",
"H}	c #C51000",
"I}	c #C41000",
"J}	c #C31000",
"K}	c #C21000",
"L}	c #C11000",
"M}	c #BF0E00",
"N}	c #D71101",
"O}	c #A70F00",
"P}	c #381703",
"Q}	c #A2281D",
"R}	c #9F1404",
"S}	c #9F1605",
"T}	c #8E1503",
"U}	c #761500",
"V}	c #6C1600",
"W}	c #601900",
"X}	c #631800",
"Y}	c #881502",
"Z}	c #9E1908",
"`}	c #9F1504",
" |	c #BB2013",
".|	c #4C1502",
"+|	c #D41001",
"@|	c #C50F00",
"#|	c #C80F00",
"$|	c #C10E01",
"%|	c #C10D00",
"&|	c #B90D01",
"*|	c #C20D01",
"=|	c #B80D01",
"-|	c #BE0D00",
";|	c #C30E00",
">|	c #A80F00",
",|	c #C20E01",
"'|	c #C60E00",
")|	c #C80E00",
"!|	c #C70F00",
"~|	c #C30F00",
"{|	c #BF0F00",
"]|	c #C10E00",
"^|	c #D31101",
"/|	c #6E1907",
"(|	c #BD1F13",
"_|	c #A11807",
":|	c #991806",
"<|	c #7C1401",
"[|	c #701500",
"}|	c #6F1600",
"||	c #621700",
"1|	c #681700",
"2|	c #911603",
"3|	c #A91B0E",
"4|	c #8D2A1E",
"5|	c #891200",
"6|	c #CD1001",
"7|	c #C20F00",
"8|	c #C70E01",
"9|	c #C50D01",
"0|	c #D50E00",
"a|	c #D90F00",
"b|	c #D60E00",
"c|	c #D30E00",
"d|	c #CF0E00",
"e|	c #CD0F00",
"f|	c #D10F00",
"g|	c #CF0F00",
"h|	c #C81000",
"i|	c #C71000",
"j|	c #C41100",
"k|	c #C21100",
"l|	c #D51001",
"m|	c #6E1300",
"n|	c #351701",
"o|	c #9D1A07",
"p|	c #9E1302",
"q|	c #991504",
"r|	c #8F1602",
"s|	c #711A03",
"t|	c #6D1A04",
"u|	c #6E1902",
"v|	c #941503",
"w|	c #8C1401",
"x|	c #A01504",
"y|	c #AF1807",
"z|	c #481401",
"A|	c #C01000",
"B|	c #CA1000",
"C|	c #CB0F00",
"D|	c #CC0F00",
"E|	c #CE0E00",
"F|	c #D20F00",
"G|	c #CF0D01",
"H|	c #C90D00",
"I|	c #CE0D01",
"J|	c #D40E00",
"K|	c #D20E00",
"L|	c #CE0F00",
"M|	c #CA0F00",
"N|	c #681603",
"O|	c #B41606",
"P|	c #9A1403",
"Q|	c #8D1402",
"R|	c #8A1602",
"S|	c #6F1B03",
"T|	c #901603",
"U|	c #9A1504",
"V|	c #891A07",
"W|	c #2C1800",
"X|	c #7F1300",
"Y|	c #B41101",
"Z|	c #D00F00",
"`|	c #D10E00",
" 1	c #D70F00",
".1	c #DA0F00",
"+1	c #C50E00",
"@1	c #CB0D01",
"#1	c #CC1000",
"$1	c #C81100",
"%1	c #C71100",
"&1	c #D70F01",
"*1	c #751400",
"=1	c #971605",
"-1	c #9F1403",
";1	c #981504",
">1	c #951604",
",1	c #7A1C05",
"'1	c #731B06",
")1	c #721B04",
"!1	c #7A1A04",
"~1	c #981503",
"{1	c #931604",
"]1	c #A11606",
"^1	c #A61807",
"/1	c #441400",
"(1	c #D61000",
"_1	c #C91000",
":1	c #CA0D01",
"<1	c #CC0D01",
"[1	c #C90E01",
"}1	c #CC0E01",
"|1	c #CA0E01",
"11	c #C61100",
"21	c #481300",
"31	c #621502",
"41	c #AD1707",
"51	c #931603",
"61	c #901602",
"71	c #701601",
"81	c #242500",
"91	c #581A01",
"01	c #761C06",
"a1	c #771B05",
"b1	c #A41304",
"c1	c #831705",
"d1	c #B71101",
"e1	c #D00E00",
"f1	c #CB1000",
"g1	c #C40E00",
"h1	c #C80D01",
"i1	c #D40F00",
"j1	c #DC1000",
"k1	c #DD1301",
"l1	c #AE1101",
"m1	c #8B1605",
"n1	c #9D1605",
"o1	c #6C1801",
"p1	c #6D1902",
"q1	c #6A1700",
"r1	c #691700",
"s1	c #991A0A",
"t1	c #A71B0C",
"u1	c #9E1D0C",
"v1	c #AA1101",
"w1	c #BF1000",
"x1	c #DD1101",
"y1	c #D40E01",
"z1	c #DB0F01",
"A1	c #DD1201",
"B1	c #D51000",
"C1	c #D21001",
"D1	c #5E1603",
"E1	c #A91C0D",
"F1	c #A01A0A",
"G1	c #871704",
"H1	c #6B1902",
"I1	c #7C1501",
"J1	c #9B1807",
"K1	c #9F1706",
"L1	c #9E1504",
"M1	c #7A1604",
"N1	c #8E1400",
"O1	c #CB0E00",
"P1	c #DD1302",
"Q1	c #DE1201",
"R1	c #CD0E00",
"S1	c #CC1202",
"T1	c #DF2617",
"U1	c #DF1E0C",
"V1	c #CE1001",
"W1	c #CD1000",
"X1	c #D11000",
"Y1	c #D10F01",
"Z1	c #BD0E01",
"`1	c #771400",
" 2	c #7A1806",
".2	c #9F1E0F",
"+2	c #A12012",
"@2	c #731802",
"#2	c #861A05",
"$2	c #621801",
"%2	c #7D1903",
"&2	c #881B09",
"*2	c #A42315",
"=2	c #A61E11",
"-2	c #881B0B",
";2	c #6A1300",
">2	c #CA1100",
",2	c #CC1101",
"'2	c #DA2415",
")2	c #DD2718",
"!2	c #CE1B0A",
"~2	c #D01B0B",
"{2	c #DC2516",
"]2	c #D61E0E",
"^2	c #CB1100",
"/2	c #C91100",
"(2	c #B60D01",
"_2	c #521602",
":2	c #991E0E",
"<2	c #A21F11",
"[2	c #9B2010",
"}2	c #7E1804",
"|2	c #811903",
"12	c #6B1802",
"22	c #841A05",
"32	c #8F1B09",
"42	c #A11E10",
"52	c #9A1C0C",
"62	c #6E1805",
"72	c #D21302",
"82	c #DC2010",
"92	c #D81D0E",
"02	c #AC1101",
"a2	c #B91302",
"b2	c #C31D0C",
"c2	c #CE1101",
"d2	c #D31301",
"e2	c #DE1803",
"f2	c #DE1A03",
"g2	c #DD1903",
"h2	c #D61401",
"i2	c #D80F00",
"j2	c #6D1400",
"k2	c #301700",
"l2	c #571602",
"m2	c #931D0F",
"n2	c #A12517",
"o2	c #8E1D0D",
"p2	c #751702",
"q2	c #7B1903",
"r2	c #7C1A03",
"s2	c #6E1701",
"t2	c #801A08",
"u2	c #A62618",
"v2	c #962011",
"w2	c #631703",
"x2	c #DA0E00",
"y2	c #D41000",
"z2	c #E01401",
"A2	c #E11702",
"B2	c #DF1502",
"C2	c #D71302",
"D2	c #C91201",
"E2	c #B81B0B",
"F2	c #B71E0D",
"G2	c #B11705",
"H2	c #AF1201",
"I2	c #AD1201",
"J2	c #A01301",
"K2	c #AE1201",
"L2	c #B41201",
"M2	c #C02312",
"N2	c #C31C0D",
"O2	c #CF1101",
"P2	c #DC1302",
"Q2	c #E11502",
"R2	c #E31702",
"S2	c #E01301",
"T2	c #D90F01",
"U2	c #D90E00",
"V2	c #9B0E00",
"W2	c #7A1B09",
"X2	c #9F2314",
"Y2	c #9D2416",
"Z2	c #801A03",
"`2	c #721A02",
" 3	c #821A04",
".3	c #8F1F0F",
"+3	c #A32418",
"@3	c #541702",
"#3	c #BD0F01",
"$3	c #DC0F01",
"%3	c #DE1702",
"&3	c #DF1A03",
"*3	c #E11903",
"=3	c #CE1402",
"-3	c #CA200F",
";3	c #CB1C0B",
">3	c #AF1100",
",3	c #B31101",
"'3	c #AB1200",
")3	c #621400",
"!3	c #701300",
"~3	c #7A1301",
"{3	c #7B1400",
"]3	c #761300",
"^3	c #791200",
"/3	c #A81100",
"(3	c #AC1201",
"_3	c #851200",
":3	c #821100",
"<3	c #541400",
"[3	c #621703",
"}3	c #761C09",
"|3	c #961F0E",
"13	c #8E1D09",
"23	c #7E1904",
"33	c #731903",
"43	c #861A06",
"53	c #761A07",
"63	c #7D1201",
"73	c #871100",
"83	c #A41100",
"93	c #B01301",
"03	c #AE1100",
"a3	c #9E1100",
"b3	c #991100",
"c3	c #8D1100",
"d3	c #8C1100",
"e3	c #761301",
"f3	c #731301",
"g3	c #701301",
"h3	c #711300",
"i3	c #7C1301",
"j3	c #7B1301",
"k3	c #7A1200",
"l3	c #A21100",
"m3	c #BA1301",
"n3	c #B51100",
"o3	c #8A1100",
"p3	c #621704",
"q3	c #7D1A08",
"r3	c #821B08",
"s3	c #841905",
"t3	c #761903",
"u3	c #6F1802",
"v3	c #811A05",
"w3	c #941E0B",
"x3	c #951F0E",
"y3	c #7A1C0A",
"z3	c #401500",
"A3	c #611400",
"B3	c #7C1200",
"C3	c #B41100",
"D3	c #B61100",
"E3	c #AD1100",
"F3	c #911301",
"G3	c #871300",
"H3	c #801201",
"I3	c #781200",
"J3	c #7E1300",
"K3	c #721300",
"L3	c #6B1400",
"M3	c #521400",
"N3	c #561501",
"O3	c #5A1300",
"P3	c #5A1200",
"Q3	c #421500",
"R3	c #401601",
"S3	c #6A1905",
"T3	c #751802",
"U3	c #7E1A04",
"V3	c #701A02",
"W3	c #282600",
"X3	c #781B03",
"Y3	c #791C04",
"Z3	c #671802",
"`3	c #501702",
" 4	c #421701",
".4	c #4B1300",
"+4	c #551401",
"@4	c #521401",
"#4	c #551301",
"$4	c #4C1701",
"%4	c #721903",
"&4	c #771C05",
"*4	c #751A03",
"=4	c #6A1A01",
"-4	c #751803",
";4	c #681904",
">4	c #431501",
",4	c #5A1301",
"'4	c #541501",
")4	c #7B1200",
"!4	c #8A1300",
"~4	c #C81301",
"{4	c #D01201",
"]4	c #D01301",
"^4	c #DA1503",
"/4	c #C21403",
"(4	c #871000",
"_4	c #2C1A00",
":4	c #491800",
"<4	c #1C2200",
"[4	c #4F1B01",
"}4	c #331A01",
"|4	c #2F1700",
"14	c #6F1200",
"24	c #8B1000",
"34	c #901000",
"44	c #C61B07",
"54	c #DC1603",
"64	c #D51301",
"74	c #D51201",
"84	c #D21101",
"94	c #C91101",
"04	c #911200",
"a4	c #C01101",
"b4	c #C81201",
"c4	c #CA1201",
"d4	c #CB1301",
"e4	c #D01703",
"f4	c #B01805",
"g4	c #861000",
"h4	c #891201",
"i4	c #341A00",
"j4	c #3E1A01",
"k4	c #4C1901",
"l4	c #511A01",
"m4	c #222400",
"n4	c #182000",
"o4	c #371A01",
"p4	c #2D1A00",
"q4	c #911100",
"r4	c #861201",
"s4	c #CC1302",
"t4	c #CA1402",
"u4	c #C61301",
"v4	c #C41201",
"w4	c #C31301",
"x4	c #A81301",
"y4	c #6F1300",
"z4	c #A91301",
"A4	c #AB1301",
"B4	c #D11101",
"C4	c #D81100",
"D4	c #D31000",
"E4	c #D31201",
"F4	c #D71403",
"G4	c #CF1303",
"H4	c #C41101",
"I4	c #CA1607",
"J4	c #D31A0C",
"K4	c #DC1F13",
"L4	c #D21204",
"M4	c #3E1602",
"N4	c #6D1E11",
"O4	c #712010",
"P4	c #6D1A09",
"Q4	c #611804",
"R4	c #561801",
"S4	c #521A03",
"T4	c #4E1901",
"U4	c #4C1A01",
"V4	c #561D03",
"W4	c #5D2005",
"X4	c #5C2106",
"Y4	c #551F04",
"Z4	c #521E02",
"`4	c #501E02",
" 5	c #411E01",
".5	c #3C1D01",
"+5	c #4C1F02",
"@5	c #591F03",
"#5	c #5C1E04",
"$5	c #5C1F05",
"%5	c #612007",
"&5	c #602008",
"*5	c #541B03",
"=5	c #551B02",
"-5	c #511901",
";5	c #531802",
">5	c #5B1A06",
",5	c #651D0C",
"'5	c #762316",
")5	c #411702",
"!5	c #731201",
"~5	c #D01000",
"{5	c #CD0F01",
"]5	c #DC1104",
"^5	c #D41203",
"/5	c #C61001",
"(5	c #D21905",
"_5	c #D61503",
":5	c #D21100",
"<5	c #D60F00",
"[5	c #B61001",
"}5	c #AA1100",
"|5	c #951200",
"15	c #A11200",
"25	c #D80F01",
"35	c #D81101",
"45	c #DC1705",
"55	c #CE1805",
"65	c #BD1000",
"75	c #BF1001",
"85	c #D71204",
"95	c #D81102",
"05	c #571C0D",
"a5	c #631F0F",
"b5	c #581C07",
"c5	c #501A03",
"d5	c #4B1A01",
"e5	c #491A01",
"f5	c #4E1B02",
"g5	c #4E1C02",
"h5	c #511D04",
"i5	c #5B2007",
"j5	c #572004",
"k5	c #542003",
"l5	c #561F03",
"m5	c #501F02",
"n5	c #3C1E01",
"o5	c #4C2001",
"p5	c #4E2003",
"q5	c #552105",
"r5	c #562005",
"s5	c #4F1D02",
"t5	c #431C01",
"u5	c #461A01",
"v5	c #481A01",
"w5	c #4B1B02",
"x5	c #501901",
"y5	c #531801",
"z5	c #5A1903",
"A5	c #641A09",
"B5	c #671F0E",
"C5	c #5F1C0D",
"D5	c #371601",
"E5	c #CC0F01",
"F5	c #D41306",
"G5	c #DB1E12",
"H5	c #C91808",
"I5	c #C31404",
"J5	c #BD1101",
"K5	c #DB1404",
"L5	c #DA1403",
"M5	c #D81201",
"N5	c #D81000",
"O5	c #DA1000",
"P5	c #DB1101",
"Q5	c #A41301",
"R5	c #9F1301",
"S5	c #951401",
"T5	c #811603",
"U5	c #C11302",
"V5	c #CD0E01",
"W5	c #CB0E01",
"X5	c #BB0F00",
"Y5	c #D11001",
"Z5	c #D51203",
"`5	c #CD1305",
" 6	c #C71507",
".6	c #AE1001",
"+6	c #B61101",
"@6	c #4B1503",
"#6	c #A0231A",
"$6	c #BF2A23",
"%6	c #C9302C",
"&6	c #C32A22",
"*6	c #BB2015",
"=6	c #B01C0D",
"-6	c #AA2113",
";6	c #A92B1C",
">6	c #96210F",
",6	c #931F0C",
"'6	c #9B2210",
")6	c #931F0B",
"!6	c #901F0B",
"~6	c #8E220F",
"{6	c #8D2412",
"]6	c #7D200B",
"^6	c #4E1D01",
"/6	c #601D02",
"(6	c #641B02",
"_6	c #781E07",
":6	c #87210D",
"<6	c #8E2512",
"[6	c #8F2715",
"}6	c #902514",
"|6	c #932312",
"16	c #972413",
"26	c #982412",
"36	c #951E0C",
"46	c #9F1E0D",
"56	c #9F1C0D",
"66	c #A92014",
"76	c #BA2C25",
"86	c #C33530",
"96	c #C2322C",
"06	c #891B0D",
"a6	c #611401",
"b6	c #B31102",
"c6	c #BD0F00",
"d6	c #CF0E01",
"e6	c #BC1000",
"f6	c #B81000",
"g6	c #BC0F00",
"h6	c #CC0E00",
"i6	c #C90E00",
"j6	c #8D1702",
"k6	c #C21101",
"l6	c #DB0F02",
"m6	c #A61302",
"n6	c #631502",
"o6	c #96281F",
"p6	c #BA332C",
"q6	c #B2332C",
"r6	c #A7271D",
"s6	c #9A1D0F",
"t6	c #941C0C",
"u6	c #921C0A",
"v6	c #92200F",
"w6	c #952413",
"x6	c #922312",
"y6	c #902312",
"z6	c #902616",
"A6	c #922615",
"B6	c #8F2411",
"C6	c #811F0A",
"D6	c #711D05",
"E6	c #621B02",
"F6	c #5D1B02",
"G6	c #621D02",
"H6	c #1A2100",
"I6	c #591D01",
"J6	c #631C01",
"K6	c #6A1C02",
"L6	c #7F210C",
"M6	c #8F2512",
"N6	c #902310",
"O6	c #942110",
"P6	c #8E1F0C",
"Q6	c #922211",
"R6	c #A42B1C",
"S6	c #A11F0F",
"T6	c #A61B0C",
"U6	c #B22216",
"V6	c #BB2E26",
"W6	c #C0302B",
"X6	c #AF2821",
"Y6	c #7E1D12",
"Z6	c #3F1401",
"`6	c #B61201",
" 7	c #C81001",
".7	c #BF1404",
"+7	c #D91B0F",
"@7	c #D91609",
"#7	c #DD1404",
"$7	c #BE1000",
"%7	c #951503",
"&7	c #491401",
"*7	c #771401",
"=7	c #6D1303",
"-7	c #BD1A10",
";7	c #BD1C14",
">7	c #B71C13",
",7	c #AE190D",
"'7	c #AB1A0C",
")7	c #9C1A09",
"!7	c #911C09",
"~7	c #881D0A",
"{7	c #761A03",
"]7	c #741A03",
"^7	c #7D1B05",
"/7	c #781B04",
"(7	c #771903",
"_7	c #8D1A07",
":7	c #981909",
"<7	c #A21C0D",
"[7	c #AC2015",
"}7	c #B3221A",
"|7	c #AE1F16",
"17	c #B91D13",
"27	c #701403",
"37	c #671300",
"47	c #A10F00",
"57	c #C81101",
"67	c #9E1602",
"77	c #C31101",
"87	c #A71000",
"97	c #461401",
"07	c #8A1708",
"a7	c #AF1D14",
"b7	c #B6231C",
"c7	c #B9251D",
"d7	c #AB2014",
"e7	c #A21C0C",
"f7	c #991909",
"g7	c #8C1B08",
"h7	c #771A03",
"i7	c #6A1A03",
"j7	c #681B03",
"k7	c #651B03",
"l7	c #631A02",
"m7	c #661A02",
"n7	c #811C06",
"o7	c #781A04",
"p7	c #7D1C06",
"q7	c #8F200D",
"r7	c #991C0B",
"s7	c #A51A0B",
"t7	c #B0190C",
"u7	c #B41B10",
"v7	c #BC1E16",
"w7	c #BF1F17",
"x7	c #AD1C12",
"y7	c #621403",
"z7	c #3F1500",
"A7	c #BB1603",
"B7	c #4D1400",
"C7	c #511100",
"D7	c #791101",
"E7	c #BA1000",
"F7	c #661202",
"G7	c #BB1A0F",
"H7	c #A9190D",
"I7	c #9C1708",
"J7	c #9B1909",
"K7	c #9B1A0A",
"L7	c #7D1904",
"M7	c #521C00",
"N7	c #541C00",
"O7	c #861805",
"P7	c #921A07",
"Q7	c #961808",
"R7	c #8E1707",
"S7	c #981709",
"T7	c #BF1F15",
"U7	c #6B1403",
"V7	c #881201",
"W7	c #641200",
"X7	c #BA1001",
"Y7	c #C71101",
"Z7	c #421501",
"`7	c #91190B",
" 8	c #AF1B11",
".8	c #961809",
"+8	c #941909",
"@8	c #991A09",
"#8	c #931A08",
"$8	c #5D1A01",
"%8	c #7C1904",
"&8	c #8C1A06",
"*8	c #9E1A0A",
"=8	c #9D190A",
"-8	c #A1180A",
";8	c #AF190F",
">8	c #AB170B",
",8	c #5F1301",
"'8	c #391600",
")8	c #631000",
"!8	c #8B1602",
"~8	c #A51202",
"{8	c #790F00",
"]8	c #791000",
"^8	c #731403",
"/8	c #BA221B",
"(8	c #A31D12",
"_8	c #921707",
":8	c #971909",
"<8	c #951A09",
"[8	c #8E1A07",
"}8	c #881A06",
"|8	c #7B1904",
"18	c #731801",
"28	c #571C00",
"38	c #6E1901",
"48	c #771902",
"58	c #801803",
"68	c #8C1906",
"78	c #8A1605",
"88	c #B72217",
"98	c #311900",
"08	c #5F1400",
"a8	c #821000",
"b8	c #710F00",
"c8	c #900F00",
"d8	c #831000",
"e8	c #7C0F00",
"f8	c #B61000",
"g8	c #BB1000",
"h8	c #B21100",
"i8	c #401701",
"j8	c #8C190C",
"k8	c #A81D11",
"l8	c #8E1806",
"m8	c #881905",
"n8	c #7F1803",
"o8	c #4E1C01",
"p8	c #7A1904",
"q8	c #871A06",
"r8	c #8F1A07",
"s8	c #961A09",
"t8	c #951808",
"u8	c #911706",
"v8	c #A81E14",
"w8	c #AE1E15",
"x8	c #621301",
"y8	c #3C1600",
"z8	c #821300",
"A8	c #8F0F00",
"B8	c #711000",
"C8	c #731000",
"D8	c #A31402",
"E8	c #421200",
"F8	c #971502",
"G8	c #C20F01",
"H8	c #A90E00",
"I8	c #D21000",
"J8	c #781708",
"K8	c #B12822",
"L8	c #BC2F26",
"M8	c #C02A20",
"N8	c #A41B0D",
"O8	c #8B1A07",
"P8	c #7C1A04",
"Q8	c #761902",
"R8	c #7E1903",
"S8	c #851904",
"T8	c #881805",
"U8	c #951807",
"V8	c #A41A0B",
"W8	c #BB2A22",
"X8	c #BA3029",
"Y8	c #AA251C",
"Z8	c #731705",
"`8	c #311800",
" 9	c #8A1201",
".9	c #CF1000",
"+9	c #C71001",
"@9	c #870F00",
"#9	c #9E0E01",
"$9	c #971402",
"%9	c #9B1401",
"&9	c #8F0E01",
"*9	c #7A1000",
"=9	c #C60F01",
"-9	c #D61001",
";9	c #431701",
">9	c #891B0E",
",9	c #AA261D",
"'9	c #AE2A21",
")9	c #A72114",
"!9	c #9B1908",
"~9	c #831804",
"{9	c #661B01",
"]9	c #581C00",
"^9	c #751A02",
"/9	c #A31B0E",
"(9	c #B3251B",
"_9	c #B32A22",
":9	c #A8231C",
"<9	c #6D1605",
"[9	c #3A1600",
"}9	c #D30F00",
"|9	c #D50F00",
"19	c #831201",
"29	c #AB0E01",
"39	c #CB1503",
"49	c #8D1602",
"59	c #CD1100",
"69	c #CE1000",
"79	c #CC1100",
"89	c #C91402",
"99	c #6F1401",
"09	c #581503",
"a9	c #872118",
"b9	c #93281E",
"c9	c #982417",
"d9	c #9B1B0C",
"e9	c #941B0A",
"f9	c #851B07",
"g9	c #851A06",
"h9	c #811B06",
"i9	c #7C1B05",
"j9	c #701902",
"k9	c #821905",
"l9	c #821904",
"m9	c #831904",
"n9	c #961A07",
"o9	c #9D1909",
"p9	c #A52319",
"q9	c #A62C23",
"r9	c #7B1E11",
"s9	c #651804",
"t9	c #7C1300",
"u9	c #B20E01",
"v9	c #C00D01",
"w9	c #981602",
"x9	c #BC0D00",
"y9	c #A90E01",
"z9	c #B21101",
"A9	c #CE1100",
"B9	c #CA1001",
"C9	c #C51001",
"D9	c #AA1201",
"E9	c #3F1801",
"F9	c #781A0A",
"G9	c #9C281F",
"H9	c #B62F27",
"I9	c #B02117",
"J9	c #9F1807",
"K9	c #8C1806",
"L9	c #801904",
"M9	c #831905",
"N9	c #691C02",
"O9	c #6D1A02",
"P9	c #7B1B04",
"Q9	c #821A05",
"R9	c #851A05",
"S9	c #861A07",
"T9	c #991B0B",
"U9	c #A31D0E",
"V9	c #AD2A1F",
"W9	c #A42D25",
"X9	c #8B2119",
"Y9	c #571503",
"Z9	c #C01201",
"`9	c #B21001",
" 0	c #C11402",
".0	c #9B1702",
"+0	c #D01101",
"@0	c #B11201",
"#0	c #A91402",
"$0	c #771300",
"%0	c #421601",
"&0	c #591501",
"*0	c #611601",
"=0	c #711905",
"-0	c #8C1E0B",
";0	c #8E200E",
">0	c #8E1E0B",
",0	c #7F1D07",
"'0	c #7D1C04",
")0	c #7C1C05",
"!0	c #781C04",
"~0	c #731C04",
"{0	c #661B02",
"]0	c #561A01",
"^0	c #6B1C03",
"/0	c #751C04",
"(0	c #7B1C05",
"_0	c #811B05",
":0	c #881B06",
"<0	c #8D1B08",
"[0	c #8B1C08",
"}0	c #881C08",
"|0	c #8E1E09",
"10	c #8B1D08",
"20	c #601704",
"30	c #3B1601",
"40	c #601300",
"50	c #9A1401",
"60	c #B11101",
"70	c #A71201",
"80	c #A91201",
"90	c #601301",
"00	c #B81201",
"a0	c #BA1101",
"b0	c #BE1201",
"c0	c #B91201",
"d0	c #BC1201",
"e0	c #961402",
"f0	c #5B1806",
"g0	c #6E1908",
"h0	c #6A1602",
"i0	c #821A07",
"j0	c #951D09",
"k0	c #961E0B",
"l0	c #8F1C09",
"m0	c #8E1C08",
"n0	c #7D1C05",
"o0	c #721D04",
"p0	c #501B01",
"q0	c #821D08",
"r0	c #91200C",
"s0	c #92210E",
"t0	c #911F0C",
"u0	c #921E0B",
"v0	c #7B1906",
"w0	c #6E1703",
"x0	c #B31301",
"y0	c #C11101",
"z0	c #BD1201",
"A0	c #BC1101",
"B0	c #CF1001",
"C0	c #CB1502",
"D0	c #681401",
"E0	c #A71402",
"F0	c #901200",
"G0	c #831300",
"H0	c #841401",
"I0	c #991301",
"J0	c #981301",
"K0	c #931401",
"L0	c #921301",
"M0	c #731300",
"N0	c #3D1800",
"O0	c #491600",
"P0	c #441600",
"Q0	c #461800",
"R0	c #551801",
"S0	c #5D1A02",
"T0	c #571B01",
"U0	c #561901",
"V0	c #601902",
"W0	c #661A03",
"X0	c #651A03",
"Y0	c #5C1902",
"Z0	c #4B1700",
"`0	c #451700",
" a	c #2D1900",
".a	c #6A1400",
"+a	c #851201",
"@a	c #A61201",
"#a	c #BB1301",
"$a	c #871501",
"%a	c #C51101",
"&a	c #881300",
"*a	c #481600",
"=a	c #511701",
"-a	c #5C1801",
";a	c #711B04",
">a	c #6D1B03",
",a	c #591A02",
"'a	c #631B03",
")a	c #5C1802",
"!a	c #551701",
"~a	c #541701",
"{a	c #4A1800",
"]a	c #831400",
"^a	c #9B1301",
"/a	c #9D1301",
"(a	c #9E1301",
"_a	c #9F1501",
":a	c #3D1600",
"<a	c #2E1A00",
"[a	c #2D1B00",
"}a	c #341800",
"|a	c #3C1800",
"1a	c #411700",
"2a	c #681601",
"3a	c #561500",
"4a	c #531500",
"5a	c #551500",
"6a	c #1F2300",
"7a	c #481500",
"8a	c #501500",
"9a	c #561400",
"0a	c #571500",
"aa	c #5A1500",
"ba	c #521600",
"ca	c #601501",
"da	c #641401",
"ea	c #651400",
"fa	c #641400",
"ga	c #361700",
"ha	c #391700",
"ia	c #351700",
"ja	c #631E04",
"ka	c #6A1C04",
"la	c #601B03",
"ma	c #541C02",
"na	c #431D01",
"oa	c #5B1E03",
"pa	c #681D04",
"qa	c #461B01",
"ra	c #2E1F01",
"sa	c #281F01",
"ta	c #3B1900",
"ua	c #581D02",
"va	c #4F1F03",
"wa	c #261E00",
"xa	c #451F01",
"ya	c #4D1D02",
"za	c #571F03",
"Aa	c #4F2003",
"Ba	c #342001",
"Ca	c #371A00",
"Da	c #351800",
"Ea	c #B71502",
"Fa	c #A81601",
"Ga	c #A21401",
"Ha	c #881602",
"Ia	c #891702",
"Ja	c #8B1702",
"Ka	c #951602",
"La	c #941602",
"Ma	c #911602",
"Na	c #8D1601",
"Oa	c #8A1601",
"Pa	c #6F1601",
"Qa	c #7B1701",
"Ra	c #761601",
"Sa	c #691701",
"Ta	c #521C08",
"Ua	c #941A07",
"Va	c #A71703",
"Wa	c #8E1804",
"Xa	c #541A01",
"Ya	c #781904",
"Za	c #8A1904",
"`a	c #A31503",
" b	c #921804",
".b	c #641F0D",
"+b	c #2D1F01",
"@b	c #641800",
"#b	c #731601",
"$b	c #6E1501",
"%b	c #841501",
"&b	c #8D1501",
"*b	c #951501",
"=b	c #991401",
"-b	c #8F1401",
";b	c #921401",
">b	c #9F1402",
",b	c #B41302",
"'b	c #8B1501",
")b	c #781702",
"!b	c #801601",
"~b	c #861501",
"{b	c #631501",
"]b	c #661501",
"^b	c #6B1701",
"/b	c #481F07",
"(b	c #6E1B05",
"_b	c #961502",
":b	c #971703",
"<b	c #7E1A05",
"[b	c #571A01",
"}b	c #671800",
"|b	c #7B1702",
"1b	c #8C1803",
"2b	c #9C1805",
"3b	c #4D1C06",
"4b	c #811601",
"5b	c #851701",
"6b	c #801701",
"7b	c #7A1701",
"8b	c #791801",
"9b	c #8F1501",
"0b	c #9D1702",
"ab	c #B71604",
"bb	c #B61301",
"cb	c #4B1602",
"db	c #6C1704",
"eb	c #7C1A06",
"fb	c #971602",
"gb	c #A61603",
"hb	c #AB1602",
"ib	c #9F1602",
"jb	c #9C1601",
"kb	c #9E1601",
"lb	c #991702",
"mb	c #971702",
"nb	c #8C1602",
"ob	c #7E1702",
"pb	c #861702",
"qb	c #8A1802",
"rb	c #871802",
"sb	c #761701",
"tb	c #811902",
"ub	c #7E1802",
"vb	c #711E0E",
"wb	c #841A07",
"xb	c #7C1702",
"yb	c #741702",
"zb	c #641903",
"Ab	c #6F1905",
"Bb	c #7A1704",
"Cb	c #831907",
"Db	c #8B2315",
"Eb	c #371C01",
"Fb	c #641900",
"Gb	c #7A1801",
"Hb	c #831902",
"Ib	c #7C1802",
"Jb	c #781801",
"Kb	c #8C1802",
"Lb	c #951702",
"Mb	c #981702",
"Nb	c #981501",
"Ob	c #9C1602",
"Pb	c #A01501",
"Qb	c #A81502",
"Rb	c #A61502",
"Sb	c #9A1502",
"Tb	c #811502",
"Ub	c #AD1402",
"Vb	c #B51301",
"Wb	c #A91502",
"Xb	c #AA1502",
"Yb	c #AF1502",
"Zb	c #AB1401",
"`b	c #9B1602",
" c	c #9A1702",
".c	c #981703",
"+c	c #7A1702",
"@c	c #751801",
"#c	c #801902",
"$c	c #801802",
"%c	c #7B1802",
"&c	c #67210F",
"*c	c #8F1E0E",
"=c	c #721904",
"-c	c #911702",
";c	c #921B08",
">c	c #6C1F0D",
",c	c #821802",
"'c	c #881802",
")c	c #841702",
"!c	c #801702",
"~c	c #9E1702",
"{c	c #A71602",
"]c	c #A91602",
"^c	c #9F1603",
"/c	c #931602",
"(c	c #6E1905",
"_c	c #511602",
":c	c #9F1201",
"<c	c #B31201",
"[c	c #BD1503",
"}c	c #B61302",
"|c	c #AF1301",
"1c	c #A61301",
"2c	c #5F1501",
"3c	c #711703",
"4c	c #811604",
"5c	c #891602",
"6c	c #8C1601",
"7c	c #751601",
"8c	c #311D00",
"9c	c #6A1B08",
"0c	c #661802",
"ac	c #661601",
"bc	c #7D1F11",
"cc	c #361901",
"dc	c #2B1C00",
"ec	c #901501",
"fc	c #4C1500",
"gc	c #691601",
"hc	c #771603",
"ic	c #741501",
"jc	c #921501",
"kc	c #8C1501",
"lc	c #7F1601",
"mc	c #631900",
"nc	c #631D0B",
"oc	c #761C0A",
"pc	c #631500",
"qc	c #6C1C09",
"rc	c #B01101",
"sc	c #AB1201",
"tc	c #921702",
"uc	c #781802",
"vc	c #751902",
"wc	c #781F0E",
"xc	c #351901",
"yc	c #711602",
"zc	c #6F1700",
"Ac	c #411A00",
"Bc	c #5E1C08",
"Cc	c #741C09",
"Dc	c #3F1A00",
"Ec	c #761802",
"Fc	c #7C1502",
"Gc	c #A51502",
"Hc	c #961501",
"Ic	c #B71301",
"Jc	c #9E1A04",
"Kc	c #641601",
"Lc	c #6D1A01",
"Mc	c #2F1C00",
"Nc	c #5E1903",
"Oc	c #6C1B04",
"Pc	c #6A1902",
"Qc	c #691905",
"Rc	c #621900",
"Sc	c #721902",
"Tc	c #AF1A05",
"Uc	c #C61202",
"Vc	c #A51200",
"Wc	c #801400",
"Xc	c #C51302",
"Yc	c #9B1A04",
"Zc	c #6B1501",
"`c	c #5E1800",
" d	c #581904",
".d	c #761A06",
"+d	c #701A04",
"@d	c #5B1801",
"#d	c #681600",
"$d	c #5B1601",
"%d	c #B91904",
"&d	c #B71401",
"*d	c #851501",
"=d	c #991502",
"-d	c #A31401",
";d	c #881903",
">d	c #601A00",
",d	c #2E1C00",
"'d	c #5F1901",
")d	c #AD1301",
"!d	c #3E1901",
"~d	c #531A01",
"{d	c #4D1903",
"]d	c #AF1401",
"^d	c #7D1601",
"/d	c #7C1602",
"(d	c #461700",
"_d	c #5C1300",
":d	c #7B1401",
"<d	c #681200",
"[d	c #4A1600",
"}d	c #381905",
"|d	c #391703",
"1d	c #361801",
"2d	c #321A00",
"3d	c #331A00",
"4d	c #331B00",
"5d	c #281D00",
"6d	c #251E00",
"7d	c #311A00",
"8d	c #2C1900",
"9d	c #311A01",
"0d	c #331B04",
"ad	c #371904",
"bd	c #411901",
"cd	c #381900",
"dd	c #3A1900",
"ed	c #361800",
"fd	c #2B1A00",
"gd	c #4C1601",
"hd	c #57291D",
"id	c #AB4E4B",
"jd	c #A23935",
"kd	c #9C291D",
"ld	c #9F1B04",
"md	c #971A04",
"nd	c #412005",
"od	c #69200C",
"pd	c #6D200B",
"qd	c #6D200C",
"rd	c #6E200B",
"sd	c #70220E",
"td	c #4A1C04",
"ud	c #3B1B01",
"vd	c #501A02",
"wd	c #71200C",
"xd	c #6C200C",
"yd	c #6A1D07",
"zd	c #66200D",
"Ad	c #422005",
"Bd	c #861802",
"Cd	c #9F1903",
"Dd	c #9D271C",
"Ed	c #A54847",
"Fd	c #A74A4A",
"Gd	c #8D3F3B",
"Hd	c #832314",
"Id	c #861902",
"Jd	c #811702",
"Kd	c #4C2108",
"Ld	c #591F07",
"Md	c #5C1F06",
"Nd	c #5C220A",
"Od	c #5F2108",
"Pd	c #571E05",
"Qd	c #3C1B01",
"Rd	c #341C01",
"Sd	c #2E1B00",
"Td	c #401D03",
"Ud	c #61210A",
"Vd	c #602108",
"Wd	c #5D2008",
"Xd	c #5D2009",
"Yd	c #2F2101",
"Zd	c #401901",
"`d	c #7A1D05",
" e	c #841B03",
".e	c #841F09",
"+e	c #832B22",
"@e	c #8B3D38",
"#e	c #AB4848",
"$e	c #B22E29",
"%e	c #AA241D",
"&e	c #AD1B0E",
"*e	c #BA1402",
"=e	c #BF1301",
"-e	c #AD1401",
";e	c #9C1502",
">e	c #291D00",
",e	c #5A1801",
"'e	c #441C01",
")e	c #571802",
"!e	c #771805",
"~e	c #791704",
"{e	c #781804",
"]e	c #741703",
"^e	c #731905",
"/e	c #781803",
"(e	c #6F1703",
"_e	c #761502",
":e	c #721704",
"<e	c #821602",
"[e	c #B01602",
"}e	c #B81301",
"|e	c #C71201",
"1e	c #CC1201",
"2e	c #C31201",
"3e	c #B01A0B",
"4e	c #A82924",
"5e	c #AC2E2B",
"6e	c #B43535",
"7e	c #B91F13",
"8e	c #C71302",
"9e	c #C01202",
"0e	c #AC1501",
"ae	c #931701",
"be	c #3A1A01",
"ce	c #4D1801",
"de	c #611B07",
"ee	c #731704",
"fe	c #721906",
"ge	c #751906",
"he	c #731804",
"ie	c #731906",
"je	c #751805",
"ke	c #711601",
"le	c #3F1800",
"me	c #A71501",
"ne	c #C11502",
"oe	c #C21301",
"pe	c #BE1705",
"qe	c #AF251E",
"re	c #BE3533",
"se	c #AC322F",
"te	c #861504",
"ue	c #891402",
"ve	c #8E1601",
"we	c #A01502",
"xe	c #AC1402",
"ye	c #841601",
"ze	c #511B03",
"Ae	c #671903",
"Be	c #A91403",
"Ce	c #9C1503",
"De	c #951704",
"Ee	c #8F1704",
"Fe	c #8A1704",
"Ge	c #811704",
"He	c #7A1602",
"Ie	c #6F1501",
"Je	c #561E03",
"Ke	c #571E01",
"Le	c #A91605",
"Me	c #4D1A03",
"Ne	c #901702",
"Oe	c #B41301",
"Pe	c #A61501",
"Qe	c #A81401",
"Re	c #A21301",
"Se	c #8D1201",
"Te	c #941300",
"Ue	c #981400",
"Ve	c #911300",
"We	c #8A1403",
"Xe	c #871403",
"Ye	c #8D1504",
"Ze	c #B21200",
"`e	c #B21501",
" f	c #AE1602",
".f	c #861602",
"+f	c #331E01",
"@f	c #4D1A01",
"#f	c #771703",
"$f	c #A71504",
"%f	c #9D1202",
"&f	c #8F1502",
"*f	c #831702",
"=f	c #551901",
"-f	c #282001",
";f	c #721600",
">f	c #721501",
",f	c #8C1805",
"'f	c #911805",
")f	c #961705",
"!f	c #9E1603",
"~f	c #A21604",
"{f	c #511B02",
"]f	c #401D02",
"^f	c #4D1B01",
"/f	c #AB1503",
"(f	c #B21703",
"_f	c #961602",
":f	c #991501",
"<f	c #901502",
"[f	c #8A1503",
"}f	c #871606",
"|f	c #881605",
"1f	c #821502",
"2f	c #711600",
"3f	c #4D1802",
"4f	c #912118",
"5f	c #A71F16",
"6f	c #B2180B",
"7f	c #A11303",
"8f	c #6B1D05",
"9f	c #2C2001",
"0f	c #6E1400",
"af	c #781400",
"bf	c #BD1609",
"cf	c #AD180F",
"df	c #982118",
"ef	c #551703",
"ff	c #741600",
"gf	c #791400",
"hf	c #771600",
"if	c #9B1501",
"jf	c #661C0B",
"kf	c #961B10",
"lf	c #B4160B",
"mf	c #C21205",
"nf	c #392002",
"of	c #841502",
"pf	c #8A1402",
"qf	c #911401",
"rf	c #AB1304",
"sf	c #B31709",
"tf	c #9A1E13",
"uf	c #7E1E11",
"vf	c #451901",
"wf	c #861701",
"xf	c #6D1601",
"yf	c #681800",
"zf	c #601805",
"Af	c #AF3030",
"Bf	c #9B1C16",
"Cf	c #911304",
"Df	c #741400",
"Ef	c #701400",
"Ff	c #6B1E06",
"Gf	c #641D01",
"Hf	c #2D2101",
"If	c #7A1300",
"Jf	c #981404",
"Kf	c #A11509",
"Lf	c #BB231D",
"Mf	c #781500",
"Nf	c #4E1D02",
"Of	c #841E12",
"Pf	c #B91E15",
"Qf	c #A4160A",
"Rf	c #9D1303",
"Sf	c #841201",
"Tf	c #661C03",
"Uf	c #3A2102",
"Vf	c #7A1401",
"Wf	c #871302",
"Xf	c #9B1507",
"Yf	c #A92320",
"Zf	c #A12A29",
"`f	c #551803",
" g	c #7C1801",
".g	c #5F1805",
"+g	c #A82C2B",
"@g	c #931911",
"#g	c #8A1303",
"$g	c #781300",
"%g	c #212400",
"&g	c #702006",
"*g	c #6F1400",
"=g	c #8D1302",
"-g	c #99170C",
";g	c #AA2522",
">g	c #661705",
",g	c #591D00",
"'g	c #811E16",
")g	c #AD1F19",
"!g	c #981407",
"~g	c #8E1302",
"{g	c #6A1E05",
"]g	c #3D2102",
"^g	c #8D1304",
"/g	c #9D1F1B",
"(g	c #A02827",
"_g	c #651800",
":g	c #671B0A",
"<g	c #96251F",
"[g	c #88190C",
"}g	c #7E1605",
"|g	c #722005",
"1g	c #2C2101",
"2g	c #7E1402",
"3g	c #8E180E",
"4g	c #A62D2D",
"5g	c #6E1A08",
"6g	c #511D02",
"7g	c #7F211A",
"8g	c #A02521",
"9g	c #8D1607",
"0g	c #6E1F04",
"ag	c #841505",
"bg	c #911C14",
"cg	c #932420",
"dg	c #5C1B06",
"eg	c #2A2301",
"fg	c #6D200F",
"gg	c #801D0E",
"hg	c #831B0D",
"ig	c #5E1F02",
"jg	c #551D01",
"kg	c #521E01",
"lg	c #A22E2B",
"mg	c #7D1E0E",
"ng	c #5D1F05",
"og	c #8C2620",
"pg	c #A22A28",
"qg	c #7F1605",
"rg	c #671400",
"sg	c #651E03",
"tg	c #851B0D",
"ug	c #821E10",
"vg	c #6A210F",
"wg	c #292301",
"xg	c #4B1B04",
"yg	c #671B07",
"zg	c #7B1B0A",
"Ag	c #781703",
"Bg	c #761A0A",
"Cg	c #611904",
"Dg	c #511F04",
"Eg	c #6D1A08",
"Fg	c #7E1A0A",
"Gg	c #7D1704",
"Hg	c #7E1D0D",
"Ig	c #6B1B09",
"Jg	c #4E1D05",
"Kg	c #2D1C00",
"Lg	c #5A1B02",
"Mg	c #661A06",
"Ng	c #781D09",
"Og	c #751C08",
"Pg	c #6A1904",
"Qg	c #5C1901",
"Rg	c #5A1A02",
"Sg	c #5D1801",
"Tg	c #631802",
"Ug	c #561D02",
"Vg	c #3E1801",
"Wg	c #731A03",
"Xg	c #601A02",
"Yg	c #641902",
"Zg	c #721A04",
"`g	c #7C1C08",
" h	c #7F1D0A",
".h	c #6B1A06",
"+h	c #421901",
"@h	c #271C00",
"#h	c #301A01",
"$h	c #232500",
"%h	c #281B00",
"&h	c #2A1C00",
"*h	c #2B1B00",
"=h	c #4A1901",
"-h	c #291B00",
";h	c #291900",
">h	c #311901",
",h	c #351A01",
"'h	c #371B01",
")h	c #371D01",
"!h	c #3A1C01",
"~h	c #381B01",
"{h	c #451B01",
"]h	c #5E1801",
"^h	c #551B01",
"/h	c #5E1701",
"(h	c #7D1902",
"_h	c #7B1902",
":h	c #481901",
"<h	c #771602",
"[h	c #6C1501",
"}h	c #801C06",
"|h	c #7C1B03",
"1h	c #7E1B03",
"2h	c #841B05",
"3h	c #711803",
"4h	c #721703",
"5h	c #701703",
"6h	c #761402",
"7h	c #671501",
"8h	c #861A04",
"9h	c #721901",
"0h	c #761A02",
"ah	c #5C1B02",
"bh	c #531C00",
"ch	c #781B02",
"dh	c #7F1A03",
"eh	c #5E1600",
"fh	c #991604",
"gh	c #A81908",
"hh	c #A81806",
"ih	c #A51807",
"jh	c #931503",
"kh	c #4D1D01",
"lh	c #511B01",
"mh	c #9E1A08",
"nh	c #A31A0A",
"oh	c #A01809",
"ph	c #9C1504",
"qh	c #921402",
"rh	c #A31606",
"sh	c #A5190A",
"th	c #A71A0B",
"uh	c #A21A08",
"vh	c #971704",
"wh	c #601500",
"xh	c #421C01",
"yh	c #531B01",
"zh	c #A21605",
"Ah	c #A91807",
"Bh	c #AB1807",
"Ch	c #AC1908",
"Dh	c #8C1402",
"Eh	c #931402",
"Fh	c #691400",
"Gh	c #5C1400",
"Hh	c #561600",
"Ih	c #571600",
"Jh	c #7A1500",
"Kh	c #4F1600",
"Lh	c #711401",
"Mh	c #4F1B02",
"Nh	c #531C02",
"Oh	c #521D02",
"Ph	c #501D02",
"Qh	c #3B1D01",
"Rh	c #321D01",
"Sh	c #571B02",
"Th	c #551D03",
"Uh	c #581D03",
"Vh	c #541B02",
"Wh	c #561C02",
"Xh	c #571D04",
"Yh	c #3E1B01",
"Zh	c #241D00",
"`h	c #231D00",
" i	c #421E01",
".i	c #331F01",
"+i	c #341F01",
"@i	c #321F01",
"#i	c #2F1F01",
"$i	c #361F01",
"%i	c #341D01",
"&i	c #402002",
"*i	c #651B06",
"=i	c #6B1C07",
"-i	c #441A01",
";i	c #671902",
">i	c #7F1B04",
",i	c #781902",
"'i	c #631902",
")i	c #651802",
"!i	c #6B1B05",
"~i	c #6F1B06",
"{i	c #591C03",
"]i	c #581902",
"^i	c #571901",
"/i	c #681A02",
"(i	c #4A1C02",
"_i	c #5B1C05",
":i	c #5F1A04",
"<i	c #5E1902",
"[i	c #5A1C04",
"}i	c #5F1B02",
"|i	c #5D1902",
"1i	c #551C03",
"2i	c #531901",
"3i	c #591801",
"4i	c #5E1B04",
"5i	c #4F1A02",
"6i	c #531B02",
"7i	c #4D1901",
"8i	c #401A01",
"9i	c #5C1C03",
"0i	c #581B02",
"ai	c #511A02",
"bi	c #4D1E02",
"ci	c #471A01",
"di	c #1E1D00",
"ei	c #171F00",
"fi	c #161F00",
"gi	c #3A2001",
"hi	c #3B2001",
"ii	c #3B1E01",
"ji	c #3E1F01",
"ki	c #481E00",
"li	c #362001",
"mi	c #381F01",
"ni	c #131B00",
"oi	c #121B00",
"pi	c #151E00",
"qi	c #1A1D00",
"ri	c #201D00",
"si	c #231D01",
"ti	c #211D00",
"ui	c #111B00",
"vi	c #111A00",
"wi	c #192006",
"xi	c #8D8E8B",
"  . + @ # $ # % & * % = * - ; > , ' ) ! ~ { ] ^ / ( _ : < < [ [ } | 1 2 ) 3 ~ 4 5 5 4 ! ! ~ 6 7 7 7 6 8 ( 9 _ 0 _ ( 6 a b 0 c d e 3 ! { f g 9 ( f 7 7 7 6 7 7 . ! h 4 4 ! ! ! ! i j j i | k ( ( [ ^ 9 ( k k } f l m n o o o p ) ) ) o q r , s & t t & r u v w x y + z * & & & > , , , s > , r , o ) ~ } 7 7 ^ 9 9 A 9 _ _ f B n i C D D ~ ! 4 4 4 ! { { { 6 7 7 7 8 / e e ( f B 8 k ^ E 0 [ ( 7 8 } F e 9 ( k 8 7 7 7 7 { { ! 4 4 5 4 ~ { ) G G C B } _ A _ < H ( ( 9 e B { I p ' r , , > > J s K ; - * L L L M m N ",
"+ O P t Q Q # R S T R t * * ; J U J V j W { X 0 k / _ Y Y e . f N 1 2 Z > ' ) 4 4 5 4 4 4 ~ { { 3 6 6 7 } e e e } } 8 b [ 9 `  .E 0 { ~ B f } } } f 7 7 7 6 7 7 ! C 4 4 4 4 4 1 ..Z +.j G 3 B 7 ( ` @.e k 7 f E { W 2 #.> o p p ) ' ; & $.R # * L @ $.# t %.t # @ $ % * &.R @ K J ' p p o q *.=.n ~ 7 < 8 . / [ -.< 8 8 k C G +.+...G ) 4 4 4 4 4 4 { 7 6 7 7 { 8 } k } } B { ~ 0 [ ;.>._ 9 } 6 } } e e F } b 6 6 6 { { ~ 4 4 4 5 4 4 ) ' > 2 2 1 B f . ,.Y Y 9 k k '.,.{ ~ ).!.U 2 ; - & * ~.T {.].&.# Q ~.t ^.+ t ",
"/.(.].{._._.:.<._._.:.[.}.T $.# % K , ) ! ~ |.0 8 6 C 1.< 7 i i D 1 h 4 h h i 1 2.i C ! ~ { ~ ~ 7 6 b 8 k } } } f B 8 k e < ;. .|.} . . B   B f f ( B 7 { { ~ ~ ~ 4 4 4 4 C ) D i C h C ) G 1 1 h < 3.4.{ 3 8 X ! ~ ) , 5.% = &.R {.{.[.[.6.7.7.8.8.9.(.<.9.6.9.0.8.<.7.8.[.:.[.{.T $.&.% a.> 2 ! ~ ~ b.3 { ! c.] e i 1 1 1 C 4 C C D D C C 4 4 ! ! ~ ~ ~ { 7 7 ( } f 8 B B . . f 0 ;. .@.9 f 7 B B f } } / 8 8 7 7 ~ ~ { ~ ! 4 i 2.2.C ) h 4 h 1 D i i f < d.! 6 k : d.~ ! o , & = &.R {.[.[.[._.8.6.:._.[.[.6.(.e.",
"$.~.f.}.8.7.g.h.h.h.h.8.i.j.k.= & r n I l { l.^ } } 7 X ` ,.m.m.. 7 ~ ~ ! h h ) ) I .     n.o.x p.9 ,.0 l.b.] q.q.r.q.] -.;.>.s. .c t.t.t.t.` ] u.E E 0 ,.g v.w.x.w y.  y.w n.) i i h l B z.  A.p.] B.1 f f ( X { ~ I h q > C.D.E.F.G.6._._.H.g.8.7.I.].J.K.].[.I.7._.g.g.6.:.<.L.M.N.O.- , p ) ! { l ] } 8 N n.q.E A.y.  z.f I C P.C Q.w   y.y.w n.w.w.y.d.0 |.|.] @.u.t.t.t.t. . .>.s.t.-.@.u.` q.q.] b.|.0 ,.9 e o.o.n.y.  z.I h ) h h ! ~ { 7 z.m.m.[ ` l.7 } g < d.~ W I p O - R.S.T.U.h.h.h.:.g._.V._.H.W.$.Q ",
"c.w w @ X.Y.Z.`.0._.@ ^. +.+++@+#+#+$+%+1.1.&+&+*+X |.u.t.q.u.u.b.*+1.=+l.l.*+X X b.@.q.t.d q.q.;.;.b.n.c.n.y.-+3.%+m.m.g E ;+>+^ ,+'+A.'+-+)+c.o.x n.0 ;.-.` ` ` ` ` ` ` ` ` X !+%+~+*+&+X X u.{+r.u.%+*+|.] B.1.l.1.!+]+#+^+/+(+_+:+<+[+<.}+|+1+2+}.x w.v.x.3+6.2+4+e.}+<.@ t 5+(+6+7+8+9+~+!+1.1.1.q.] |.l.l.r.q.{+B.X X &+!+~+=+-+u.` ` ` ` t.` ` ` q.` <   o.o.c.0+a+p.A.'+'+9  .b+] e f m.'+c+c+A.n.c.N |.` ;.q.q.d d q.u.b.E X *+l.l.=+1.X B.u.u.q.d B.|.*+*+B.*+0 1.%+$+#+#+d+e+f+g+h+H.8.0.i+j+j+k+l+m.v.n.",
"m+n+h+o+p+h+W.q+^+8+0+r+w.s+t+u+v+w+K x+y+z+}.J.S A+A+{.$ $.].B+S A+S - o.C+d  . . .;.D+E+F+G+H+9+I+o J+K+L+K+M+N+Z G 2.D   t.;.,+h D 1 G M+O+P+N+Q+N+..$+R+H+S+T+U+&+q.;. . .` b.8+# B+/././.[.H.$ [.6.6.T T }.g.~.l+t+V+w+W+s+x.w.w.y.A.  n.x X+U+Y+y+Z+Z+Z+<+Y+U+X+x n.  A.y.w.x.w.`+f.v+ @.@W.z+g.}.[+{.6.J.g.$ g.[./././.S %.a+q. . .;.;.u.R+W.T++@@@#@n $@%@M+N+&@%@Z 1 D h . q.s.p.i i 2.Z N+Q+K+L+K+J+' y.]+U+H+*@E+D+;.t. . .;.*+o.a.S A+S B+{.@ @ ].A+A+B+J.}.=@<+h+P -@;@>@p+v.@+@+8+8+^+`+h+,@'@o+= )@!@",
"~@{@]@^@/@P v.d.g y (@_@:@<@[@}@|@1@2@3@4@1+4+4+5@5@6@7@8@9@9@!.0@a@b@0@%@C.c@B.;.q.l+%@d@(+e@=.K+f@J++.+...G G ..G 1 2.i   d @.~ 2.1 G G G G ..2 g@+.J+K+M+h@i@j@7@9@x+b.q.u.v.; k@l@m@n@o@n@n@n@p@p@5@1+q@q@q@q@q@r@s@t@u@v@w@x@y@z@A@P     W.B@C@D@E@F@G@F@H@I@C@7.J@B z.$ K@L@M@x@N@O@P@Q@R@r@R@q@q@4+q@1+S@B+p@n@T@8@o@m@n@a@C.y =+` @.8+= 8@U@i@V@W@g@J+g@g@Z ..G X@G G G 1 4 |.>.g i 2.1 U ..G G ..+.+.K+f@f@=.Y@7@Z@`@z q.;.B.c@f@%@!. #a@0@!.!.b@8@.#+#5@5@q@4+1+4@3@@###$#%#&#<@*#=#-#y.e p..@B+;#>#,#'#)#",
"!#~#{#]#^#/#(#x+w _#:#<#[#}#|#1#2#|+e.(#3#/.p@B+T@a@4#L+L+L+K+g@g@C.Q+*.M+ #0@5#|.y.l@n@4#+...G ..Z ....J+K+j j 4.2.2.2.4.Q.q.] ) j 1 2.X@X@6#7#8#g@j 8#..8#+.8#L+!.9#n@z.,.-+&@o@0#`@a#`@*.Q+Q+Q+b#b#b@l@a#a#A+A+].].<.7.c#d#e#f#g#h#i#j#n.O 1+k#l#m#n#[#o#[#n#p#l#k#q@o.v.q#r#s#t#f#u#v#w#8.<.{.{.A+A+A+a#B+a@b#Q+Q+Q+*.Q+a@a@%@a@=.x#E ,+& y#o@N++.8#+.j z#j 8#7#8#6#4.X@X@1 ..G [  .m.4.X@2.2.4.j z#K+$@j ..Z Z G ..5.4#n@l@y.|.#@0@ #M+*.Q+f@g@K+K+L+L+*.4#a#T@B+p@p@}+(#e.A#B#C#|#t#D#E#F#G#w Q `.H#I#J#~#K#L#",
"M#N#O#P#Q#R#S#S r+T#U#V#W#X#Y#B@0.9.(#9.(.B+S a#Z#9@M+*.*.*.J+J+*.k@M+g@+.K+> c+y.f@a#9@%@L+j j g@g@8#j N+J+P.2.2.X@X@2.7#I ] ] ) `#2.2. $ $P.X@7#.$K+J+J+J+g@7#M+O+W@o@&@W 1.+.L++.L+a@9@0@4#%@%@b#b#`@A+Z#R R R +$].[.8.@$#$$$%$&$*$=$-$q+`@;$>$>$,$'$)$!$)$'$,$l#~${$y r+]$^$/$($_$$$#$B@_.[.{.T R n+Z#+$A+`@b#b#%@%@0@0@9@Q+f@+.*.c.d... # #!.N+J+g@K+J+J+K+K+`#4.P.P. $P.2.8#G [ t.B 8#4.2.X@2.2.2.`#N+j 8#g@g@j 8#L+%@a@a#L+y.C+> K++.K+Q+k@*.J+J+k@*.*.%@a@a#a#S J.(.9.(#9.7.@$:$<$[$}$|$1$2$4+S#3$Q#4$N#>$5$",
"6$7$8$9$0$a$b$J.c$d$e$f$g$h$i$t@r@I.9.9./.l@a#Z#a@%@Q+*.*.*.K+K+J+*.L+5.) { B ] A.a.T@l@b@!.0@M+N+K+J+g@j$4.X@X@2. $k$l$l$8 ] @.7 m$C i i 2. $ $4.j g@K+L+N+O+!.!.W@V  #M+W : m.h ) 5.4#a@0#%@Q+%@b#b#b#&.n+&.n++${.<.:.@$Y#n$o$p$q$r$s$t$u$S v$w$x$y$z$A$B$C$z$y$x$w$D$t+c$E$F$G$H$I$o$w#J$K$:.<.+$Z#&.n+R `@b#b#b#Q+%@0#0#9@%@G 4 Q.[ p...b@=.W@!.!.O+&@*.K+K+j 4.X@ $P.2.2.i m$~ E t.k | l$m$ $X@X@X@4.z#7#J+K+M+M+O+!.b@l@l@f@y.] f l ) +.L+*.J+K+L+*.*.*.Q+%@a@Z#l@l@(.(.(#J$L$M$Q#,$N$O$P$Q$U+i+R$0$S$T$U$8$V$",
"W$X$Y$Z$T$`$n$ %.%+%@%#%$%%%&%R$|@*%=%-%;%>%,%8@9@9@'%'%)%Y@b@O+!%&@L+Z I ( _ @.y.a.B+T@!.N+N+&@P+P+$@j$~%~%~%4.4...4.i m$| < -.{ 2.2.X@~% ${%]%~%~%8#P+N+&@&@N+M+&@V ^%%@I '.9 6 4 J 0#o@/%(%,%_%_%:%<%^%^%n@m@[%}%|%1%2%3%R$4%T$5%6%7%8%.%;@9%`$9$0%a%b%c%d%e%0%f%4%M$g%h%i%j%k%l%%%~$D@m%n%S#3@o%p%m@n@^%q%r%_%_%_%i@(%8@T@a.' ~ k ^ p.j n@8@!%M+N+N+s%N+N+`#4.~%~%{%~%X@4.2.2.! E ;.6 m$C X@..4.4.~%~%~%j$$@P+P+s%N+N+9@T@B+k@w @.9 ( h Z *.&@!%!.W@h@)%t%j@9@9@Z@u%v%w%-%x%y%z%A%B%6$C%D%E%F%.%G%R#w$H%I%J%J%W$",
"K%L%M%I%S$w#h.g%h%N%O%P%Q%>$R%b$S%T%3@4@/@U%V%W%p@p@X%Y%.#p%Z%0@J+K+D . g [ Y -.N k@p@T@%@7#P+$@6#.$`%X@]%~%~%4.4.4.4.4.X@5 |.] ~  $~%~%]%~%]%{%]%~%X@.$P+8#M+M+J+g@0@p% &h Y : F ( k o M+&@.&_%+&@&+&#&$&G.$&G.}%4+C@P@%&&&^#;$*&=&-&;&>&h%,&'&)&!&~&n#{&]&^&/&(&!&_&:&,&<&[&}&|&1&2&##]#3&4&5&6&4+q@$&$&G.7&8&+&+&:%i@O+&@*.{ } F _ Y p.7#y#^%*.K+M+M+7#.$$@4. $]%]%{%9&~%]%~%~%C ^ ` |  $4.4.4.4.~%~%]%]%X@`#`%j$`%P+7#N+T@p@k@N -.Y [ } l U K+$@!.Z%q%0&a&b&J.p@q%c&d&e&i+f&g&h&R%R$i&j&k&l&m&.%>@K$n&o&p&q&]&r&",
"s&t&u&v&w&x&y&}.<.7.z&A&B&T@9@9@Z#0@4#Q+b#k@- J , r q y y C&c@c.c.w.w x.D&)+X -.n.E&F&}+9@O+!%s%6#G&`%~%]%z#z#z#~%~%z#4.X@5 |.] ~ ~%~%~%~%{%{%{%]%~%4..$`%6#s%O+!.V Z@H&I&o < ^ J&x.n.w.o.o.K&c@J@y y l+r s s ; - C.a.b#= L Q b## @ d+m+z+H.L&M&N&O&%$P&Q&R&S&T&U&O&V&W&X&Y&[+Z+d+@ # b#Q L b#k@C.C.- s s O y y y C&J@s+x x v.w.w.0+,.Y p.Z&`&0&o@!.0@O+7#.$`%z#~%]%{%{%{%~%~%~%~%4 [ ` | X@4.4.4.~%]%z#]%]%4..$G&j$s%!%O+9@}+ *E&N -.X .*D&x.w.n.c.v.3+C&y + y r , 5.C.k@Q+%@4#a@a#b@a#B++*@*z&8.8.#*y&$*_&%*&***=*",
"-*;*_&>*,*'*)*!*X$c%~*{*1&]*H%^*D@/*(*_*:*<*6&Q@A#[*}+[*Z%p@p@l@ # #a#b#k@5.0+] Q.}*|*k+9# # &!%1*2*1*7#3*j$z#z#]%]%]%~%~%4 |.] ~ ~%]%z#]%]%4*4*]%6#.$P+s%P+&@0@!.8@5*6*7*o : y.L+4#b@a#B+p@S B+J.3#}+[*e.Q@i+6&C@8*9*##0*A%a$w$9$a*b*p#t&c*s&d*e*f*P#g*-*h*i*j*Q#f*k*l*c%**t&p#m*n*w$w$A%0*o*##1%8*3@6&i+p*[*}+3#/.B+B+B+p@l@9@9@N+, : ,+q*r*s*y#b@!.O+s%s%s%J+`#j$4*t*4*]%z#]%~%4 [ ` ~ ~%~%]%]%z#z#j$j$6#3*`%2*1*!%!% #9#k+u*v*Q.] 0+5.k@`@9@ # #l@n@p@W%[*[*e.p*-%3@w*:*x*(*/*y*z*]*A*B*{*~*=&!*J%C*D*E*F*G*H*I*",
"J*K*L*M*N*O*P*Q*R*S*T*U*V*W*X*Y*W*Z**&A%0*x*_*`*|%4@ =4+q@A#K.q%.=.= #0@M+M+@+Y N +=@=#=$=a@N+&@s%%=2*1*2*`#6#j$j$z#z#z#~%m$|.< l$~%]%j$]%]%&=6#3*s%s%s%*=*=*=P+Q+==u*-=;=M ^ 0+$@%@b@T@p%K.L.A#A#A#p*=%2+/@>=,=:*##0**&'=)=!=~={=]=^=/=(=_=:=<=[=}=|=1=2=3=4=5=6=}=7=8=9=0=a=^=b=c=d=e=f=g=h=v$o*i=:*`*j=<*=% =A#p*A#A#L.o%m@ #!.M+J ^ '+*.k=l=m=b@*.s%O+s%s%&@*=`%6#&=4*z#z#]%]%m$0 ` l$]%z#j$z#j$j$6#6#s%1*n=o=s%O+N+a@$=#=p=+=N Y q+M+M+0@n@[%q%[%K.A#q@4+ ==%2@:*x*{$0*a$q=W*r=s=t=u=v=w=x=y=z=A=B=C=D=E=F=G=H=",
")$'$I=~&f%J=K=L=M=n#N=O=P=Q=R=]*H%4%&%S=T=U=2%V=W=X=Y=-=Z=`= -<%b@g@+.5.M+f@I+< B ) 5.u%a&Z@=.M+P+s%2*1**=`%7#j$z#7#J+7#j 5 < < | m$3*.$z#4.j$`#$@1*s%s%s%*=P+.-+-==:%5.o Q.: J&> J U J C.4#q%@-#-2+2@V=$-%-&-%-X=*-;$o*`$=---x$x$;->-,-'-)-!-~-{-]-^-/-(-_-(-:-{-!$]-,-<-,-'-,-[-}-f%m#I%|-1-;$0*2-$-&-3-4-$-5-|%2+=%5@Z@a.C.> 2 J 3+E p.p U (%N.6-e@!%s%s%&@s%s%1*.$j$~%z#3*.$P.l$0 ;.| j 8#.$8#z#8#7#`%s%1*2*2*s%M+=.Z@D.u%5.) B < I+f@*.5.+.g@8@7-8-9--=Z.0-X=W=X=2%U=D@S=&%A%a-T$I%b-c-s&W$d-L=}-&*6$~&I=I=)$e-",
"f-g-h-i-j-k-l-m-m-m-n-I*o-I*o-p-q-G*r-;*s-:&'&'&v+w+z+b&a&t-T@- , ' 1 U o   _ ^ / ~ D 1 N+u-.#b@O+s%P+`%P+N+P+`%.$`#P.l$4 4 < < { 5 5 C 8#$@$@2**=*=P+s%O+W@Z@6+v-&@4.D ) B : A . h ) o + r ;  #S B+B+Z#R R T }.g.w-$*$*x-G*-*y-g-z-p-A-B-B-l-G=C-D-E-E-F-G-H-E-E-D-p-I-I*J-J-K-p-L-M-y--*G*x-$*N-X&:._.].T A+p@[*Z%Z%a@s O r o ) h 9 : 9 ! D 2.J+e@O.6+V O+s%P+s%O-s%`%.$`#2.5 5 ! 0 ` ~ i ~ k$`#.$.$$@P+P+`%P+s%&@W@0&e@&@1 D ~ / : _ z.' U 1 ' > a..=P-U%Q-=@v+v+R-'&s-s-;*$*i*S-J-T-I*I*I*l-l-l-l-J-U-j-i-V-W-X-",
"Y-Z-`- ; ;.;+;.;i-E-@;#;$;%;&;*;=;-;;;>;,;';);]#R%1@`*j=!;P-V%_%u%~;J > o ~ F {;F 8 { 3 { l l h C k$C C ) D i m$5 | | ];];6 : : k | 5 l$l$l$i P.X@G 2.i i 1 1 p 4 I ~ ~ 7 F : A 8 h D ' M++-D.D.a&Q-p*4+p*-%S#^;/;(;';_;:;<;[;};|;1;2;3;D-D-4;i-5;6;6;7;8;9;0;a;6;6;h-b;D-c;c;d;e;f;g;h;i;j;k;k;l;/*m;n;Q@e.(#$&}+B&B&8@u-o;U D 4 ~ F : A f ! ! 4 4 1 Z j X@2.2.4.j 4.X@i 5 l$5 l$6 _ p;6 l$];| l$C 2.X@G 1 i i 2.1 ' p ! ! ! ~ 7 F A F 7 p U 2 q;r;e@s;t;u;#-|%C@S#v;/*w;x;S&y;z;'-A;B;C;D;E;F;F-E-G;H;.;5;I;h-J;K;",
"L;M;E-E-h-E-N;U-i-6;O;P;Q;R;S;T;U;V;W;X;Y;Z;`; >D${$Z..>p=u*u*+>@>#>$>d@O Q.e : ^ g ,+e d.,.9 ,.( } B 1 D I '+p.g g g e 9 _ Y @.< 9 e g g p.p.z.) 1 1 W l z.f ( f f 8 { . [ < _ l M a@k.%>&>*>=>->H&@-2+#-2@;>>>,>g='>)>!>~>{>]>^>/>(>_>4;:><>[>}>7;}>c;|>1>2>3>}>a;4;}>4>:>5>6>7>8>9>0>a>b>c>d>e>f>g>I@h>2@2+i>i>j+#=j>k>k>l>V%C.m / '.: e 7 8 k k ( } z.~ W D 1 D I m.,+,+} } F ^ p;@.9 F } ,+,+,+,+m.I ) D l B / 9 ,._ e e g e ^ : e m s R.m>n>o>@>p>q>r>s>t>u>v>w>x>y>z>A>B>C>D>E>F>G>H>I>3;i-J>j-i-h-h-K>D-L>M>",
"N>O>P>O>Q>R>S>T>M;5>U>V>W>X>Y>Z>`> ,.,+,@,H%*&b$9*-%(#[*$&Z%T@p@#,*>$,%,&,+ ,+: x+*,=,7.X&H.@ Z#o B ,+m.'+,.< J&-,*.;,> l . ,+,+z.l n J - C.~+e 7 . f 9 0 w = R $.z+[./@>,~.: 9 o a@X.Y.j+,,m@p%G.G.}+|+q@|%9*b$R$]*',+,), ,!,~,{,],^,/,4;(,_,:,<,[,},|,1,2,3,4,5,6,7,8,9,0,K>a,b,c,{,d,e,f,g,h,i,B%b$1%S#i+|+[*[*K.G.[%W%j,*>r>V%s B : k,l,->B+@ ~.Q t 3+0 A m.. W } |.J@s O n f m.g ,.} m.n 5.5.m,D&] d.A.w ( } N b#L n,#*g.o,+*c@: g q 7&l>n>p,q,Z%n@W%$&[*(#i+1%R%w$A*C$+,r,s,t,u,v,w,x,y,z,D-A,B,C,G-4=3=3=D,E,",
"F,G,H,I,J,K,L,M,N,c;O,P,Q,R,S,T,U,V,W,X,Y,X*Z,w>`,u>:* 'j=<*.'W%[%.'.'+'j,%   9 @'#'$'%'&'*'.>s>=')%*=8 b [ v. &.&-';'>','.&.$8#O-'')'!'U@~'!.2 k k { f@#.5*.',={']'^'/'('_'z.d.; y#:'<'.'o%k+2+.>,=[';>x**-v>}'|'1'r,X,2'd,3'4'5'6'7'8'5>9'0'a'b'c'd'e'f'g'h'i'j'k'l'm'n'o'D-p'q'r's't'u'v'e,w'+,x'y'z'A'u>_*{$,=<'<*1+o%6@B'C'D'0#c.^ E'F'G'H'I'J',=B'5*#.*.~ k / ~ N+8@h@K')'''L'7#j$ &-',')%M'.&!%M ^ k 8 g@6-==C'w*N'O'P'Q'R'#=,.y.% S'j+T'B'Z%W%@-2+w*.>U'V'W'X'Y'X*Z'`'e, )U,T,5'.)+)@)#)$)%)&)*)=)-);)>),)')",
"))!)~){)])^)/)()_)$):)<)[)})|)1)S,2) )`>W,3)4)Z*5)h=6)V'['7).>.'w*C'T'Z=8)0#w e 9)0)G'a)b)c)d)s>=%e)==a.2 f o &@*.Z )%;' &J+3*`#.$*=h@f)$@4#a@- W 5.k@6-.'i>.>*'g)h)i)j)k)l)N d.% o%C'@-B'<'j=.>,=x*u>V'^*m)h=n)1'.,w'o)p)q)r)s)t)u)v)w)5>x)y)z)A)B)C)D)E)F)G)H)I)J)K)L)M)N)5>O)P)Q)R)S)t'U,T)U)V)W)1'X)Y)A'y*V'h>_*7)j=i>Z)T'B'`)S n.^  !k)('i).!+!2-['w*.',,N+5.h M 0#0@&@;')% &1*`#`#$@O--'@!g@J+&@U ( ' f@.#e)=%s>t>#!I'0)a)$!9)d.w n+%!Z=T'&!2+.'.>7)['u>6)*!=!-!;!>!,!`>u,T,S,'!)!!!~!{!]!^!/!(!_!:!<![!}!|!1!",
"2!3!4!5!6!7!8!9!0!0,a!b!c!d!e!f!R)5'2)p)T),!g!h!i!j!]'k!l!{'['s>t>*>i>->p,.#N e -=k!m!n!k!u>>=i+r@A#T'9@0@2 U D 2.h V@j@N+j 7#7#j J+Y@0&p o q ' g@b@l@o!k+p*4+##p!q!r!G's!*'m.p.O.l=#!,=r>{'t!;>d)J'u!m)Y)q!5)v!w!x!Z>y!z!S,A!B!C!D!E!F!3>G!H!I!J!K!L!M!N!O!P!M!L!Q!R!S!T!U!3>V!W!D!X!R,S,s'2)Y!`>w'Z!Y'X)`! ~v>*-u>;>t!t!.~+~@~#~F&o.[ @&]'$~%~$~&~D$@#4+k+T'^% #M+D , ' p /%6-J+j 8#`#j J+.&@&D 1 D ' ' 4#9@T'p*p*4@`*V'&'l)^'`,H&e n.q%k>C'.'#~*~s>['=~-~k!]';~>~h!g!U)T),~t''~f!f!)~!~~~{~]~^~/~-)(~_~:~<~[~2!C)",
"}~R!|~1~2~3~4~5~6~0,7~8~9~0~a~})b~|)'!c~2) )d~e~f~i!g~h~*!6)-~i~j~#!#!k~l~7@N g -=&'n!m~n~1%Q@`.r@r@q@9#y#9#!.!.N+4 .&.&J+$@.$.$`%s%.&9#h k@!.a@a#9@^%5@q@`.R@Q@1%Y)o~p~*-<*g N &,+~t>t>N'-~l!u!q~r~s~+!;~i!t~u~,!u,t's'v~w~x~y~z~A~B~C~D~E~F~G~H~I~J~K~L~M~N~O~P~Q~R~S~T~U~V~W~X~Y~Z~y~R)R,5'`~ {t,x!.{+{@{5)#{`,q~6)l!-~-~=~=~${H&s 9 b@;>%{&{*{D$={Q@`.R@ =W%9@a@a@4#0@m 9@(%s%`%K+.$$@J+$@>'C J+!.W@8@y#^%}%r@r@`.Q@9*-{m~%'r~-=g z.6-&>;{>{#!i~i~*-u!*!h~g~,{f~'{d~){T,z!v~R)b~}))~!{~{{{]{^{/{({_{3~:{:{_~<{[{",
"}{|{1{2{3{4{5{6{7{$)]{8{8!a~a~a~})b~)!w~5'2)){W,9{4)i!0{%{h=a{b{*'c{d{p=e{!.h d.#,d{P'f{W'0*H#R@|+S p@Z%9#o@Q+W@=.C g@K+g@P+1*`%J+J+J+a.n %@9@`@p@p%W%}+/.`.t@g{;$Z*h{i{_*G.e c.S K.C'd{;{O'k!r~`,s!j!;~i!4)j{k{ ) {S,w~R)x~l{m{n{o{p{C-0,q{r{s{t{u{v{w{x{y{z{A{B{3{C{D{E{F{$)o'A{G{H{m{I{R)B!v~J{,~t,K{L{M{Z*j!h~g)`,k!a{N{N{i~B'$&* 9 = @#U=O{P{}'H#t@R@(#}+[*[%W%n+4# #m > K+`#K+.$`%P+K++.L+) !%V %@ #y#W%}+B+e.Q@H#o*Q{R{f{S{T{e C W@U{r>#!V{-~#!a{*!h~0{i!h!W{d~X{T,1)w~R)b~e!a~e!4~Y{Z{^~`{ ].]5{+]@]#]$]%]w{",
"&]*]=]-];]>],]']q{b;^!)]!]~]{]]]^]/])~X!f!'~T,,!W{u~(]_]:]s~`,6)c{<]X.@-0&L+{ _   , Y.V{[]}]h~4@(#l@9#%@b@ #9@N+P+C |]1]#.s%1*1*O+2]==T{D L+M+b@m@9@Z#B+J.C@C@T=3]%{4]5], . H m.# $&.>6]7]c{r~8][]g~Z*Z*W*4)K{){ {J{w~t)9]0]a]b]c]d]e]f]^!g]h]i]j]k]l]m]n]o]p]q]r]s]t]u]g,1,0,v]w]x]y]z]A]B]e!)!5't',~C]9{t~+{Z*D]%{8]]'O'E]F]t!T'B+3+H g Q.k.#'h~j!#{1@C@(#A+A+a#T@^%4#O+m D.G]6-O+P+1*P+.&(%H]X@P+&@9@ #b@%@^%a#9.i+s~I]J]K]d{;   A ~ k@6@T'r>E]N{2-`,s~j!_]L{L]L]M]T,'!f!l{)~9~N]O]P]Q]R]`{0,z-o]S]T],]U]V]n]W]X]",
"Y]Q>Z]`] ^.^+^`]@^c;c;#^$^%^&^*^=^-^;^>^,^'^)^!^~^{^]^^^/^h~8]m~i{Y.@-5@.=f@{ F l+t a#L.m!(^_^:^n><^c&Z Q+a#a@U ) ! [^+&/%s%P+N+!.~'o!T{) D G 9@[%0#% #&}^|^|^O'1^u!U'p*P l+_ m.* /..>t!#!_'%'2^R{3^4^5^6^7^8^9^0^a^b^b^c^d^e^f^g^h^i^j^j^k^l^m^n^o^p^q^|,r^g]q{s^E~q{_-n^t^j^D~u^v^w^x^y^z^A^B^B^C^D^E^F^G^Y$H^P{I^2^J^$~E]N's>#-R x#9 y.x+B+j=u>8]m!O'S{K^@=b@0#W%n@+.U I @&L^.#!.&@P+P+#.q%M^2.4 U 0#T@%@f@&,F&$,N^m!$~O^4+B+* C&F { f@q%5@T'd{P^n!+!h~0{^^Q^f=R^S^i'T^U^V^;^W^X^Y^Z^`^m]$)c;M- /q{./+/2,./@/X-Q>",
"#/n^$/%/&/o'C-$)$)$)c;c;*/=/-/e%v^;/>/U)v'C]C],!,/'/4^)/%{r~-{_*w*5@}%o%Z#p 8 k . l . c.R /.> ..D I h { W M , > o N +=!/n@#. #b@~'6+R.~/Q.r ; Q+ #n . o ' ) p b#{/e)o.N .   } / x#& p*<*2@]/n~a{#{h~^///(/_/:/v'</t,[/e,}/s,|/E~1/f]D~j^D~D~*/2/N)%/U~6,3/4/5/6/u^7/]{C-*/D~j^j^D~8;8/9/v^T)u'0/a/b/ {a/c/d/e/>~0{f/J]a{N{{$>=w*3#^.7 F ,+z.Q.x#n@j=S@Q+g@K+f@I n 9@b@a.- m g/b&t%6-/+o@Z@y#h/V@h ' J J + I W ' U +.P+k@e.Z%C&W W l k 8 ' T@}%e)T'Z.{'a{s!i/P{j/k/u]l/m/a/a/0/,~n/U)o/p/N)D~D-V~$)V~0,C-]{&/q/x)g]r/",
"s/t/9/u/v/s^w/8;^!C-f]*/*/V~F;H-H-x/F;y-x/q-B-G=>*%$y/z/A/B/C/#*=@[+$.L - O o.m Q.z.  B l l l . ( ( } f 8 k k 7 f } f { ~ ~ ,.=+h ! ~ . m.,+} . l { { 7 8 k f z.Q.m . { 7 l Q.I 2 C.$ =@Y&#*w-D/E/F/G/H/H/I/K*B-K-x/x/y-F;H-H-0,C-J/J/J/2>i^K/u^L/g]4/M/N/O/P/4/Q/R/l^S/J/1/1/T/T/U/^!0,M-M-M-q-g-A-B-V/F=W/X/Y/Z/`/ (D/ % %=@n,& U 4 l l l 7 l Q.m N B / k 8 8 B l . ,+,+g f ~ ! 4 '+*+~ ! { 8 F ( 8 f } 8 k / ( ( 8 . W l B   z.Q.W Q.q s <+$ =@-@N-B/ (z/.(_$E*+(J*l-@(g-q-M-S-M-H-V~V~*/D~*/^!0,2/x)s^v/#(9/$(%(",
"&(*(=(-(;(>(,(t/'(9/)(!(~({(](](^(p-F-h-i-/(+;((((_(N&O&$*:(=-3]<([(}(|(1(2(3(% h { . 7 I I * * p J C., f@+.+...1 1 1 G ..G )+~+U ..........2 L+*.*.f@= K M & & x#x#{ l k Q.R X.4(5(6(7('>8(9(0()&a(b(H;H;+;+;c(/(c(c(.;K-^(r/d(e(f(g(h(i(i(j(k(l(m(n(o(p(q(r(s(t(u($(v(#(w(R/Q/v(x(u/y(L/z(j-.;c(c(.;+;A(A(H;H;B(b(.(R$w>C(D(E(F(G(H(/.q 8 8 { l c.M K q o.O J f@L+f@Z 1 G G G G U 0+&+2.G G 1 1 i G Z Z J o , n N - ; { . 7 . 7 ) C.M.I(J(K(L(M(N(U$<$O(P(P(N&_(+;Q(Q(/( ;i-E-g-l^R(p^S(w(T(E~F{L/U(V(W(X(Y(Z(`( _",
"._+_@_#_$_%_&_I{*_=_-_;_>_,_'_)_!_n]n^%/8/@^y-+;+;y-W-~_{_]_^_/_(___f/{$2@ =Z%%@4 :_r ; T@l@^%q%6-q,q%0@O+N+N+`#j ....j j G $+$+..j j 8#8#7#J+N+&@O+&@.#S@~'/%m@p@W%* %.k > }+$& =@#{$s~<_[_}_|_1_2_3_4_q-j-/(5_`{6_7_q^8_9_0_a_b_c_d_e_f_g_h_Z~i_j_k_k_l_m_n_o_k_j_p_q_l{r_s_d_t_u_v_w_a_S,x_J*o-L-K-j-c(G;@(y_z_A_,/B_C_(_D_E_F_<*L.[*a#8 c.K &.W%l@n@8@[%q,b@O+&@&@$@g@8#8#j j j w.&+4.z#j ......7#$@N+0@0@q%G_~'.=n@a#l@, p 6 4 %@Z% =w*h>Q'H_I_J_K_L_M_N_O_P_+;+;H-Q_t^S/o^R_S_,_T_U_V_W_X_Y_Z_m{`_ :n{.:+:@:#:",
"0_$:@_%:&:*:s_=:B!Z(S)Z(-:Z(s'`~;:p)>:,:':):z(+;5_!:~:{:]:S]Z'@{^:/#9*`*U'1+G.a@C 6 & 3#q@p*k++#f)Z@!.0@N+N+$@`#7#`#K+7#j D =+)+..8#7#.$J+K+J+P+&@O+0@ #^%)%.#G.p*4+p%t 8 1 Z#m@4+=%{$##8*/:Y$X,(:_:::<:!:k-/(Q_):[:~,}:|:;(1:s's'Z(Z(-:2:3:=_4:5:6:7:8:9:0:a:7:b:5:c:d:=_=_R,-:-:-:S,s)S)e:~,W(f:g:R/U-c(o-h:i:j:k:l:m:n:o:1@o*:*4@$&T@= { M S p*4+A#o%5*.=o@0@0@O+N+$@J+J+.$7#8#..n.&+D ..8#K+K+7#`#$@N+&@O+0@y#!'p:}%L.q@3#t :_C 0@G.1+>=:*1%={q:Z!r:s:t:u:v:w:/(/(4=x:y:f(z:p)t's'S,A!A!S,s)A!A:B:X_C:&:D:E:%:F:",
"G:H:I:$:J:K:Y_L:M:A!-:s)s)s)S)4';(t'e:N:O:P:l^c(Q:R:S:T:U:V:W:w$3$H#`*7)7)k+p%b@D 3 & i>6&1+q@Z%9@o@b@!.N+M+j 8#8#7#8#8#j G ~+$+j 8#8#7#g@g@`#K+$@N+ &o@8@b@T@o%4+1+ 'P 7 1 a#[*4+|%{$9*8*^#f%.,X:V;Y:Z:`: < ;=/.<+<@<n(m(e:;(1:S)s)-:L:2:M:#<*_2:*_$<%<&<*<*<E:=<K:3:Y_#<2:#<A!Z(s)S)1:;(e:1:-<;<$_><F-j-,<'<)<V*!<`'d=4%8*8*i=x*6&[*/.f@~ c.p%<*4+L.m@b@o@o@V O+P+K+`#g@K+7#7#8#j n.B.G z#8#8#7#8#8#8#M+N+!.b@ #a@Z%q@1+4@T'K 3 D b@[%k+7):*9*={3$T$h,j]~<{<]<^<j-G;w(J{9]S)q)q)t'1:s)/<s)s)Z(A!L:(<_<r_:<<<[<}<|<",
"1<2<[<9:3<*_#<o(n(B!4<M:5<S)S)1:A!3:6<7<8<9<0<j-a<b<c<d<e<V)A$A*f<b${$['s>}%p%^%2 l$$.<]F_4@1+G.Z%9#V .&O+N+8#7#7#7#8#8#8#..$+J&8#8#7#8#7#7#K+K+M+&@O+=.9#^%m@L.k+=%<]~.{ 2 n@$&4+U';>o*o*f<g<A$h<i<j<k<l<m<h-U~n<o<p<Y_S)4';(4'S)o(Y_m{_<q<n(#<2:r<s<k_t<u<*<k_v<r<#<#<n(M:6<g_(<w<S)4';(4's)x<y<z<A<A-h-B<C<D<E<F<.,e=T$a$;${$x*|%e.[*%@! x#X.G<1+}%W%^%9#8@O+&@N+K+K+7#7#8#7#8#8#v.&+..j j$8#7#7#7#7#M+&@ &V 9#^%G.-%i+F_2%@ l$2 n@p%}%s>['x*^#f<a-W:w'u{H<I<J<G;F-x(K<L<M<A:=(s)S)S)S)w<Y_h_q<q<o(*_N<J:&:u<|<O<",
"|<P<E:k_Q<R<n(w<A!Z(-:w<5<S<S<S)A!3:R<T<U<1:M/b;V<W<X<Y<u{Z<A$`<H%&%h>@~,=k+[%.=C.! Y& [F_6& =}%p%/%W@O+&@&@$@J+`#`#8#j z#..)+J&8#8#8#j 7#g@`#$@&@O+!./%9#W%G.}%5@=%.[@ | g@[%A#1+`*;>d)+[T$@[A$W)#[$[%[&[*[D-=[-[;[>[r_M:Z(,['[5<o(n(#<#<n()[N<![s<~[8:8:P<>[>[{[][^[N<o(n(2:L:#<o(/[m(1:([L:=<t<_[:[<[E-[[}[|[1[X,h,z$2[D$S=h>{$<*|+G.b@4 M 3[O'5@k+K.p%y#/%W@O+&@N+J+g@7#8#j 8#8#v.&+..z#z#8#7#`#J+J+N+&@!% &/%y#L. =6&F_s!z+! C..=[%k+s>@~0*a$A*`<4[Z'5[6[7[8[G;g-9[0[a[c:f_Y_([S)5<S<5<n(R,Z(A!w<#<b[9:%<&<2<c[",
"u<d[*:o_e[f[g[o(/[1:s)w<o(h[i[w<-:#<r<b[j[k[l[x/m[n[o[p[q[r[d=s[H%*&u>h>x*B'5@S@Q+I t[g)_*|%=%#-G.9#/%!%O+O+N+J+`#7#8#j 8#j $+$+Z ......8#7#J+M+O+!% &/%y#p%o%}%5@=%_'=@l$J+}%#-<*_*d)u>f<H%e=W:W)u[$[v[w[x[c;y[z[A[B[C[5<5<w<o(#<-<#<o(n(N<N<D[E[F[G[H[a:o_d[H[H[a:I[J[N<-<o(o(M:#<n(w<5<5<5<C[K[L[M[^~5>N[O[|[P[h<h,A$2[q=D$u>;>.>#-k+/%C M Y.S{5@k+L.[%y#y#V !%O+&@J+7#8#4.G ..j v.3.j 8#j j 7#`#.$P+&@O+O+#.9#[*#-=%|%;#g)t[I Q+S@5@2+{$h>u>*&a-s[d=),Q[R[S[T[P_^~$(U[V[:<-<n(h[Z(w<w<w</<S)1:w<o(3<W[7:&:9:8:X[",
"Y[%<>[2<Z[`[ }3<Y_K:.}H:+}@}#}@}I:[<$:o_$}%}&}y-*}=}-};}>},}W:{=|'f<D$u>;>7).'k+%@h $ c{x*2@2+1+(#Z%/% &!%!.4#J+`#6#j$..X@~%)+$+G 1 4.j 8#7#J+4#b@!%W@Z@$&W%p%L.5@=%'}~.| $@5@w*`*;>D$y*)}!}~}W)W)i]{}]}^}/}V~(}_}:}<}[<u<[}+<}}|}|}1}1}Q<x<2}3}`[4}X[k_5}6}a:G[6}k_I[3}x<r<b[[<F:7}8}.}I:[<9}$:0}a}#<k^b;b}c}d}e}h<W)f}g}]*y*y*u>_*j=T'~'C x#p=h} =}%K.W%p%.==.!%W@0@M+`#8#j 4.2.G w.&+4.X@G z#6#`#J+N+O+!% &8@Z%}+ ==%|%x*c{n,h %@}%.' ';>u>D$y*i}{=W:j}k}l}m}n}B(`{o}p}q}>[j_&:7<&:r}s}9}9}t}w<#<N< }u}v}u<d[P<w}",
"x}y}z}A}B}&<C:C}D}E}F}G}H}I}J}J}K}L}G:M}N}O}&}b(P}Q}R}S}T}U}+,V}x'z'*!a{u>`*2+5@0@h t >{x*2@3@[*e.Z%9#o@W@.=9@N+J+7#7#7#z#P.)+$+1 j `#7#7#K+&@!.q%!. #y#$&}+[*L.e)#-*'<+{ N+5@j={$V'W}X}!}|'V}r=r,Y}Z}`} |.|^!)(U[+|G:C}E}E}@|F}#|#|D}D}#|D}$|j_*:|<A}%|&|*|=|-|;|&<>|>|,|'|#|D})|#|!|F}@|E}~|{|]|^|y~&/$)/|(|_|:|<|[|}|~}||}'&~p!d)U'=%.=) m 9-*~ =k+$&$&$&p%8@0@y#!.&@J+7#7#`#K+1 x.&+ $z#7#7#7#J+N+!.9#W@=.8@W%$&[*3@S#x**'y+h 4#5@2+`*V'a{&~z*1|V}+,s,2|R!3|4|A(z-5|a_6|O<G:L}K}J}J}I}@|F}E}7|8|E:@<2<B}B}u<x}9|",
"O<0|a|b|c|d|e|f|g|h|i|i|G}H}j|j|j|k|J}F}l|R)m|y-n|o|p|q|r|h<h,{=|'q!s|t|+[:*<*k+0#p r <*:*@#|%4+&![%^%o@W@@!!.O+s%7#j X@i C 1.!+D i 2.7#J+P+W@W@p:!%T@n@}+<'q@1+#-#-#-n 7 M+e)@#{$y*H'u|x'i}1|Z,L]v|w|x|y|z|^!#/4<e|7|A|J}I}I}H}G}G}i|#|B|g|C|D|E|F|c|c|G|H|I|J|J|K|L|D|D|L|M|h|G}!|F}H}I}I}J}A|;|D}N:%/$)N|O|P|Q|R|;!Z,n)|'=!S|W}u>U'=%~'p . /%2+=%e)q@@-L.m@^%0@f)V W@&@J+7#4.i D 0+u.C i X@j `#P+O+!.p:=.o@o@W%<'q@|%2@:*.>+ p 0#k+|%:*D@t|`;X}i}f}h,w'T|U|_{V|W|z-X|Y|E|@|K}K}J}j|I}H}G}i|i|D}Z|Z|D|`|b| 1.1A}+1",
"Y[e|F|@1y}'|L|g|#1B|$1%1i|H}I}j|I}H}H}!|&1U[*1b(G*=1-1;1>1h<{=i}i};~,1'1x*U'j=L.4#p m R `*`*w*e)+>7@N+b@o@=.&@*=2*$@J+7#z#2.!+~+X@X@7#O+&@O+!%W@=.o@ #0@n@*>#- =2+#-/.7 7 M+5@2@_*o*)1!1D]n)|'n)Y,~1{1]1^1/1^!)(X!(1~|L}L}L}J}H}%1%1h|_1D}D}!|D}'|;|:1<18|;|[1}1|1+1)|D}#|B|_1h|i|1111H}J}K}L}L}@|_[R,21V~3141}~516171x'q!:]/^[(p!x*U'=%.=p 81C.p*<*#- =r>#,9@ # #/%W@W@!%&@&@K+2.X@w B.i 4.8#K+`%2**=O+#.o@ #%@8@|^e)w*`*`*T m p 4#}%j=U'9101a1=!|'i}4[`'{1;1b1c1W|z-V,d1e1F}E}j|I}j|I}H}i|i|_1f1g|g|E|g1h1d|i1g1M}",
"E|@|g|j1k1N}L|C|_1h|h|i|G}H}I}I}I}@|@|@|o<l1s,b($*m1n1]}:|3)f}1'f}o1p1h=3@|%<*[%Q+n ~ K K. =<*4+.=^%W@^%n@W@!%*=s%P+`#z#4.1 %+%+X@4.z#K+&@O+O+W@W@=.8@b@T@o@o%k+5@Z%K 6 { M+5@<*>=2@A'=!:]q11|r1Z!@]s1t1u1@^0,m|v1i1B}{|w1L}I}H}11i|!|h|h|_1D}D|:}x1.1c|)|A})|y1z1A1B1C|#|_1h|#|i|%111H}J}A|w1w1g1C19_$/F-D1E1F1e}G1Z,1|n)q1:]H10*|%:*#-.=D b p n+L.5@}%y#T@9@o@o@V W@!%O+O+$@8#]%X@w b.2.4.z#7#P+2**=O+!.n@n@9@^%.#1+<*#-K.t ~ p Q+[%<*2@5&(;3]f=1'1'V}I1J1K1L1M1W|I*N1d_O1F}@|H}I}H}H}H}G}i|h|h|B|D|L|P1Q1.1D}!|R1",
"I}G}@|H}K}S1T1U1V1W1f1_1h|H}I}J}~|X1Y1}}Z1Z~`1b(;* 2.2+2{{r,1'@2#2H1 ~f<3@-%1+o%b#n ~ r e)<*<*B+o@8@8@p%$= #!%O+&@$@7#z#4.2.%+)+ $4.]%8#P+s%!% &W@)%y#y#[%/%n@S@5@[%K 6 { P+5@p*i+|%S=v>$2%2e/q1+{&2*2=2-2L-M-;2X!y}X[f|D|7|I}H}G}B|>2_1_1,2'2)2!2I}K}A|I}F}E}L}J}I}~2{2]2^2_1_1/2_1G}H}I}C}L|C|(2y}R)x)F-_2:2<2[2}2Y*:]|2i/}'A'_*4@1+4+~'D b x#Z#5@k+.=/%p%.=^%7@#.!.!%O+P+K+4.z#X@N b.2.X@4.7#$@&@O+!% #0&[%8@8@o@m@<*<*e)r ~ h b#o%1+-%2@y*}'1222-!1'3)32425262Q(I*Y!n{}}B}g|f1E}I}I}G}h|B|f1W1728292G}J}E}F}I}A|",
"d1z~02S_Y|a2b2j'c2d2e2f2g2h2F}@|~|!|i29:Q<s'j2y-k2l2m2n2o2p2f=>~q2=!}')}@#-%A#K.Q+h 3 x#k+2+=%5.Q+n@.=p%.=W@W@O+s%$@`#4.X@) =+%+2.4.j$j$`#.$O+ &V 7@.=.=.#M+K+6@1+Z%+ b { &@5@q@4@2@0*J'6)r24^f=s2t2u2v2w2F;M-8_J{`[Q<x2d|C}I}F}y2z2A2B2C2D2E2F2G2H2I2d!J2Y~d!K2)_L2N]M2N2O2P2Q2R2S2X1I}L}G:T2U2V2@<`~%/b;z(W2X2Y2M*s=D]Z2`2p!J'`*2+1+4+.#D b m `@q@k+=.L+Z@q%y#0&/%W@!%P+`#7#z#z#X@w b.) 2.X@7#$@&@O+!.W@.#[%.=^%4#C.=%3@5@M 3 I Q+K.p*-%U'^*y';~ 3-!Y'p2.3+3c=@3Q(o-X|l{`[#3$3~|E}~|h|%3&3*3%3N}=3-3;3V[,_L2>3,3'3",
")3)(!3v^~3{3$({(]3^3v'Y!u'J{/3(3v14:i[_3:3m|<3k-j-/1[3}3|31323s=|'#{h=(*U'2+.'W%C.I 3 m p@1+B'9#a#9#W%9#Q+!.W@!.s%N+g@X@i ! 1.%+k$2. $4.7#`#s%!.!.0#T@9#.=8@Z@='K.a@I 6 3 g@}+L.4@2@_*h>u!%{:]33e/43r&53+^F;M-#(63s/732:83I29303a3b3-:c3d3^3;2f(y:e3f3g3V(|/h3e3~3i3j3k3,(o}-:R,X!l3X_V[m3n3X__<o3o3>:&/F;z-p3q3r3s3t3u35)#{J';>`*3@1+$& #C 6 { 5.p%e)U@W@y#y#^%0@!.0@O+$@`#j$~% $2.  ] ! C 2.8#P+&@!.W@!.N+^%9#W%`@^%.' =3#m 3 I C.p%#-=%U'+[*!#{i}Z,v3w3x3y3R>z3/(L-A3B3u(,[9_T<C3D3E3c~`~F3G3H3I3$(J3[/!,j3K3L3^(",
"&/w/=/21212=%/$/M3<32,-/N3_-O3P3Q/T(S/Q3z(Q_n-b;G;J-@^R3S3/&T3U34^V3g~u!*-t>,=a#q { :_{ > k@n@T@&.&.`@b@L+^%o@%@5.k@..W3a b ^ [ ];];];5 1 2 L+b@#.k@Z#8@a@l@9#Z@' h { 6 6 ) C.e)w*7)=~2-[]X3Y3,1Z3<;`3 4q-b;b;^!^{o'=/=/.4L/n^.4M3Q>+4g]+4m^=/w/%/%/=/S/&/k^=/%/214=x)%/4=@4q{#4<3q{x_p^x_s^.421w/k^J/0,b;F;l-$4);%4u|&4*4V3r~*-s>j=@-m@2 ~ 6 3 ! r W@q%9#b@ #^%C.V V N+Z ..C ];];];} ] 8 3 l$2.*.f@%@ #^%*.b@a@Z#n+^%y#`@J { :_~ r a#,=h>u>p!=40{P{r2-4P=;4>46_@(i-g-Q_t^/1/1x)#(#(4/,4O>'4Z]+/-/n^4=$/.4$/x)%/=/k^",
"<[^~k^u^x)):)4!4~4{4]4d2^4/4u((4,[Z~U[A:$(z(o'F;G;c(_(_4W&C/:4]/7)[*6.T T $ ^.N 8 8 8 8 k ( d.,.0 |.g   m.A.)+,.,.e e _ {;<4p;p;: : ^ H e g ,+,+'+A.p.p.p.'+p.,.( ( 8 b 7 7 . t &.T [.9.|+2@[4x%R-}4V&|4G;F-F;2/2114X_X_b~,[243444546474849404I3i(l^N)]{^~2/^~o't^214/j(04a4b4c4d4e4f4g4s/h4s)_<r)4/^{^!b;F-B(P(i4j4k4.~n~l4i+`.9.p@R O 7 6 b b k ( ,+A.y.y.n.n.z.o.N z.f f m4_ A A '.n4{;A H ( m.,+'+x.x l Q.z.=+%+p.p.} k 8 b 8 B o.# S [*e.4+U.-{n%k#`/o4p4N&H;G;g-Q_S/e(q4Y_i[:3M[r4s4t4u4v4w4x4y4]($/=/&/<[^~^~",
"k^N)`'z4A4L2z}B4C4B1D4E4F4G4H4I4J4K4L4A[a2n]n^g-F-b;M4N4O4P4Q4m*R4S4T4k4U4!@V4W4X4Y4Z4`4m>T{a& 5n+3+d.Y '.< ^ e o.M M c.z.9 : Y 0 p.w o.o.M ,.9 [ Y '.^ y.l+{..5D.+5Z4@5#5$5%5&5*5=5*5m;-5P@P@;5>5,5'5)5L-M-M-5/!5p}~5{5]5^5/5J}(5_5:5<5 1a|X1c_[5}5X!!,w/^~&/s,|515Y|A|D4a|.12535455565758595D|B|%_P3=/H-g-A-05a5b5c5d5e5e5U4f5g5g5h5i5j5k5l5m5v%O.^%@ %.A.0 < Y : _ [ w c.n.A.%+[ '.Y A g w o.o.n.e : < Y < [ w.* n5R._%o5r%<%p5q5r5s5t5=,u5v5w5x5y5z5A5B5C5D5F-F-z-L/W,,_E5F5G5H5I5J5K5L5M5N5O5P5z<d_Q5R5S52=2>o'",
"w/T5U5Z|V5W5!|7|[}X5]|1<7|7|Y5Z5`5 6.6[}/5+6o)@(F;@6#6$6%6&6*6=6-6;6>6,6'6)6!6~6{6]6E]*'E_;{j>+'o!.=q Y : I+U *.M+K+g@8#j G W l 1 ....j Z N+%@Z z.Y : z.Q+8@^6*>/6|^J'(6_6:6<6[6}6|616263646566676869606a6p-y-e3b6X5c6E:u_d6d|#|e6#}f6C}z}g6{|c6!|h6i6U_j6t^F<d1i6R1)|{|B|E}B}{|H:<<k6e|&1l6L[g6#|0_m6E~5_z(n6o6p6q6r6s6t6u6v6w6x6y6z6A6B6C6D6E6F6G6|^l=,,a.M ^ H6[ I 5.*.+.....G D . ( h G +.g@g@K++.n ,.'.p;w 8@,,I6S{J6O'O'K6L6M6N6!6!6O6P6Q6R6S6T6U6V6W6X6Y6Z65_/1w|`6 7w1.7+7@7#7D4G:G:]|g1$7J}!|'|o<Z|O2%7&7&/",
"w/k{d_F}[1h6+1[}*:k_u<c6!|i|w1@}>|B[![E:G}U[*7i*A-=7-7;7>7,7'7)7!7~7{7]7^7p1h~`,k!V'['s>,=7)i>#-L.p%q [ 9 % b@8@o@4#K+8#8#8#i D ..Z Z J f@b@9@4#f@|.^ n.0#^%G.1+2+j=7)s>*-r~`,]'8]f{/7P{(7_7:7<7[7}7|71727K-U-37y~t_[}Q<47R<I:J}9457L}L}H:F[b:u<]|A}#|u_c/&/67z<i6A}M}%<j_*:X5~|A|H477i|1}J:6<87X5d_l{21B(9707a7b7c7d7e7f7g7h7g=D(i7j7k7k7E6=~`* 'w*@-L.9#9@s ,.: x#Q+b@b@*.Z Z Z j ' 4 j$6#8#g@N+V 8@a@a.p.A n.[%K.e)B'7),=s>['>{l7m7f/V3n7o7p7q7r7s7t7u7v7w7x7y7k-z7b/e_$7Q<g[477:K}A|H}7|X5P<b:C:Y[i6V5i6E5A7B7&/",
"w/C7D7w<2}X5{|@}&:9}I:1}75K}[<b[:<&:E77|@|2:j2G*q-F7G7H7I7J7K7!>L7T3s2o1;~]'k!J'u>d)@~t!s> '.'}%o%p%r 9 9 k@[%9#^%0@J+7#8#8#D D j ..Z +.L+n@o@T@%@0 :   %@8@o%5@.'<'M7N7t>i~E_k!`,s!g~D]-!p2O7P7Q7R7S7T7U7H*k2R/V7L}F}g69}O}Q<1}k6w_c60_E:8:j_*<u<1<Q<o3W7i^h(2:[<1<c[%<j_>[I:X7{|57Y7H::<$<[<g6M|d1B3`{|4Z7`7 8.8+8@8#8T]t~o1;~h~h=k!$8j~=~['s>&!i>@-S@y#9@r A A + 9@b@9#Q+Z Z Z j 1 ) j 8#7#K+&@n@9#W%4#,+H Q.p%q%k+.'.>s>t!['h>d)V'a{s~;~o1-!)=%8&8*8=8-8;8>8,85_'8}/t}I}c69}a:47b[G:z<$71}I:C:9}[}'|+}O}_<)88/k^",
"7/!8~8{8]8=_I:e665z}c6z}{|O<~|h|I}L}w1d_J}*_y4G*i*^8/8(8_8:8<8[8}8|818I]/^J]]'a{*-i~286]['s>Z)L.o%W%#.f e a.[%y#n@&@J+K+J+j D o g@J+K+f@*.o@[%[%4#[ _ ; 4#Y@q%+#B'S'6]Y.j~N{g)[]J]=4h)384858s:68#]78M~88S>98B(08q)E7z}65C}C}G:#3X5c6{|{|1<M}X5I:O}a8b8c8!,U/&}d8e8N<C:k_$:%<*<f8@}E:r}H:z}O<G:g8E}h8Z>n-A(i8j8k878$]l8m8n8]^3^h)g~J]8]]'O'j~286]M7o8T'S@Z@W@J ,.A C&p%.=y#N++.+.j 8#2 ) G j 8#`#&@n@y#.=%@'+/ %@p%o%L.Z),=t!@~6]{'j~2-g)J]0{i!18p8q8r8s8t8u8v8w8x8P_y8z8c:L}w1L}A|L}K}[}I:I:[<[<E:r}r}[<A8B8C8D8$/]{",
"E8F8G8H8(<y~e|I8X1X1X1f|X1~5W1B|L}X7p}p}w134{(-*a(J8K8L8M8N81[O8q8v3P8h7h)+!]'r~$8l!i~=~@~,=i>L.K.Z%~'B F J o%W%b@0@4#%@0#f@D U *.9@%@M+4#8@G.G.a@0 }  #Q+V .=k+.' 'i~-~O'I'J]J]J]R{_]Q8R8S8T8U8V8W8X8Y8Z8`8B(08 902D:0_g6[}{|C|~5~5.9C1+|D4i1+9-:@9#9*<$9^~%9E[&9*9y~=9 1(1-9;[X1F|X1M|g6X5e6[5f8z~V76_A(;9>9,9'9)9!95[/!~9e/^^0{=4J^J]{9V{*'i~N7Z)@-o%/%4#=.M A 3+K.G..=0@M+M+ #%@2 D 2 b@a@%@0@b@Z%[%Q+,+k /%Z%G.}%Z)M76]]9i~*-u!r~s!+!2^^9f>v3}8_7s1/9(9_9:9<9P_[9f(g_E7p}X7X7K}f1L|;[i1}9D4y2y2|9G819g[2939B7^{",
"2>4977g17|65!|h|i|B|5969W1W1^279B4c2p}+689x~99r-5_09a9b9c9d9e9f9g9h9}(i9H1g~f{[]]'V{*-u>j==%q@G.e.B+T@f _ , n@^% #T@9@0#Q+5.U Z L+*.Q+%@%@b@[%p%Q+_ } %@L+!..=k+5@.'d{O'K]'}$~Q'j!j95^q2k9l9m9n9o9p9q9r9s9W&k2q^t9`6d1;_,2V1V1#15979^2B|>2B|_1W1E3u9v9~|w98;677|x9y9z9~5D|W1W16|59A9A9#1B9z<C9L2d1D9y:z7_(E9F9G9H9I9J9K9L9M9R8(]P{h)=4$~N9%-V{N{t!T'k+S@o@M+!.n _ 3+W%o%Z%4#%@Q+*.L++.' 5.Q+%@a#b@b@^%9#f@,.k l@B+$&G.1+<*7)u>-~a{r~]'J^%{O9P9<(Q9R9S9T9U9V9W9X9Y9B(h*!,(3Z9d1a_,2O27959W16969#1B|f1f1M|`9B}C} 0x)2/",
"2/n^.0+0W1#|#}s_`_02K2H2@0`6`6`6;_+6Y|@0#0$0_-k-H;|4%0l2&0*0=0-013-0;0>0,0'0)0!0~0{0]091U'6&G.p@B+- M 9 _ z.a.a#l@l@`@- U , U ' , > J a.`@Q+b#C.Q.A A 9 W M+T@W%L.L.2+j=N'^0/0(0___0:0<0[0}0|0100!{-2030O&_4H;z(4050)_(3)_L2L2,360(370`_Z~l{80f6f1D|e|7090b;j}Y|i6E}K}e6Y|l160r}L200a0c_b0b0c0K2d0e0u/z-A(W&%0f0g0h0i0j0k0l0m0!7L9__n0(0o0m%p0.>T'}%L.p% #U N e A m.b#a@a@0#`@L+f@5.2 2 ; J a.`@l@T@T@`@p _ F s % 3#}+A#6&>=]/;#m%&{!0)0)0q0r0s0t0k0u0v0w0**20/}a(B(K-y41)x0Y|V[y0Z9z0V_V_A0W_V[,_C3.:{|!|B0C0,!^{0,",
"0,^~D0E0L2`6A4F0t9X|G0H0a/1)I0J0'~K0L0,~M0g]x)p-H;V&P(N0O0P0Q0S#Q#P#R0]#I@*'n%S0$8-{.~T0=%(#L ^.+ A.^ {;{;0 o > - a.> m ~ 6 7 8 k . I q q n h Q.,+{;A A e N o s {.3#q@j=:*Z.U0/:V0W0X0Y0^#Z09%n$%$`0@$p4_4 aH*z(q^.ad,z!t'F3L0T, {Z></Z>+a</V7@a#az000w'<[h-k^$a%ab4v49_</</u,&ad,U,c~'~J0'~v~I0w|(-o^J-H;_4_4h.`0*aX#Q#=a>$-at|;a>as~a{,aT0{$j=G./.&.J o m._ {;{;_ I p o q r h l B 7 7 { ~ n , k@a.C.r p.{;{;^ y.^.* $.|+w*>{#!a{U='a3%(6V0U$)a!a~ao:{a*af*y/P(N&H;z-o^9/]aJ0^a%9/a/a(aI0w|T)f:X|)4y~T_U_d0_a21^!b;",
"k-5_k-z7G=G=G=X/:ay8y8:az7z7z7Y/z3z7z3o-J-q--*`8y&M&<a[ah+M p n n n m Q.c.o.x#n x#Q.m Q.N y.A.)+0 ^ : : '.Y : E ^ [ 9 A A A {;: '.: ^ [ _ _ {;^ A _ H H _ A e p.A.A.  w z.  z.N m M x#n h I n p M C&C&H+*@p4<aM&x-}aS-y8[9F/A/|aA/ (F/T-:a:a_&1aU&I/1ab(G;G;U-I/',2ac%`<5$3aM#4ah$4$>$4%,$,$5a&$F*_&E/}ay&p4*@p+x+K ^.; s > J * b#b#a.- - ; ; O C&s+0+p._ [ _ H _ _ 9 9 e e d.9 ,.A A 6aH H 9 g '+p.d.0 : '.: : : ,.J&I+c@- Q+%@%@0#%@%@k@& & ; & ; O O <+~.p4<ay&P(a(z-6_7a8a9a0aaa~&{-&03a&$l#ba'$cadaeafaf*F;b;x/",
"=&H/B-M-5_U-U-E-k-a(gaS-J-hah*h*K-i*iaO(haA/V.B@e.Q@#- =4+}+l@n+a#a#* K x+x+z m f } n.<+$&jakalama^6G_na$ W+,@x.w J@o.n.y.g H _ 9 m.,+A.@+q+`+.@P P @ t-E.u*oapa=4qarasaf / 8 p O s * = # n+T@9#p%[%k+ = =1+1+={t@$$)&h*q-h*'8F/G/w&S-S-a(H*O&k2A(A(i*@(B-P>B-U-B(|4|4k2B(B(P_P_k2O&$*;*O&P_P_-*B/taV.<.<.<./.n@a#0#4#Q+C.; ; > r M n 7 k / B w.O P-uava@&(+b@K x x @+8+.*J&%+,.e _ A A 9 e p.m.I+'+d.waY+p+&.o@R.xayazaAaBaC&z./ f Q.3+C&M q , a.C.C.% &.J.(.(.6.g.CaN-DaG*-*b(H*5_H*H*b(5_P_P_U-U-U-U-U-F-b;k-K*E,",
"EaFaGaC]q/k-H*o-t&HaIaJaKaLaMaNaOa4)Pa9{QaRav!|| ~y'x'Sa;~/^*!D$1-;$2@3@6&q@9.x+'+} `+TaUaVaWa,/v!Saw>u>Xa =[*Z#`@[*l@C.J Q./ F B o s n+B+B+$&}+<*['d)1^j!j9YaZa`a b.b+bm.,+^.3#e.|+4@9*(*a$a$q=!}`!i}x'@b@b@b@{W*w!#b$bZ!%b&b*b=bNa-b;b&b6^J-O&Q(O(j6>bD8,bK0'b)b-*Q(P_h*t&x!2'e,!b~bC]X,Z<{b]bG^^b!=I%7$`!g}g}}'H%)}a$R%1@1%H#p*<.(.% n.g w./b(b_b:b<b@2j!I'[bU'<*$&p@S A+&.s p l F } B > 5.`@n@`@b#3#p*.>h>y'}bo1|b1b2bs33bp+} m.+ J.e.R@-%4@1@i=;$T=`!X)X)g}z'%%a-{^@{-!!={*^bI1'{4b5b6b7b8b#bQ3q-U-@(B7:/9b0bO:",
"abbb)_S_/aQ3cbdbeb!8fbgbhbibjbkbiblbmbmbnbobf~pbqbrbsbtbub0{g~s~v>&~%{%{D$U'1+$.D&y.W+vbwbxbybx'q=:*<*}%q@G.m@Z%[%a#B+B+l@o F ( ' !%a#A+A+^%m@3#|+4+ =|%i=D@zbAbBbCbDbEbX+0+@ 6&1%U08]g~v>m)Fbw>:]T3GbHbIbtbJbM{5^KbLbMbNbOb_aPbQbRbF^F^SbTb!:_&x-<|Ub)_'_+6c0VbWb]bN&h*Q>Y}D8.].]XbYbZbRb.]`b c.cJa+c@ck/#c$c$c%ch!=!X)y'v>s~j!$83@8*$&z I+h+&c*cl8~9=c(;Q{D@Z.@##-|+}+p%B+J.a#!.Z } H W Z#B+m@m@[%W%}+q@<*<*x*^*y'Pa58-c;c>cW.y.D&$. =2@h>[]+!W}v>#{h)4^,c,cQa'cqb)c!cHaLa`b c~cQbRbRb{c]c^cr{/c(c_cq-]b:c<cc0[c}c",
"|cI2K2S_1c2c3c4cp2X*5c6c6c6bh!7csbL{.{H^M{>~-!3]0{/^h~+!y**!s~*!v>*-u>;>d)6&J.8c.*@+ @9c0cA*B%k#Q@e.3#A+J.l@a@`@k@C.a.k@5.p f B p Z J a.k@Q+n++$S {.].<.I.={R%4%2[acbcccdc0+8c(#@#]0;>+[V'v>v>*!m)1-`!+!+!+!+!5)D]-!i!>~t~h!.{7c'{~b:/ecI1w'']=&fc|)(380v1%_%_D9(31)K*gchcicM]F8jckclc#bt~W*i!Z*o1:]w>mc*!*!s~s~v>a$Y)Y)A'^*+[S=S=0*i+[+.@D&>@ncocpcf%>$1%r@9.J.].A+A+n+`@= k@5.J o . g h J a.a.f@k@`@a@A+B+S /.e.R@^#0$A*0cqc @@+D&<+3#2@J';>V'*-v>*!s~h=^*+!h~g~;~D]D]Z*i!,{M{H^4)t~sbr|fbKa'{2a>]T5N>o)rcS_I2I2sc",
"z480|c@0S_tcD=r:Rau~+ch!M{>~>~,{H^uc]^5^Q8vc4^4^P{0{p!#{#{h=m)*-V'V't>o*1%0.# + $+wa @Q&0c ~a$C@A#9.3#S A+0#b#`@k@n , k@a.- + > o > 5.J ' k@n++$S S J.<.<.R@5&A%a-W$wcxcc$.*h+T -%|%_*d)D$+[0*^*Y)$2X)S=A'h)Z*-!i!M{18Q^H^18M{v!Z,Z,t=K{g!`',!ycr|,360d!_}Z~z~80rc02E,j],!r:X,K{r=zczc4)h!@cH^18^^,{i!Z*/^g~Q{W'`!z'W'^*+[y*J'h>U'|%Ac8c`+#+<aBcCc||9$^#H#Dc(.J.].S A+&.`@J > 5.Z p ' M > C.k@- ' a.`@`@0#A+A+/.}+|+H#&%A*X)Q& @^+$+x+@ 0.1%o*d)J'J'u!k!h=*!s~*!I^P{4^4^vcEcuc]^uc@ch!,{M{t~f~7bY,u~Fc0!Gc@0S_K2scJ2",
"W{W{HcIca2JcKcW:~=!}$2$2}'y*D$D$v>/^I]^^4^_]38Lc0{j!#{8]s!q~u!*-*-J';>:*|%(#b#M %+D&McNcOc^:3$g{r@9.].n+`@= * b#U . n 5.J > Q.N p U > q I f@% n+T@m@/.3#<.AcY#8*Pcx>Qc98wa)+p+n,<.e.3@:*h>d)d)D$^*m)RcW}v>8]h~0{I]Sc3^38;~}'a$a$a$A*X}Sav!r=#b]bTcUcVc{3 , ,WcG0S_XcYcZcZ'7ch!v!1||'q=)}`cD],{ScP{_]I^0{j!+!^*Y)`!W'p!+[(*d)h>_*4@e.].h+s+~+g% d.d+d@dH#`.7.(.3#}+m@S `@`@G o - > p p c.- 5.C.> . Z 0## # Z#A+J.(#`.C@R%^:(bS& @8+%+M # (#>={$d)J'*-*-6)r~[]%{s~0{j9ScSc4^Q8Ecvc>~ ~`cm)@b:];~:]#dW:[|$d%dbb&d )*dk{",
"S]S]x!=d-d;d^#9$0$O#k#3$3$i=;>0*0*h>(*A'a{$8u>l!>d`,g)r~6)J'V'V'V'd)_*2@R@<.% Q.d.)+l+-%p!T=I.g.+$# a#= 5.p Q.m.( F ( N I l e e l W N ,+F ,+m.q % 0#A+3#@ +$H.Dc/;(6C@,dI+%+x f.[.<.R@>={$h>d)d)d)u>d)p!u!$8$8>>'dW'$80*##i=1@i=9*k#k#^#R$0$2[$d5c(ao}f:`>W,2'</3')dIaB*@[T$&%b$^#^#9*i=1@;$;$y*8]%{s!2-a{q~v>^*S=u>d)u>d)h>:*3@(#<.z+l+w.1.2$!d/:f/~d:.{.{./.J.n+b#; m z.f m.Q.h W m.0 W h p f ( }   Q.o J a.Z#n+S }.J$W'T=-%.@J&p.o.Q (.R@|%s>{'V'J'V'*-2-r~g)g)k!l!2-]'8]h=+[u>(*;>{$1@3$3$O#`$]*T${dS^]dkc^d/d^d",
"/dW{$^6^x$P#C/U&E*(d,*,*i$k#R$##b$1@@#U'U'@#U'h>h>h>d)h>x*U'U'>=|%3@6&q@/.; p f _ [ )+P 3#I.Y&w+<+s , q I . f [ _ 9 _ F ( ( F _ g f } e e 9 _ z.x#q + K x+K ~.[+A#3#<+$+[ ,.. o.x+& p@5@#-2+=%6&3@@#@#1%i=##i=8*8*S#9*b$k#k#k#k#3$3$3$n&o$f*!&_&I/R/_dp]V:e,:dM0<d):[dX#p$Z0:43$k#k#9*1@1@^#1@1@1%S#S#>=x*{$x*`*`*U'@#j=.>w*<* =+$~.h+Q.A.[ J&8ce.U.p*=@<+x+* * K O x#e _ 9 9 ( B } _ _ } } ( _ 9 _ A f l p O C.K & w+}.4@ =T 0+,._ B ' % (#4@2@>=U'_*s>x*u>n~-{i~u>;>U'>=U'U'>=####o*o*3$R#o$,*,*,*_$C/gcN*N*g!S]Z!",
"}d|d1dx-W&g%.%<ag%g%p4p4[adc[a<aP(982d:&W&W&3d %n,i4i4#*4dw+V+ @W+t+`+x m Q.l g ^ b.E b.*+k,5d5dr+@+m.m.,+g g e e ,+f m.} g ( g g A.m.m.'+e H e 9 m.n.w.x J@l+H+6d*+X X E ^ ,.A.  . Q.m c@q+q+p+f.8cw+v+v+v+u+W&7d:&:&W&W&y&V& aM&W&7d:&<aN&_(_(8dB(k29d0dadbdD/-*k-W|P(G*w&C/A/A/D/B/O(B/cdddtata ( (E/G%V.tadd:.T t[8c<+8cK , N   ,+e 0 E < < l.k,t+f.%.z 3+x N m.,+( H m.B B   m.( } f f m.f } F F } f B . z.3+.@*@X+r+!+< < < ^ g B N M x+f.t[H.X&h.ddV.B@K$K$0.0.taD/tatataE/E/cdw-R-edDaR-s-'&x&fd#*B/haf*gdhd",
"idjdkdldmd__n$dd.@J@H+H+v.z.B W.z/z//#C@8*taz B .   y.z.z.. f m.A.ndodpdqdrdsdtdL&R-i4#*:.ud[+=+|.E : {;: : |.J&%.t+W+%.P <+t & ,@t+.@h+%.* y.[ {;{;^ ^ [ d.n.8c8.h.V.7.7.@$vdwdxdxdydzdAd  '+g f } ( } } k } 3+h.Y#/#={:$(dZ%y.w w.@+r+.%_4C/4$BdlbCdDdEdFdGdHdIdJdPc_&V&h%u$Y+^+w y.y.].V.7.Dc_.X&v+'+f f f } g f f g ,+y.KdLdMdNdOdPdQdY&t[Y& %4dRdv.'+0 [ ^ {;{;^ 9 c@J@2$r+r+2$p+l+.@p+`+`+2$`+J&E : : {;: : |.1.f.Rd-@SdSdSdu+TdUdVdOdWdXdYdm.m.f . w w y.  .   %.D/AcAc:.C/h.8+  w @+5d2$x ,dL&Zd`d e.e+e@e#e",
"$e%e&e*e=eD^-e;eS]w'`'r:(*c.} >e:4,e',I1u]a-a#l 7 B   y.x.3+'e)e=-c-!e~e{e]e^e/eE,yb@{1'x'0$Dc].@ I+[ {;: D&8.2@|%>=>=q@A##-<*B'e)4+L.#-C'N7j=L.a.{;{;^ ~+T ].I.b$9$n)i!v!w!Y,(e]eE=_e:eO=z${*!@O   f m4( } m.P ~$<eC]X*`<>$A+B c.o:Y$$^V:e,[e}e|e1e2e3e4e5e6e7e8e,29e0eaex$l#o$s@T N l r@f*O#i,^dw!n$'+} ( ( ( / f x beQ0cede62eefege{&#bf=o1:]6$~$={[+z+k,: {;{;0 Q p@Z=&!@-G.K.k+G_='@-K.G.6&w* =A#4d~+: {;^ |.%.~.Dc`$||g}{^@{W*heocie=;jez_;5G%4dp+y.w     B 7 B S !=^dkeO#n$le'+f ^.i=]*T$9$gcHcmeneoepeqerese",
"te ]uen/ve:/x!`bgbwewexeyef.8 &,#bC]^d+{a-&%;$z+M B . EbzeAe3~BeCeDeEeFeGeHeIe+,r={^f<T$3$/#r@[*@ W.p.A d.Jen~;>3@r@(#(././.B+p@/./.3#}+G.4+{$V{KeA.6a,.z n+/.(#Y#t@i$b$w$',1'A$Rak{X{m/-bS,02LehcMef.f } y.H+g{T$1'I1w|w|L]L^B z+NeOeGaPeQeReSeTeUeVep)WeXeYeT,R50~:cZ(Ze`e fZb]d]^K W e&.f-b-bW,Y$~$=@@+m.} w +f@f#f$f%fz!&f&fT)*fW)4[V}A*~$R%R#s@r@9./.& x.6a9 0#4-*'w*L.$&3#3#3#m@/.3#3#(.I.`.|%d)=fU%-fA _ x+@ |+r@t@R%a-`cY$;f}|>ft]O7,f'f)f!f~f,f{f]f^.. B M {.##%%!=L]d~*d{^N f ^fF8xeWb/f(f_fX{:fNb<f[f}f|f",
"1fe,I1h,2f#br=r=}|71Y,5b9{=@k $,u~W*g}q=S=*&p!0.-@o.c.3f4f5f6f7fp)V,,! ,r[d=W:~=!}f<1@1%g{R@e./.<+v.e A 0+8f2-4@`.(#9.9./.S a#a#p@Z%[*3#[*K.1+N'&'9f_ e c.+ {.6.DcR@i+C@R$H%i,#d{=0fafU)f:~,A~bfcfdfefn.A.f.L&f<X}*&9${^Z<X,J6n.le*f&b`'ffw!Z'U};![|),t9[/T)v'>/,}r,h<gf`'hfu~C]ifub_.q =4x!>fG^*&z*g}5&v+J@g l@jfkflfmfA!h4t,o)f,W:r1~}g}`c1%g{-%Ac(.].L x#A.H ,+H&&'|%4+$&}+}+Z%p@l@a#S /.3#9.(#q@4@E_panfA _ s+W./.|+R@g{9*i=q=|'~}4[A$r,;/ofpfqfrfsftfufvfN x#n,4@p!A%&%z'f}Ra<eo   91wfnbu~7c;!2f71ke}|3)2'k{`>",
"Y*Y*',',~}xf|'i}=!yfz'}' ~w+k m=;~f<$2^*p!W}D$7.w-c@3+zfAfBfCf}/Df),Ef4[~}g}H%+[(*{$:*@#4@q@$&/.<+w ( 6aw Ff>>={(#9.[*[*a@4#a@a@4#*.^%W%W%$&q@=~GfHfH e N r [.<.e.p* =2+>=##a$f<!}',A$0f*1Ifu'JfKfLf<-n x.w-:.*&}'S=+[ ~2[N*#~N h.i}i}f}Y'Y'Y'1'X*[|W)4[h<Mf*1h,+,[|X*f}Z,Z,X*X*q1I%g.M J^Iem#f<a$f< ~i=cd4d} NfOfPfQfRfSfi3f,0fW:',a-T$S=:*|%4@4+|+(.6.% N ,+H f &>#!#-G.p%W%W%a@a@a@a@a@9@m@9.9.e.-%n~TfUfA 9 w W.m@$&q@4@@#`*0*v$)}g}~=1'+,),`1VfWfXfYfZf`fc.,@cdt@^*A'^*y*q=z' gp z.S#x'X}n)Sa1|i}Y'X*',#dX*Z!;!",
"D=#dT$T$a-}' ~ ~U$z';$+[1-8c8 D.f<0*Y)D$^*[]2-8.#*x I .g+g@g#g$gEfh,A$~=i,T$a$o*x*x*7)j= =q@[%}+t y.} %gw &g>>4@e.B+m@n@`@4#q%q%4#*. #9#$&$&1+T0J6HfH ( . r ].3#$&K.1+<*.>U'##o*)}a-~=A$h,*g>/=g-g;g>gx#w.Cah.(*j!u>(*U$T$`c,gN i43$B%z' ~y'i}x'i}!}a-|'D=ff2f^bx'',^bs={=x'@b||T$R#v+p N{w$Sa&~0*m)j!H#h. %m.#&'g)g!g~g]30fh,d=s[a-&%o*i=U'j==%q@K.9.<.% l } H f l~h}#-K.$&W%^%N+N+n@p%4#4#T@W%/.e.t@n~{g]gH m4  h+[*[%q@4@j=,={$o*0*a$]*i,@,W:j2Efk3^g/g(gz5W .@CaR@g)g)^*A'h)0*w>I   r@v$&%)}q!_g@b@bX'g}a-|'Y*}|",
"71~=%%a$A%A%0*##5&1%k#b$:4W+B K.N#g{C@1%U';$9*[.v+c.4 :g<g[g}gg,r[@,s[i,!}q=(*##`*`*j=6&4+p*G.9.L y.k F w |gu!_*A#J.a#`@Q+0#l@ #%@L+M+ #$&W%i>+'j>1gF m47 ' B+Z%[*|+p*4+=%|%>=##v$]*g}~=C$L3y42g3g4g5gC&n.w-h.3$D$1@1@g{n$A%:'  7dz/{a0*a$v$w$v$4%0$w$f%~}ke',w$0$`$`$*&*&&%&%1-:4N0;@n b{i=:4S#;$S=W}t@X&-@B 6g7g8g9gj3m|4[~}s[||)}(*`*@#|%=%1+p*e.[*p@a.l / F f j+*>.>K.G.^%%@M+Q+^%[%`@%@b#S B+|+2@>>0g]gF }   %.e.G.q@1+2+j=:*:*_*(*q=||e=z$d=,}*1agbgcgdg~ `+t[e.[bS=##9*S#C@H%m z.(.R#b$1%9*b$o*0*0*1-&%]*X*xf",
"`$w$*&f<q=f<+[(*;$9%3$^#Ac3+B m+M$Ac`.R@i+C@i+T 8cN egfggghghe2a`<i,@[]*)}S=;$U'@#3@4+G.e.e.[*9.~.w k (   igjgkg9#/.Z#L+Q+4#% 5.J f@*.a@m@a@<%<^<^c.H / 7 ' B+Z%3#/.(.e.q@i+6&9*1-f<X}|'',C$|/m:[glgmgHfn.#*D//#={g{g{t@L$s@n@l c@ %s@3$b$&%w$v$B%9$%%w$5$f%m#x$]*w$0$&%w$&%R$^#/#t[J@Q.k+t@/#H#9%g{g{L$cdv+B ngogpgqg.argd=',|' ~v$##2@3@i+p*(#(.3#Z%m@k@{ k F f s*$,$,0&m@b@L++.Z C.= 4#Q+f@`@/.K.u*h}sg+=F f   %.(#$&e.e.A# =2@>=`*o*+[q=H%@[i,i,a%jetgugvgwgx  %(.H#C@i+R@`.Y#4%c.  [+C@1-k#1%;$S=f<)}q=)}T$9$0$",
"`$n&n$N#0$a$A%&%N'L$t@L$W+c.8 p+`.2@-%Q@`.`.R@g.8cn.l xgygzgheb-i,||z')}+[h>>=4@1+p*|+e.9.3#J.[.<+w f m4m47 ~ l r k@9@b@b@a@- o a.a#0@4#Q+G l B f H H } l > a#n@p@J.J.(.9.A#4@2@i=o*v>}'g}!}Y$AgBbBgCgn c.t[:.L$Q@s@Y#J$1@v5K N v.X+D/i$H#1-*&)}9$B%I$,*I$,$Q#I$4$B%9$f<*&b$H#n$w-`+c.l $ 3@t@I.Y#t@Q@Ach.-@. DgEgFgGg}=I%`<g}}'A';$9*6&Q@|+9.3#J./.p@T@a.W f F H f z.W D N+0#a@9@Q+o , a@9@b@a#`@O I h I ( m4k   h+6./.3#(#e.A#p*i+3@U'h>D$)}a-||i,J%heHgIgJgl c.-@<.R@R@R@Q@Q@3@0.z.. 3+Y&/#t@={*-A%a$v$0$4$:4>$`$",
"*&$$.({aR#k#R#={#$t@8.taKgX+  s+Lg{0@#@#2@@#@fta3ds+  >ecdMgNgOgPgQgD@>>Rg|%6&Q@`.I.9.(.7.6.H.J@W.y.} m4m4/ B o f . > a@a@b#= `@n+a#a@o   } M ( H H H ( m.K J@@ T [.{.}.6.0.Q@3@2@:*a{W'Sg [n:Tg,$A/<aq+H+L&G%9*5&5&8*5&/:UgC&w p+Sdi4le.(:4R#Q#O#4%,*U&K*k#(d_$I$9$`$4%>${a$$$$R-*@s+n.t %-i=t@/#/#-%t@V.X&v.<+Vg~a2aWg+d+!_g+!k!{$`*2@i+(#}+(.(.3#p@# & M f F H H F n Q.~ > 0#l@l@4#`@a@b@b@4#p N p l k m4m4f y.W+P 6.(#AcA#`.q@4@6&U'x*Xgk!}'YgZg`g h.h+hKg  .@cdB@p*p*R@i+@#n!@fn.n.X+-@.($${aR#b$R$~$N#o$.(4%1@",
"4di4#*t[i4'&i43di4w-Mct+H+v.k / C.$&4+=%#-w*d5,d>er+Y+Y+@hp4#hu+SdSdSd,dMc%..@s+s+v.Q.c.z s+n.w w f ( $h/ k k } 8 8 B M x#f } } f x#C&m.H F ( H H H F F 9 w   w w.s+x N w.r+r+X+8cL $ V+[ag%p4p4fd%h%h.%c$&h*h=h8*H#Q@k+$&&   f x ,d,d2dK$ddN-L&N-N-R-'&:&;@'&N-C/B/B/B/ed@$B@2d,d,d3+f n.B+@#>=k#R$0*C@U+c$c$-h%h;hV&98>hSdu+-@n,f.,dc$5dY+w w.s+@+^+I+z.e H F F H H 9 F H g + s   f m.m.x#;   f 8 f / k / / F ( w w x.r+c@v.c.q+r+r+H+,@ @>@>@W&}4,hccM&'@^+x.Y+r+Qd]0[b;$##@#4+O } f p+H+,@;@dd3di4R-N-w-#*R-t[V+",
"N c.v.w.Q.n.N Q.n.w y.J&,+( m4/ ( }     w p+*@*@7dL&R->@[a;@w+ %'h'h'hEbz+$ l+w y.z.f ,+p+.@`+Y+D&)+%+%+%+)+%+%+%+%+%+=+!+,.[ [ p.J&%+%+=+=+,.=+,.=+%+=+=+.*s+s+`+q+)+} m.0+x..@)hm+!h}.~hY&'hi4W&Sdu+[.h.2d3d7d*@Y+x.f ( ( ( ( ( m.y.z.n.n.c.c.n.w.n.w y.w q+s+c@s+J@l+l+p+c@v.@+w } } ( }   N q+H+*@[a*h[a>@*@u$u$.%*@g%[aMcw+Q L h+^+0+0+f '+8+8+8+y.J&,.0 0 0 0 [ _ 9 0 0 0 ,.9 [ ^ [ 0 0 ,.e e 0 9 ,.9 9 9 ,.p.I+0+q+`+m.B z.0+w c@W+ @McSd[a*@dc&hc$u$&hp4p4*hU+H+s+c.Q.n.  } m4m4,+x.0+q+x 3+C&3+J@J@p+p+c@z.",
"D r t P l+C&y <+~.P s+s+q+n.n.Q.N B B z {h]hq!w>I%ScP{D]q!$2&~Rc#{#{s!s![]I'^h[*,@x k f {/:*:*6&|+9.(#A# =#-!;k+J.3#}+Z%a#k@N h %@/.Z%m@3#p@Z%K.}%K.<.J.6.I.i=*~ma1+'+  z ~.T 3[4]J]8][]J]+!+!*!`!/h1&(h_h#{D]s2=!K.o.f m.y.w.v.q+q+w.w.s+p+c@x c@2$W.y+f.x v.x x.A.m.,+y.y.A.,+A.A.A.m.,+,+} f c.Aca*Z$]h-aT3D]M#~$,es~+!#{%{#{]'8]>>{.l+l+m.g * /@^f2@Ac %n,-@[+A+T @ $ $.$.+${.&.n ,+> Q R $.z+$ A+/.3#(.}.T H.].Q@2@>=qa} k N c@$ M.E_Y)*!s~#{q!U$A'f<0$8$;~1&S$R$~a:hL N B k f f } ,+p.'+0+x 3+Q.z.  n.3+c.7 j@",
"Jb7c<h}=!*yc[h4[z$@[`<||g<N#Q#R%U'f.Q.U4]7}hj/,{Q^|hf{%{'dD$o*@#`*:*`*_*V'*'N'|%8.T ^.N = Z)3@`.A#r@p*4+T'B't!2+e.$&G.$&l@Q+p D 4#T@9#.=p%[%1+w*w*e)|+e.I.`.3@;>+'Z+n.t ].r@i+u>n~{$x*x*{$i=2@/*]'D@'dP{1hSc/^uc2h8] =z.Y+$$~$f%x$!$x$x$m#V$B*3h4h5hp{6h3)7ce%n]7h1&Z3Tg`$l#>$N#~$~$ba4$:4i4I+c..'`28hEc9h0h<_Sc`!s~8];>>=x*o*{${$n~k!{$Dce.<+3+x+2#ah_*g{Y#`.r@2+Z):*2+k+}%K.[%Z%0@Z . k@a#G.}%A#A#@#;>bh '2+-%R@`.R@S#j=n+z.y =@_.@#O'c{l!{$:*i=i=1@S= ~g~V3chf>Ec5^dhi9^:}+. P .>g{n$k#0$f<w$x$2[ehc%t&6^gcY$o1|b",
"<fY!fhghhhihjhIfZ'$b#bPaG^r=q1i}9$leq QgI^,{Z*+[S=S=S=h=D$l!q~u>;>U'>=U'U'w*2+2+ =q@[*; m kh=%(#9.3#3#p@n@B+i>B'T@9@0@0@O+N+p p 4#0@!.!.9@a#@-+~$&S B+/.(.(#0.=%lhc@q W%1+#-6&>=U'`*7):*_*:*h>6)6)S=m)D$##1@+[`cT$g}/:I 8cQ#6$f}Y*X*1'#d#dkew'>1mhnhohn1phqh`}rhshthuhvh`'w!r=keke[|X*N*wh:$x.O z':]12}'y*'ds~v>*&+[W}J':*_*_*:*7)`*`*2@i+1+[*= n.xhyh`.0.(./.J.S B+ '<'W%a#!.!.0@4#Z . N+0@9@b@l@B+.'lhW%p@p@3#3#(.(# =khx#y A+AcQ@6&j=>=U'U'U'U'x*;>l!D$S=T=6)J]}' ~4823j9,=3+N0x'Y${=ke7cu~`'>!Vf</zhAhBhChDhEh&f",
"w'U}g,L3Fh0%aaGhHh*aZ0<$p$T$0$[do$w#x#o*z'v$o*5&4@3@0*^*;>;>o*:*`*>=.>w*w*<*=%#- =k+k+%@I +&.><*L.}+Z%^%n@T@T@n@V N+&@!%!%&@D p 4#O+O+&@&@a@b@l@S B+p@m@(#`.7)`*#-c.r 6@5@ =#-w*w*>=.> 'U'U'7)t!_*:*V'_*6&i+5&R%R$ ~k!I J.o$F*5$m#Ih<$f*<$($bam#e=z$rg|/j2Jhr,o/[hN*G^e=Hhh$KhI$h$g<i,x$[d3$y f@j!H%4%R$5&6&@#0*S=:*x*['7)`*`* '.>@#w*|% =1+6@n@A.S `*|%R@(#m@p@B+B+T@T@9@a@4#O+O+0@J l &@!%!.O+&@b@n@n@l@n@^%m@}+[*1+@#E.m %@k+4+ ==%=%<*w*j=.>U'_*x*h>;>u>l!o*3@2@##f<z' ~j=z M$P#>$s[]*($h$($p$@,ea{bLhm:>fj3`'Z<",
"N#P#n&o$X#(d(dE*(d,*Z0Q#I$X#w##$@$t[l yhy*C@H#`.2@_*u>*'x*`*U'@#2@2@<*2+2+T'#-e) =k+5@0@l !;U't!2+#-$&$&m@m@^%n@l@b@W@W@W@!%1 p 0#0@0@!.0@!.W@b@n@T@p@[*K.U.['2+4+N + S@k+k+5@#-2+w*j=w*w*w*2@>=>=`*>{V' '6&3@5&5&&%i=z.C&Ca)&[d,*E*o$4$Q#(dw#(do$Z0[dZ0($ba'$,$,$l#Kho$E*,*Q#Q#Z0o$($f*_&Dco.s A'v$R#1%6&4@`*u>V'U'`* 'j=@#j=j=.>w*2+=%4+5@+#T@m.n+<*t!f&A#[*m@p@n@T@b@!.0@4#0@!.4#> ~ O+W@ &!.!.b@o@n@m@^%y#Z%p*k+['7)c&W 4#k+k+ = =#-2+2+<*j=@#@#U'`*_*;>J';>>=4@i+8*R$^*='v.K$(d#$i$[dp$I$o$X#,*[d[dI$l#Ihm#2[S$",
"I$:4M$n$n$Q0:$M${a:4{aw#o$X#:$_.~.v.B @-g)r~-{Z.w*-%4@<*6&-%>==%q@1+ =#-#- =1+k+}%}%6@%@. Z%Dc1+3@lhUg{hA+l@W%p@Z#Q+o@/% #O+1 h 4#8@W%b@L+N+n@^%a## K.JemaMhA#(#'ez.C&[%S@}%k+5@1+ = =1+k+q@2+.>6&r@4+i+e.e.2@/:/:##Y&g ,+c@ @A/E*X#:4i$i$o$M$Q0/#Q0M$o$I$n&o$X#n$Q0w#w#n$,*n&R#,*E*E*leN-J@} w.t@S=9*9*R@A##-.><* =3@2+ = = =#-#-#- =5@k++#6@T@g 0#1+1+f&NhOht-S l@T@ #!.J+0@n@^%b@Z l O+V  # #0#a#n@Z%m@m@$&PhZ.@#.>Q@t5l 0@k+k+k+4+ =#-#-#- = = ==%3@6&@#7)@#2+ = =1@/:a{==,+,@K$.(Q0o$o$:49%:4:4w#:$Q0Q0n$M$,*I$",
"3${aM$M$M$Q0w#{a9%w#$$:$(d.(X&X+@+y.B + f&]/;#[4w*i+3@#-1+-%:*t>.>=%e)5@4+}%k+}%L.[%m@; 8 L r@p*4@6&w*Z=n+# J.B+A+b#a@!.*.G W f ) +.M+k@`@Z#a#A+a#+$!@X.6&q@|+}+&.f x ^%y#G.}%k+1+ ==%=%e)w*=~{$6&-%Q@-%R@R@|%lhlhA#n.e m.m.  f._&w#Q0={9%Q#3$9%:4M$:4I$n&3$n&I$:4n$={:4i$n&9%:4M$w#y/ @  m.} e %.o*N{N{U'`.`.Q@Q@-%>==~Z)5@e)#-#- =1+k+L.[%y#n+g & }+(.e. =X.f&B+b#p@p@a#Q+4#b@!.2 l B g@N+8@8@`@n+B+3#&.% 3( '#-Q@9.0.# B - W%o%L.}%k+4+1+ =#-6&=%s>##-% ==%4@6&*~>{c{X=9-x+f y.v. %B@E*n$:$w#={{aM$:$Q0M$M$:4i$Q#",
"0*A%a$f<p!*&R%3$:4B@@$Y##$,@2$r+s+v.f m.A+7.0.V+t l@k+q@p*|+G.e)K.m@l@+$Z#p@p@T@l@b@k@o.( e 8+^+Y+@+v.c@J&J&D&D&k,D&I+A.,+,+9 9 9 ,.%+.*o+k,$+9+k,D&x C&s+Y+6d.*,.9 z.%@9@T@n@o@o@l@0#9@a#n@}%q@q@q@p*p*A#<+K (.R@T m.9 w y.y.  @+H.s@t@H#C@8*k#1-D$D$a$^#b$3$R$1-;$^#k#R#i$H#={/#:.,@c.  w y.e w 9.r@J.R J.i+Q@Q@1+ =j=i>p%p%p%y#.=.=.=^%^%b@- e A.l+$ $.R QhT@t h+U+2$H+W.q+y.m.g e 9 m.z.c.x c@.@t+.@J@W.QhA++${.R $ n./ M a@^%Z%Z%W%[*m@Z%p%L.w*+~1+p*4+1+ =p%S }.B@Aca#f   s+2$`+V+G%$$$$J$:$R#i$^#a$a$R%b$R%o*",
";>S=(*+[S=##1@3$g{H.P y+P y.x.x 3+x g e .@$ <.@ & s = p@}+m@m@m@l@a@%@b#&.Z#0#a@0@Q+Z z.F e g x t Q `@a@& a.& & L @ % & ^.^.x+z O x+z & $ ~.P P t y+& * ~.$.Y+J&_ H   5.0@9@0@Q+%@4#L+b#0#0#T@[*e.G.(#* - Q @ 3#G.^.g ,.c@s+q+w.w v.W+Rh(.H#i$9*1@o*S=S=0*;$(*D$D$D$o*1@H#g{I._.H.3+y.m.J&I+A.0 y.3#q@A+L * = ].|+|+e.$&l@0#`@k@M+9@0@9@9@b@%@' e _ [ 1.8+q+c.c.v.x x x c@W.l+v.n.n.n.n.o.o.C&l+W.l+M 3+x#c.q x#v.^+)+[ _ F N 5.0#a@l@B+S &.b#%@l@T@W%Z%}+$&[*= O x+[+(.}.x+e ,+n.n.y.A.h+}.}.T V.9%k#0*+[p!^*+[S=U'",
" #q@/#C@`.|+g{i+A#C&} 8 B y y+-@n,$ g _ 9   =@B+l@b#b#+$a#a#b@9@a@%@%@Q+b#C.5.%@0@Q+1 f / M $.B+9.0.I.Ac9.e.].T ].<.{.# n++$z+=@H.T R +$<.].+$[.Ac9.(#DcA#p*/.b#x+} } D N+b@N+5.5.f@L+k@4#`@`@a@0@ #l@% = 9@S B+s e 9 d.~.y+y+y+x+  g g <+e.L$/#(.I.i$9*q@n+4@i=9*Q@r@H#g{`.P g d.A.l+%.8c8c^.0 e x## p@A+`@% n+m@^%T@a#0#4#`@k@L+g@J L+9@!.f@W F   O L |+A#0.9.8.Dc[.[+[+(.{.@ z+[+=@=@R &.@ +$8.J.T }.9.<.r@|+I.(#Z#K Q.( f 1 k@0@%@5.C.b#%@%@%@b@T@T@T@S +$b#b#a#S y+m.9 _ w ~.8cf.z N f } w +$8*S#g{R@5&5&8*2+9@",
"W 3+8cz+].<.[.K w ,+  r & }+J.H.@ & ,+A A f 3+O r o D o o r > f@L+*.k@Q+b#%@Z U ' ) l F _ g q & R 3@r>G<Sh#-`.p*<.[.{.A+A+&.$ ~.=@[+].B+].9.e.AcAcThUh=5VhG.Q + N / m43 i ' , J k@M+N+k@L+L+f@Z p o ' U U 2 J ; x#9 _ ,.; L {.:.(.& M N N m l+=@g.T ~.f.o.8 & 3#(.[.:.8.P r z.f Q.& 6.}.[+% ^.[ H g q b#Q+f@J J 5.> J L+b#Q+Q+%@&@Q+C.> f@+.1 7 m4l ; Q 9.{f^hWhXhv5Dc(./.].].].T Y&$ $ $.A++$A+[.6.9.Aci+VhT0*~|%].&.* N F ( h J f@5.J Q+Q+%@0#4#%@`@k@- ; J 2 5.C.% C&} A A n.&.[+g.<.`@q . e 0+& J.I.<.7.8.n,x#{ ",
"y.w.n.x.J@h+p+q+y.0+x.q+q+p+U+U+@+p.6aA A 9 y.o.m n n h n h ! h h h n p r J ) W { } F A _ 9 c.%.R A+3#}+3#(.I.R@(.7.6.}.R = ^.s Q # n+J./.(.AcAc7.{.].[.[+@ t x ( H m4m4B { ) o r , U D i D ) D h h C D D p r o.z.9 [ [ I+q+p+.@H+>eY+^+0+8+D&^+@+0+D&I+,+(   q+s+J@W.p+x x 3+J@W. @w+-@y+x+n.^ _ g m O , ' 1 1 D ) ) 1 1 2.1 G +.5.> U D { 7 m4%g( n.P $.J.(#9.Yh9.AcR@A#(.}+A+R @ t <+# R T [._.8.Q@`.(#G.}%L.}+[+K M 9 _ 6a} 7 W I o *.; r o D ) ) ) ) p D ) n M q w g A A e o.h+V+~.t %.l+o.o.x#P -@$ l+c@3+o.'+",
"_ [ : [ 9 0 l.l.1.l.*+5#Zh'@'@@@k,=+9 9 [ |.^ ^ [ l.|.E E ^ [ A _ 0 0 [ 0 ,.,.[ 0 0 [ : A _ ( z.C&r K ; ; L Q % * & t <+^.o 7 B M s r , O ^.8cy+y+<+& * ^.+ x 9 H H F ,.=+=+,.d.d.g ( ( ( e e e F e 9 9 9 ,.l.E ^ ^ [ ^ [ !+#+k,6d`h#@-+-+-+|.|.X X E ^ ^ : ^ : < b.E < < < b.b.E *+l.l.|.E : ^ ^ [ 0 ,.'+m.    m.B B B     . B B m.'+,+( _ [ _ H H F n.^.x+$ # Q n,z+[+L L * - - ; m Q.U * $ z+[+R A+{.T = = L K P 3+} _ A : : [ 9 d.,+m.'+'+,+,+,+g g e d.d.p.p.e [ : : A _ _ E E *+*+X E < < E ^ ^ [ 9 9 ^ A [ [ ",
"^.^.v.@+c@8ch+%.y+=@{.T @#1@3$C@Q@Z+} K [%j,^6]. @H+>e'@r+2$f.y+,d.@H+t+naS@c&c&==p@^.w A ^ ^ 9 d.'+A.A.A.'+'+e e g p.p.d.9 ^ ^ 0 p.e g p.)+J&J&I+I+A.A.I+,.9 9 _ ( n b@9#W%0&0&.# i^.W.W.z x+<+c@s+q+2$`+`+t+].kh&,z e y /.R@g{C@g{Dcz+=@[+z+y+8c.@s+C&J@J@J&A.J&8+2$s+p+X+X+t+ %taV.V.g.^.,+0 n..i+i^+#@!+!+1.=+%+'+0+A.J&I+I+o.m,K ; K K ; x#( H _ e ,+n.o.o.x#3+3+x c.N z.z.N z.9 9 8 N c.c.N l Q.o.o.o.m m N   ( A A {;,.n.z C..i@i#iz $+~+~+$+8+9+C+*+c+C+#@k,W.$i`@z m.,+%iG%@$:$s@6.X+.@J@s+x.q+w.p.%+)+y.&i",
"*i=i-i:.g.G%S#Xgm7;iw>k#&%`$1-b$S#(#m u#>ig~H1=!;ih=QgD@>>;>{$d)['x*7),=d){'{$:*`*5&#-9@d.^ p.y.p+;@V+Mc,@X+p+p+p+H+q+'+%+b.@.] |.X *+I+2$q+q+s+H+t+,@ @V+W+p+w 9 z.b#=%<*U'{$U'7)s>:*t!bhM7,=_*,=3[T0a{`,W=Q{`cq!,i[b. = g{k#A%+[)}R$Q{'i)iAeu@K$@$9.l4!i~i{i*,T _.G%vd]i^i^;1@R%+[a$1-3$R@M x Xaq:U$^;[4-=Z.9-T'o! =T'o!@-T'@-w*l=,=['t!|%<*y#o.e e 0+Y+2$>e5d'@@@k,#+#+#+$+E < < Y -.@.|.0 ~+6dwa6d6dwa'@5dU+dcwap.=+^ 9 k@G.|%['[bG<{';> =5@@-|%U'<*=%Z)@#>=Xa91Y)%{u|/iV%c.1+5&A%&%v$0*S#^i^iVh^fK$:.-@{.(i_i:i",
"e5=h<iYgC@8.L$8*9%H#R@Dc0.8.{.[+$.y+W [ivdL$Q@-%1@(*`*#-p*A#p*A#m@/.3#}+9.}+}+}+}+9.T@f@g e K n+^hu#.~T0=%@-4+}%5@q@L.#-K.y [ 0+b## $./.G.5@M..'.'=%3[>{}il!2+$ B z.; a#K.[*(#(.(.3#3#p@m@}+$&|+A#}% =s>['j=A#AcAcC@-5m.y $.[+}.Dc7.8.-%-%/#={s@G%B@2-|i{ak4|ih=>>Y#le=f,e/*I@##g{|%H#Q@r@(.m x+2-/;5&_*~d*'$8G<7).><*2+=%T'T'@-1+4+`.q@ =1+5@S z } x#B+.>^h^hlh@-e)5@e)k+[*S 8c,@K x.< J&R }%[*|+L.K.K.5@1+o8-=ma^f* y _ p.a@}%Q@q@p*4+=%#-T'e)T'.'@#2@>=_*;>^*'dQgn~^;Qgj71iz.J.(#r@Q@M$H#3$,e/hSgv$L$Dc2i^:3i4i5i",
"7.8.DcDcV.}.g.[+$.# Q L # # - ' J C&. 6i7is@Dc6.K.q,W%J.<.<.(.<.].B+J.9.3#/./.3#0#L+U n e } * S f&H&5@$=&.&.# &.n+R R {.].* ~+q+Z#&.# # # # # &.&.R e)1+j=.>}%<+N f m r = `@B+S S ]./.p@B+p@3#3#}+3#/.m@o!o%J.6.0.s@@#p.N r r ; # # @ Q @ z+[+H.g.}.[.}.h.[.G%8iAc_.}.[.}.}.T +$[+T R * s + m.C&(*8.7.<.(.Z)<'$&3#[*[*}+3#B+B+J.J.J././.J.n+k@p l } + G.@~t>7)7)p%A+Z#Z#n+$.$.&.b#Z#z b.M J./.+$+$Z#n+n+n+Z# -i>9i0ip@& g e p Z 0#l@}+/./.9.3#J.S J.(#(#(.<.}+ = 'q@(.Dc@$aibim.^.C.> &.R T R R A+].[.}.<.Y#ciAc0.:.",
"h.h.h.g.H.[+@ L - > r q r ' p n p Q.f ^fF_4@B+# n+`@= # S J.].S S A+A+A++$`@&.`@k@f@C.; I+o.&.].].+$&.# Q Q b## &.R T n++$`@Y+r+a#b## R $.$.Q b## # &.R {.(#@ K 3+y.> - * * a.k@b## +$A+].J.B+S S a#n+Q+a.a.C.# Ac9%4@g m.m n M O r + O ^.K P ~.=@n,n,n,-@n, %=@n,=@=@-@t & K O O O O q M m g c@1%t@9.# b#b#`@0#a#S B+S B+J.B+S T &.%@b#= - ; > o.y.+ L }+/.{.+$&.# # Q @ @ R &.= A+W+di% A+R +$R &.&.# # # &.n+S /.].# Q.'+r > > k@a#Z#Z#S B+].S S ].J.J.].&.n+n+n+R e.8*;#&,g n o n r > , r > - L @ $.g.h.h.:.:.H.",
"z+$.L ~.$ $.@ Q % Z#+${.[+n+n+`@a.o.'+!;#-G_Z%n+0#a@Z#Z#Z#Z#+$Z#a@&.# n+a#a#Z#a#Z#0#`@Q+^+w.* * +$&.`@b#= = = b#b#`@`@b#n+0#r+r+Z#= % L * Q L = # b## $.n+T@+ O x#0+C.n+n+R n+n+n+n+n+&.+$].S l@S A+# b#b#Q+b#p@e)p*1+,+x#t Q # # &.R {.+$Q t y+~.L <+y+<+y+y+y+~.~.-@y+P Q R R # = % * - K f 3+@#6&2+= k@k@k@b#n+B+B+T@p@].Z#&.a#n+n+0#&.n+&.b#+ 0+; & l@S R &.# # = Q @ % % * - Z#<+5#`@`@k@b#b#b#b#b#b#= b#b#n+].R n+x#x.b#`@0#0#Z#Z#a@Z#Z#&.Z#l@S S A+a#n+n+0#n+# 'e.>x%7&d.M C.= Q+Q @ # &.&.* Q z+z+n,@ z+[+$ ",
"$.$ Q L t t t * <+& ; % * % % C.o W g n@].& b#&.`@Q+%@b## b#b#= k@k@k@= # &.&.`@b#`@= f@8+[ e B > C.a.b#a.L+a.a.a.k@k@a.k@- k,.*> 5.5.- ; - C.* % = k@k@a.J . m.g J&s Q # &.# Q = Q = = &.&.b#b#= = % * * C.C.= b#A+}+g N s * Q L * ; ; ; & & & & <+& <+<+<+<+<+<+<+t t t * & % C.% Q Q & x+m.n.k+R &.# = k@= Q = b#&.&.&.n+&.= = = Q # $.&.&.% C&,.  m., = b#= = = % * * * L = = a.s+5#= l@n+n+0#k@k@% L+% b#= a.= z.p.[ 8+L+= `@&.n+n+n+n+`@= k@Q+Q+b#b#b#`@%@`@n+n+Q Q [*a@e p > % = = Q Q % * * % Q ~.L L Q @ Q ",
"L t t P x+l++ O O + I m N Q.m W 8 k _ J J , - & - - 5.w A.v.> > 2 , > > M M - a.b#= ; v.E : [ [ p.Q.p > J J > > U 2 ..1 ) . E -+m h D ' U > s J ; - - U Q.,.[ e 0 E 0+* <+<+& K q q U ; J ; J s q N w s > , > ; , a.= [ m.Q.M M m n.z.N o.l+l+y y h+%.P %.K & & <+P O O O O q x#x#y + ^., x#g J&^%* 5.- J > s x+C&+ ; - - - C.- > s ; % % L = K J&[ g g A.x#J - a.* - - ; U U ' D p I+u.W D ' 2 Z J 5.5.f@f@5.> o N e _ ^ =+q C.b#b#= C.O O ; J J 5.- - l+l++ a.a.* * C.s b#; 9 { l r r M q p ' ^.; ^.s ^.& L $ $ ^.",
"m m   g ,.0 ,+,+g e e e 9 A.m.e F 9 ^ z.I l x#q O C&m.9 0 m., Z ..U J - C.C.C.C.= O e ^ E : ^ ^ 0 e [ A.y.  A.m.B ! ! ! f E @.< 9 ( ~ h p z.y.z.  n.z.( _ _ ^ ^ : Y b.'+s L K ; % a.C.- J J 5.L+l ( e x J ; C&c.f m.  < 0 ,+g m.A.0 _ 9 9 9 9 F 9 9 F } B . N N w y.m.'+'+'+g e e e d.m.. . _ 0 U Q.I > s > , x#( B ' J J > ; ; ; - ; ^.<+<+x#'+Y E [ ^ E [ B ) o p D D m ' D h | ,+[ ` [ B h D D m N m p p n ,+e ^ : ^ : Y 1.z.- = C.C.; ; ; > ' ' ' , g _ ,+) s ; ; r I D w A } k f p.g } f   z.N Q.N A.N o.y q c.",
"=+,.< @.-.ei@.@.Y ] p;b.E J&=+|.l.d.l.=+%+,.,.,.A.%+^ [ [ e N c.w.0+0+0+^+q+w.3+C&I+1.l.0 0 ,.g ,+} E < |.|.0 g d.e e e l.B.u.E [ 0 g ,+,+g [ |.E : [ e B B g 0 1.,.,.=+x C&x @+q+q+v.v.w.x.v.3+g ( 9 ,.v.@+l.l.=+l.l.X l.=+l.%+)+< : ^ E < '.'.< < : ^ _ ,.( [ ^ : ^ [ A : ^ A ^ 1.v.p.^ |.b.] [ 0 ,.|.I+z 3+0 9 ( c.; y y O O ^.^.z y x+K w.E |.^ ^ [ f f e ^ |.< < b.0 m.  f [ [ E ] ] ^ f } } e e [ |.E b.b.} } g [ [ [ |.E @+; O y x++ C&C&M , O n e _ [ ^ ^+w e g ,+,+1.^ [ E |.v.'+: < Y Y Y < @.-.@.Y e   p.",
"@+I+p.1.< ;.` @.^ 0 9 e A.z t A+/.B+/.p@p@+$K q M o.l+s C&n.z.m.p.,._ l.=+c.- {.T R &.@ # # = % * ; K x+J@3+3+M y + , O y o.v.n.x#r + y + & & + 3+x#3+^.t <+t L Q Q T {.+$R A+b#x#,._ F F f f B z.x#- % q y C&& @ R R z+$.z+$ * ^.0+0 l.0 ^ < Y Y |.,.=+$+I+l.E ^ Y p;Y p;< : < E =+8+s+W.W.W.,@%.%.%.q+^+w.3+C&y.  ,+,+g e e 9 [ ,.c.<+t t <+t P z z l++ + y y.I+I+x.J@l+3+w.w.c.n.p.%+)+0+w.c.v.w.c.w 0+0+0+x.o.C&3+C&l+l+W.h+K t L y p.|.|.[ [ ,.g m.'+A.0+w.w w w.l+8ct y+W+P W+`+x.J&,.l.[ E Y eifieip;< l.l.w.",
"W%`@f@p ,+-.-.E ( f } 3+& S G.+#e)6@7@9# #C.J Z 2 U > gi*.o n p U f 8 W J ^%n@b#`@l@`@9@b@ # #9@a@a@a@b#5.J > U 2 Z g@f@5.J > 2 > 5.f@+.J 5.J > 2 J C.k@k@* % = = = `@`@n+&.b#b@o@a.z./ 8 p W I n Z hiJ , , > 5.C.a@a@a#m@3#3#m@m@= ' . { 8 F {;:   m C.d+iiK y Q.'+: : F B . B m % Z%Z%}+}+[*p@B+l@b#C.J > ; 9@!/r n m I l k ( '+; o@b@Z#A+B+l@+$R n+n+&.`@0#b#- 5.> - C.C.5.L+L+5.> , 5.C.a.*.f@J J > ; * n+B+n@T@n@y#y#^%n@a#n@a#a#Z#b#x#B f B q n n , 0@ji, U Z J a.0#.=S@ki@-.'5@G.# x#p.} } 9 @.-.] . x#; # h/",
"%@a.Q+' ,+-.@.< A g z.- - - C.C.a.- > > ' r ' ' I W W { l W W N p e e D M+9#l@+$A+b#U U , U U , U ' r ' ) o o p o D D p n p n n n n ) D ) ) ) ) ) ) h h n n p p p p p n ; B+T@Z#o@!.) F ( W B   . ~ l ~ W W m r o r ' > C.C.C.- - C.5.p f F 9 A [   m a.Balimib#m   [ [ F } B n C.= = Q b#`@% , U r ' o n m I I I W l   l m F } Z jil@b#&.&.p p o o p o p p ) ) ) ) ) ) ) p ) p M p p n p p o D D ) p o o ) ' r r U 2 2 U , U r # # % n@o%M+h e } , Q.W W I h I h ) ' r , > 5.5.`@0#`@b#= = r B e 0 Y @.E I 5.`@g/4#",
"p n ' Q.0 -.] p.Q., J r , , r U , U ' o o o n l z.N I p x#N l . } _ E y.2 a.p m I l l . p , , U ' M o W m Q.l f } B l W l z.f B . l .   ,+f f . Q.l l I I m h n h W B f ,+z.N m 2 > h 9 9 } f B . h p n I I Q.m p p p p ' ' U U , r r Z Z Q.B ( [ ,+l ' n p o > Q.,+[ H F m.' +.; > J J J Z 2 U ' q o n m I I h ) W . B } g 9 ,+..Q+; ; C.O   l W h h n n h h I I n n l . z.l W W Q.z.z.N Q.I I W l N m n p ) o ' r U U , o I n U - - - 0#f@N ^ e B . { l h p I l l n o U U U > > > > > J J > ' n.,.b.-.< . s > o p ",
"I W I l 9 ` l.M > U p ) n x#o.m p n n W l . . B B . z.z.N M Q.z.B g < g h p N . . B B . I U 2 2 ) W l f } f f } } f l ~ W W ~ l l z.B f f f f f f f . { { W I p h . f f } f B l o ' I _ ,+7 B B h . . l l l . l l l I p ) ) ) p ) ) ) D Z J 1 { ^ 9 B h m x#m D f e [ 7 1 J 2 D n n n n h h h n W l l . l l z.N . l l B B B 9 } ) , W B B f f f B I ) h W W ~ . B f f f f f f   z.N . . l l W W   } } f f f f W W ) 2 2 U h . B B 7 . l o ) 9 < g B . l x#w z.z.. B . l l l W n h m m o.n p ) o J , z.] ] } I W I m ",
"Q.W W . g ;.0 ) 2 W } e d.d.,+. l . f f f } f f B . z.z.l l l z.. ,+< |.m.N B B 7 B ,+g ,+B 2 2 G ! B f } } ( g e e ( 8 { ! ! ~ . . k ( ( 8 B 8 f f 8 8 . D 1 D ,+9 9 e ( k 8 8 W W e |.( 7 B f . . . . 7 . . l { l l W W m Q.B B B f B Q.2 U . E 0 e . W Q.W . ( _ [ ~ 2 Z ) W l l W Q.n n h h W { { . l 7 . . . l l f 7 7 9 0 N D 7 B f k ( ( ( f h 1 D { 7 8 f } f k f f } B l . ~ ! ! W ~ B } g g } } } } f | 1 Z Z I B f f B 7 B . m l [ < B . z.W m N N z.. B f f f B . l I W N y.y.    l o 2 Q.] ] B W W W Q.",
"z.. l ,.[ ;.|.W h m.9 _ 0 9 g B W l } } ,+} } } . . . . . . . . 7 ( < E 9 g f m.f e 0 ,.9 9 . W ! { 7 l B f } e ,.|.b.[ ( . l { } ,.[ E E g 8 8 k f { f f ! 4 { [ ^ [ 9 _ F } f } e E < [ f f f f B B . 7 l 7 B . . . B B . B k k } } / B h n '+] E [ ,+z.z.z.m._ E < z.o ) B / k k k k l . . . . 7 7 . . . . . . B B B f } ^ E 9 f f 8 f e _ 9 [ 0 ,+4 C { f . . 8 8 8 f 0 [ 9 e ( 7 { 7 f ( E l.9 e } } } . . { h ) ! g e e e } 8 B f g ,.< E k { . . l . . . z.B } f } ,+} f l l B g 9 _ 9 e W 1 l @.@.9 B l . z.",
"z.z.,+[ b.>.t.*+d.,.|.[ [ 0 0 ,.p.g g g g g ,+} . . . . B f f ,+m.d.E [ k 7 } 9 0 ^ E |.^ [ e } } 8 7 g f m N g ,.] < E 9 7 l l B ,.b.u.] 0 f ~ n g } ( k k k ( ^ E E ^ ^ ^ [ ( f e b.-.] 9 e e f f B . Q.Q.z.  m.f } } ,+f } ( F e 9 9 g   z.l.] E b.,.  l   ,.X E b.p.N . g F F F ( } f f } } f B B B . I . . B f } ( e ,.] @.^ e } g [ ^ [ ^ E E e 8 7 B } k g B l 7 g b.B.b.l.f l l 7 g E E b.0 e   W f } 7 8 k } e [ [ [ ^ [ 9 9 } f ( ^ < e B B f   B . . . B ,+} g ,+} g     e 0 0 [ [ [ ,+A.l.d ` |.e   z.N ",
"N z.,+'+,. .>.u.B.q.` r.b.X b.b.E E [ y.w y.z.,+e e ,.,.[ [ [ |.X E E _ 8 | { } 9 9 9 _ _ 9 e ( ( } } ( f ,+,+,+|.u.E 0 g 8 f g f f d.u.t.b.g e e g ( e e ( F e _ [ ^ |.|.E 9 8 8 8 [ ` q.@.] < ^ E 9 e g m.z.m o.o.w ,.0 0 ,.9 9 0 < q.&+|.b.u.] 0 ,+m.. . . ,+p.l.] ] 1.,.X < [ 9 9 9 e e e e Q.m m m . N B f g 0 0 |.b.b.q.q.9 k k g E E : E |.[ 9 e ( ( ( ( g m.z.f 9 q.q.*+e B f . 7 g [ ^ @.l.,+  z.f g f f } } 9 [ [ ^ [ [ _ ( 7 | 7 0 E [ 1.1.e e g ,+,+f ,+  z.y.z.m._ |.|.X l.|.X ] @.b.b.t.>.q.p.g m.z.. ",
"N z.m.m.,+,.l.*+B.|.l.] q.] |.E E E E [ [ 0 ,.0 0 [ [ ^ < < < b.b.< < E 9 8 } F e 9 e ( } } F e e e e ( ( ( ( [ b.@.] [ 9 9 [ [ 0 e ,.] q.u.|.[ _ 9 9 9 9 F F F 9 0 [ [ |.[ ( 8 7 8 [ ` @.] ] < E < |.^ [ ,.9 e ,.0 l.[ 0 0 |.,.9 < < 0 ,.d.1.d.p.d.9 } B . B ,+,.0 |.b.E |.] u.@.^ _ 0 [ 0 0 l.1.,.d.g e ,.[ |.E < < b.] @.-.-./ 3 f 8 _ |.|.^ [ A 9 F ( e e e e 9 [ [ ] ` u.e f ,+9 0 ( g e b.q.u.[ e ( } ( ( F e e 9 ( ( ( ( e 9 9 } 3 e ^ < < X E E b.E |.|.[ [ e ,.0 1.[ E E E ] b.] q.q.u.B.B.u.u.*+g g m.N l ",
"B B B z.. . f *+b.d.'+0 q.` ` d t.;.@.< < E < < E |.E |.E |.E b.b.E < @.< e ( } } e e ( / k } 9 0 0 _ 9 [ e e E b.@.q.Y < < E < < ] ] @.-.] : [ 9 _ _ [ 9 e F F F e _ 0 0 ,.b 7 7 e -.` ] E E E E E E ^ ^ [ [ ,.0 [ |.E ] @.q.] b.@.e l m.,.0 .   ,+e ,+m.f B } e m.  z.,.( B B [ Y 0 E b.E |.|.[ 0 9 9 0 [ ^ |.E E E E < < @.` [ 8 6 k ( ^ 0 _ _ H F F e 9 _ _ _ _ A ^ ] @.q.b.E E |.E E E < ] @.b.|.e e 9 e 9 _ 9 9 } k } ( e 9 ( } } g ^ ] < E ] b.b.E E ^ ^ [ ^ ^ |.|.|.E b.] ] ] X d u.d.,+1.u.d.f . . . . . m.",
"E b.b.b.b.E 0 ] q.d r.u.u.` d t.>.s.t.@.] ] ] < b.] < E < < b.] ] ] @.-.q.q.] ] ] ^ [ 9 e e 0 |.E E E E u.|.|.< ] @.q.-.] Y ] @.@.@.` ` ` @.: E : E < < E : [ A _ 0 ^ < b.b.] ] u.q.` q.@.^ [ ^ |.^ |.^ ^ ^ ^ E E < Y q.-.@.] ] ] q.] ] u.] E d.|.] b.B.] X l.l.|.l.g B |.|.,.d.|.u.] @.-.-.@.Y E ^ ^ [ ^ ^ ^ |.|.^ ^ ^ [ E ] ` -.l.,.e ,.[ [ 0 F F F F 9 9 0 ^ [ _ _ [ E -.-.u.] @.] < < < ] @.@.] E _ _ < [ 0 [ [ 0 ( 8 k ( e 9 0 0 [ X ] @.] E b.< E E E E E < < < b.b.b.] t.s.;+ .` ` ] l.l.X u.,.f d.d.d.,.e |.",
"B.] ] d t.t. .nis.oioini>.s.>.s.s.b+b+>.c  . . .t.t.t.t.t.t.;. .t.` ` ` ` ;.;.;.t.t.;.` q.;.;.t.` ` t. .t.` ;.t.;.>.>.>.;+;+;+;+>.>.;+>.;+ .` q.` ` ` ;.;.` ` ` ` ` ;. . .;+ . . . .pi;.;.` @.@.@.@.q.q.` ` ` ;. .t. . . .;.;.t.t.;+ .;+>.ni . .` q.u.u.@.] @.u.] ] u.@.;.c  .;.;.` q.@.@.-.;.;.-.-.@.] b.< < < E E E E E @.q.` ;.;.;.;.;.d ` ` q.q.-.ei-.q.` ei-.-.@.@.-. . .t.;.` ` ` ` ` ;. .t.` ` q.-.` ` ` q.q.q.@.@.] ] @.-.q.q.q.` q.q.q.u.q.u.@.@.@.@.u.q.u.q.q.q.-. .ois.;+t.t.t.t.>.ni>.c d ] ` ` u.] ] -+",
"p c.m.|.u.t. .>.s.s.ninioioioioioib+b+oib+s.s.>.>.c r.qic+]+5#c+c+-+C+C+C+c+C+5#C+c+|.!+#+#+8+x.w.0+J&%+)+=+1.1.l.] ` `  .s.oioib+s. .q.@.b.1.1.d.d.p.p.'+0+x.I+~+5#3.3.&+3.C+C+5#5#C+C+ri#@#@]+sitiriX u.` t.;+s.s.s.>+ . .;+;+s.s. .t.t. .;+;+u.l.d.w c.M %+1.X ] t.s.s.s.s.;+s.nis.>. . .s.>.s.s.b+>.;+;+ .d ` u.u.u.q.` ` ` ` ` d ` t.;.t.d ` @.b.|.|.E < b.< ] < ] q. . .>.s.oioioib+s.>.>. .q.@.@.@.b.] b.|.l.|.b.] ] q.` ` ;.q.` ` q.q.q.q.t.t.t.`  .>.>.>.s.s.s.s.oioib+oib+oioioioioioioinis.>.t.` E 1.)+C&",
"5.' h   p.1.X @.] b.` t. . . .s.oib+b+b+s.;+t.|.1.%+m.Q.x#J o c.o.o.m m m o.o.m Q.w m.Q.q q M C&3+x c.Q.z.z.z.. . } 9 0 @. .s.s.;+q.b.[ 9 }   m.. . z.N N x#x#o.n.w m.=+p.N Q.m n M M M o ' ' U J > r Q.  m.,+< ` s.b+;+;+ .` -.q.u.E E 0 0 |.l.g l h , J C.; + N g E ` u.] ] ] `  . . . . .;+;+b+s. .@.X [ e x h+%.raM 3+3+s+w.s+v.v.w.x.I+)+'+0+x C&O , M n m Q.W z.  f 0 [ ] t.nioioi>.` < [ e   z.w n.c.x x l+h+%.h+h+W.c.  w w.q+w.x.x.w.x.x.^+^+3+z w.'+l.u.d t.>.s.b+oib+oib+ois.s.>.c  .t. .t.q.B.|.z.n 5.Z ",
"B m.g p.,.l.0 0 l.|.u.d ` Y q.>.s.b+s.s. .u.E ,+f B ,+,+z.m m   p.d.A.Q.z.z.p.1.0 l.] [ e ( ( e 9 9 9 e 0 e g } f g 9 _ E ` >.>.` |.0 |.9 e 0 0 0 e e e e F ( e 9 9 [ ] X 1.0 m.l W Q.z.,+l W m m z.m.m.B f f 9 X ;.;+pi;+` b.[ e e 9 e f f f 8 f g m.B l I n m W   B } ,+f g 0 0 [ ^ E u. . .;+s.` < g . l l N c.o.q o p n Q.x#m m N   A.d.@.E e 9 9 e e e e 9 e 9 9 ,.e e [ |.^ ` ;+oi;.] 0 9 e f } g g ,.e e ,.,.e g } f g l.%+'+A.w Q.Q.m n.y.w n.o r Q.N z.. f ,.] t.>.b+s.oioi;+q.q.t.` b.l.[ l.,.'+  . l W W ",
"0 |.l.E b.b.E |.0 0 [ 0 e ( [ q.>.b+s.s.t.0 0 e d.d.0 1.d.p.g 1.,.,.d.,+0 ,.E ] b.< ] < |.0 [ [ [ 0 0 [ |.|.[ [ 9 ,.|.] ] -. .>.q.u.u.< ^ 0 E E E 0 9 F 9 e e 9 e 9 ^ < ] ] < ^ 9 e ,+g [ 9 g g ,+g 0 [ e ,.,.g ,.]  .;+;+q.E d.7 f f ,+,+g } ,+l.[ e g f 7 B } e 0 g 8 8 8 B f f B B 0 E t.;+ . .] [ e g ( ( ,.g   . ,+} 9 9   B ,+g ^ E < ] E 0 9 9 F F e e F 9 0 ^ ^ 9 9 |.E E q.t.ni` ] E l.g } e e ,.[ ,.0 0 _ 9 9 ,.0 < ] E E b.l.g ,+B e 0 0 p.z.  ,+d.e f f d.l.X  .s.s.oi;+q.[ 0 |.|.l.,.9 0 |.b.|.[ 0 9 f ",
"|.X X b.X B.u.u.u.u.q.b.9 } |.d >.b+s.s. .0 m.e X b.d.|.] ] ] ,.[ |.0 g [ E ] u.] ] ] b.b.E < E |.|.|.E @.q.q.u.u.] ] @.@.@.c >.@.@.@.@.] ] @.-.q.< 0 9 _ _ [ _ _ _ E b.] ] ] < |.0 ,.|.|.[ g |.b.< |.9 ] b.0 ,+m.q.;+;+ .` ] 0 m.g b.] b.< < b.X |.,.e } k } ( 9 |.E |.|.|.|.E 0 ,+f l.] t.;+;+t.|.f g 0 X |.0 l.l.|.,.g l.0 ,.9 [ l.< ] @.] E 0 e 9 9 9 9 9 9 ^ < @.@.] Y ] @.@.@.t.ni@.@.] ] E b.] ] u.b.|.^ [ [ ^ E E E b.] b.] @.] |.l.d.0 ,.0 1.|.X X |.l.E |.g ,+|. .s.s.s.>.q.e g 0 b.] ] ] ] ] ] X |.|.|.g ",
"l.|.u.q.q.q.q.q.q.u.q.q.b.X E ] ;+s.s.s.s.l.d.X u.u.,+l.b.] ] E E ] < |.b.@.u.q.q.q.q.@.@.@.q.q.b.E E < @.q.q.q.u.] ] @.] -. .s.q.@.@.] ] @.-.` q.] ^ [ _ ^ ] E < ] @.u.@.] ] < E [ [ < b.] b.] &+E X 0 b.@.] |.|.>.;+;+ .` < 0 |.E E ] E E < ] ] ] ] b.,.} F [ |.X ] ] < < ] ] ] ,.d.[ ] ;. .;+;+u.p.0 E u.E l.b.b.] l.l.b.b.^ 9 ^ E < ] @.] ] < E ^ |.^ _ _ 0 < q.q.-.] @.@.@.] @. .ni@.@.@.] ] u.q.q.q.-.< E |.E ] @.] @.] @.@.q.u.@.b.0 g E ] |.[ ] ] b.1.d.] b.e ,+b.s.s.s.s. .u.0 ,.|.q.q.q.q.q.q.u.B.q.b.|.,.",
"E b.u.q.d r.q.q.d |.b.t.` q.] q. .;+s.s.s.B.b.q.@.@.|.b.] @.] ] ] ] @.u.u.u.u.q.` ` ` q.` ` q.` u.] ] b.@.q.q.q.u.] ] @.@.q. .nit.@.@.@.q.q.q.q.q.] E E ^ b.@.q.q.q.q.q.u.@.] < E E E < b.] @.] ] b.b.E ] @.q.q.q.s.>.>. .` @.b.] ] ] @.|.E u.u.q.u.u.] |.0 [ ] u.u.@.] ] 0 |.] < ] ] E @.`  .s.>.>.@.@.q.@.E [ E E B.] ] ] b.< ^ E < b.] @.u.u.q.@.] ] < [ [ |.b.u.q.q.-.@.@.@.@.q.>.s.q.@.@.] ] u.q.-.-.@.b.b.< ] ` ` q.q.q.` ` q.q.q.q.u.u.@.] ] ] ] ] ] l.0 @.q.B.l.u.s.;+s.s. .] b.q.d q.*+X r.q.r.d q.q.b.[ |.",
"u.q.q.q.q.` ` t.d d d t.d t.u.q.` t.s.s.oiB.0 l.^ b.q.q.q.q.@.] ] u.@.u.q.q.q.q.q.;.` d d ` q.u.u.u.u.u.q.` q.` q.q.u.@.@.`  . .` u.@.@.-.q.q.` q.] ] ] ] @.q.d ` q.q.q.q.@.] b.] b.b.] ] ] @.] ] q.q.` b.] ] @.q.nis.s. .;.u.] @.@.-.q.q.q.` t.d q.q.q.u.u.] u.q.q.` ` q.q.q.u.u.@.] ] q.t.>.s.s.>.u.@.u.] ] q.u.] ] ] ] ] b.< E b.< ] @.u.q.q.q.` ` q.] < < b.] @.` q.q.q.@.@.@.` ;+>.` ] @.@.@.q.q.q.q.u.@.] u.q.q.` ` ` ` ` ` ` q.q.q.q.u.@.] ] ] @.u.q.q.q.] E X |.d ois.>.;.d q.u.d d t.q.q.d d q.` ` q.u.@.u.",
"q.q.q.q.q.` d t. . .t.d d t.d t.` t.s.b+uiB.[ |.u.` t.d d q.q.` ` ;.` ` ;.` q.d ` ` t.t.` q.q.`  . . . .;+;+ .t. .` ` q.q.t.s.s. .u.@.@.@.q.` pi .;.` ` ` ` ` ` ` ` t.t.t.` q.u.q.q.q.` q.q.q.q.`  . .t.` @.q.u.q.s.>.s. .u.u.q.q.q.q.` ` ` ` t.d d ` ` ` d q.q.q.` d t.` ` ` q.q.q.u.u.u.` ;+s.s.>.u.@.u.@.q.` t.` u.u.u.u.u.@.] @.] @.q.q.` ` ` ` d ` q.q.q.-.-.` ;.;.q.@.-.u.q.t. .>. .@.@.q.q.t.;.t. . .d ` ` ` ` q.` ` t.t.` ` q.q.q.q.q.q.q.@.u.q.q.d ` ` @.b.l.[ d ois.s.t.q.d q.t.d d t.t.t.t.` ` q.q.q.q.q.",
"q.q.q.q.` ` t.t.t. .t.t.d t.c s.c c s.oivid |.l.b.u.d ` d d d ` ` ;. . .;.;.` ` ` ` t. .` q.`  .;+ . . . .;+;+s.>.` ` ` `  .ois. .` @.@.q.;.pipi;.;.;.` ` ` ;.] q.` t. . .t.t.q.q.q.q.q.q.` ` ` ` ;. . .t.` ` q.` >.>.>.>.d q.q.q.@.q.` ;.;.;.;.t.t.t.t.t. .d d d d t.` ` ;.` ` -.q.q.q.q.q.>.>.;+>.u.u.q.q.t.t. .` ` ` ` ` q.q.q.q.q.q.` t.t.t.` u.@.` ` ;.;.;.;.pipi;.;.@.@.< -. .>.oi;+q.q.q.` ;+;+;+;+ . . .;+;+;.@.@.`  .t.` ` ` ` ` ;.;.t.;.` ` ` d d ` t.u.] [ |.c uis.>.t.t.>.t.d d d t.t.t.t.d ` q.q.q.q.d ",
"t.t.t.t.t.t.;.t. . . . .s.s.s.oioioib+oioi;+t.` ` ` t.` d ` ` ;.` ;.;.` ` ` ` t. . . .;+;+;+;+;+;+ . .pi . .;+s.s.;+;+ . . .s.ois.s.s.;+;+ .;+pi;.` ` ` ` ` ;.;.;.;.;. . . . .t.` ` ` ` ` ` t.` ` ;+>.;+ . .t. . .>.>.s.oi>. .;.q.` ` t.;.;. .;.t.t.t.t. .;+ .t.t.t.t.;.t.;.;.` ` q.q.` ` >.b+s.>. .;.;.t. . . .>.t.` ` ` ` q.q.q.q.` t. . . . .;.;.ei` ;.` ` ` ;.;.pi . .pi;.;. .s.s.ui;+ .;. . .s.s.;+ . . . . .;+ . .t. .;+ .t.t.d ` ` ;.;.t.;.` ` ` d ` ` ;.q.@.E @.>.oioinis.oini>.c c t. . . .t.;.` ` t.d t.wi",
" . .t.` ` ;.` t. . .>.niniois.ois.s.s.b+oioiois.>. .;+;.-.@.u.q.` ;.` ` q.` ;. . .;+ . .s.s.;+;+;+;+;+>.;+;+s.s.s.s.;+ . . .s.ois.;+s.;+;+;+pipi;.` ei` ` ` ` ` ` ;. .;.;. . . .;.` ` q.` q.q.q.-.t.s.;+;+s.s.s.s.s.s.b+ois.;+ .;.;.;.t.;.;.;.` ` ` ` ` ;.pipi;.;. .t.;. .pipit.` ` `  .;+s.ois.s.s.;+;+;+;+ .;+s.` q.q.` q.q.` ` `  . . . .;.;.;.;.;.` ` ` ` ` ` ;.pipi .;+;+s.s.s.oib+ . . .;+;+s.s.s. .;+ . .>.;+;+;+s.s.;+ . . .;.;.` ` ` ` ` ` q.@.u.q.;. . .;+>.s.oioib+s.s.oinis.ni>.>. . . .` ` t.` t.t. .xi"};
