/* XPM */
static char * West_xpm[] = {
"250 125 4489 2",
"  	c #1B2500",
". 	c #1A2500",
"+ 	c #2A2B00",
"@ 	c #343100",
"# 	c #353200",
"$ 	c #333200",
"% 	c #313100",
"& 	c #323100",
"* 	c #323200",
"= 	c #303100",
"- 	c #2E3000",
"; 	c #2D2F00",
"> 	c #2B2F00",
", 	c #292E00",
"' 	c #242B00",
") 	c #1F2800",
"! 	c #1C2700",
"~ 	c #1B2600",
"{ 	c #0F2000",
"] 	c #102200",
"^ 	c #152400",
"/ 	c #112200",
"( 	c #102100",
"_ 	c #0E2000",
": 	c #112100",
"< 	c #162400",
"[ 	c #1B2700",
"} 	c #282D00",
"| 	c #2C2F00",
"1 	c #252C00",
"2 	c #1A2600",
"3 	c #1D2800",
"4 	c #202A00",
"5 	c #212A00",
"6 	c #202900",
"7 	c #1F2900",
"8 	c #1E2800",
"9 	c #192600",
"0 	c #182500",
"a 	c #172500",
"b 	c #152300",
"c 	c #132200",
"d 	c #122200",
"e 	c #122100",
"f 	c #172400",
"g 	c #0A1C00",
"h 	c #0B1D00",
"i 	c #142300",
"j 	c #192500",
"k 	c #222A00",
"l 	c #222B00",
"m 	c #2B3000",
"n 	c #242C00",
"o 	c #1D2900",
"p 	c #1E2700",
"q 	c #212900",
"r 	c #242A00",
"s 	c #272C00",
"t 	c #262C00",
"u 	c #252B00",
"v 	c #2A2D00",
"w 	c #2B2E00",
"x 	c #303000",
"y 	c #292C00",
"z 	c #1F2700",
"A 	c #252A00",
"B 	c #292B00",
"C 	c #2A2C00",
"D 	c #2F3000",
"E 	c #2F2F00",
"F 	c #2C2E00",
"G 	c #292D00",
"H 	c #262B00",
"I 	c #232A00",
"J 	c #132300",
"K 	c #262D00",
"L 	c #232B00",
"M 	c #1E2900",
"N 	c #182400",
"O 	c #142200",
"P 	c #2A2E00",
"Q 	c #2E2F00",
"R 	c #333100",
"S 	c #272B00",
"T 	c #212800",
"U 	c #1D2500",
"V 	c #2B2D00",
"W 	c #2F2E00",
"X 	c #323000",
"Y 	c #343200",
"Z 	c #373100",
"` 	c #3A3200",
" .	c #393200",
"..	c #363100",
"+.	c #2F3100",
"@.	c #2D3000",
"#.	c #0D2000",
"$.	c #162300",
"%.	c #1D2700",
"&.	c #282E00",
"*.	c #2C3000",
"=.	c #212B00",
"-.	c #102000",
";.	c #2A2F00",
">.	c #303200",
",.	c #0C1E00",
"'.	c #0D1F00",
").	c #3B3300",
"!.	c #342F00",
"~.	c #362F00",
"{.	c #343000",
"].	c #353100",
"^.	c #302E00",
"/.	c #2D2C00",
"(.	c #353000",
"_.	c #2E2E00",
":.	c #3B3400",
"<.	c #222900",
"[.	c #0C1F00",
"}.	c #2F3200",
"|.	c #091C00",
"1.	c #0E2100",
"2.	c #0F2100",
"3.	c #312F00",
"4.	c #373200",
"5.	c #333000",
"6.	c #393100",
"7.	c #363200",
"8.	c #313000",
"9.	c #2D2D00",
"0.	c #312E00",
"a.	c #3B3100",
"b.	c #3D3100",
"c.	c #3A3000",
"d.	c #3B3000",
"e.	c #3C3100",
"f.	c #3C3000",
"g.	c #393000",
"h.	c #383000",
"i.	c #132100",
"j.	c #272D00",
"k.	c #172300",
"l.	c #0F1F00",
"m.	c #112000",
"n.	c #1C2600",
"o.	c #232C00",
"p.	c #122000",
"q.	c #363000",
"r.	c #383100",
"s.	c #3A3100",
"t.	c #3E3200",
"u.	c #3D3200",
"v.	c #3E3100",
"w.	c #0E1F00",
"x.	c #192400",
"y.	c #0A1D00",
"z.	c #252D00",
"A.	c #3B2F00",
"B.	c #403200",
"C.	c #342E00",
"D.	c #322C00",
"E.	c #2E2B00",
"F.	c #3D3000",
"G.	c #382E00",
"H.	c #392F00",
"I.	c #503802",
"J.	c #533A02",
"K.	c #523A02",
"L.	c #202800",
"M.	c #101F00",
"N.	c #0F1E00",
"O.	c #0D1E00",
"P.	c #0B1E00",
"Q.	c #0B1C00",
"R.	c #0C1D00",
"S.	c #152200",
"T.	c #111F00",
"U.	c #463601",
"V.	c #4C3801",
"W.	c #493601",
"X.	c #423400",
"Y.	c #373000",
"Z.	c #3A2F00",
"`.	c #413200",
" +	c #372F00",
".+	c #3C3200",
"++	c #4A3701",
"@+	c #433501",
"#+	c #162500",
"$+	c #403501",
"%+	c #543A02",
"&+	c #523902",
"*+	c #4A3501",
"=+	c #2A2900",
"-+	c #352E00",
";+	c #322E00",
">+	c #1E2600",
",+	c #1E2500",
"'+	c #332E00",
")+	c #513801",
"!+	c #583B01",
"~+	c #523801",
"{+	c #433200",
"]+	c #2B2800",
"^+	c #423002",
"/+	c #473202",
"(+	c #483102",
"_+	c #222600",
":+	c #132000",
"<+	c #101E00",
"[+	c #172200",
"}+	c #142100",
"|+	c #0E1E00",
"1+	c #0C1C00",
"2+	c #152100",
"3+	c #192300",
"4+	c #1A2300",
"5+	c #162200",
"6+	c #182300",
"7+	c #1B2400",
"8+	c #212700",
"9+	c #3A2E01",
"0+	c #3F2F01",
"a+	c #3E2F01",
"b+	c #362C01",
"c+	c #453400",
"d+	c #4A3600",
"e+	c #1F2600",
"f+	c #222800",
"g+	c #242600",
"h+	c #2F2A00",
"i+	c #382D01",
"j+	c #202600",
"k+	c #242900",
"l+	c #162100",
"m+	c #142000",
"n+	c #1D2600",
"o+	c #1C2500",
"p+	c #322B01",
"q+	c #453102",
"r+	c #3C2E01",
"s+	c #2A2A00",
"t+	c #3F3100",
"u+	c #473300",
"v+	c #553A01",
"w+	c #573B01",
"x+	c #282900",
"y+	c #1A2400",
"z+	c #352900",
"A+	c #332900",
"B+	c #282600",
"C+	c #1F2300",
"D+	c #272700",
"E+	c #2B2A00",
"F+	c #232600",
"G+	c #1F2500",
"H+	c #1D2300",
"I+	c #1D2400",
"J+	c #202500",
"K+	c #222500",
"L+	c #292800",
"M+	c #302A00",
"N+	c #312A00",
"O+	c #302900",
"P+	c #2C2900",
"Q+	c #302C00",
"R+	c #352F00",
"S+	c #232900",
"T+	c #252401",
"U+	c #292500",
"V+	c #272600",
"W+	c #1C2400",
"X+	c #323300",
"Y+	c #363400",
"Z+	c #353400",
"`+	c #2A2701",
" @	c #2B2701",
".@	c #262600",
"+@	c #121F00",
"@@	c #382F00",
"#@	c #372E00",
"$@	c #322D00",
"%@	c #2A2800",
"&@	c #302B00",
"*@	c #312C00",
"=@	c #2D2B00",
"-@	c #242700",
";@	c #1F2400",
">@	c #222700",
",@	c #282700",
"'@	c #252600",
")@	c #212400",
"!@	c #2D2600",
"~@	c #342801",
"{@	c #352901",
"]@	c #2C2600",
"^@	c #262800",
"/@	c #2E2C00",
"(@	c #2F2B00",
"_@	c #282800",
":@	c #2E2D00",
"<@	c #1C2200",
"[@	c #292701",
"}@	c #222400",
"|@	c #333300",
"1@	c #353300",
"2@	c #323400",
"3@	c #1B2300",
"4@	c #282500",
"5@	c #2D2800",
"6@	c #2E2A00",
"7@	c #262700",
"8@	c #212600",
"9@	c #232500",
"0@	c #302800",
"a@	c #482F01",
"b@	c #79470E",
"c@	c #75460D",
"d@	c #674009",
"e@	c #563602",
"f@	c #4A3200",
"g@	c #2D2A00",
"h@	c #252701",
"i@	c #422F04",
"j@	c #633C0B",
"k@	c #704309",
"l@	c #744408",
"m@	c #74460B",
"n@	c #73450A",
"o@	c #5D3C03",
"p@	c #513700",
"q@	c #4C3600",
"r@	c #4A3500",
"s@	c #473500",
"t@	c #463500",
"u@	c #453500",
"v@	c #463600",
"w@	c #443600",
"x@	c #403500",
"y@	c #3C3400",
"z@	c #393300",
"A@	c #383300",
"B@	c #373300",
"C@	c #3A3500",
"D@	c #383500",
"E@	c #262A00",
"F@	c #292900",
"G@	c #3F3500",
"H@	c #3D3400",
"I@	c #313200",
"J@	c #333400",
"K@	c #2E3100",
"L@	c #292F00",
"M@	c #272E00",
"N@	c #423701",
"O@	c #413600",
"P@	c #2D2E00",
"Q@	c #3A3300",
"R@	c #3C3300",
"S@	c #443400",
"T@	c #423300",
"U@	c #443300",
"V@	c #463300",
"W@	c #583902",
"X@	c #6E4206",
"Y@	c #714307",
"Z@	c #724208",
"`@	c #673D06",
" #	c #422E02",
".#	c #2C2800",
"+#	c #3F3000",
"@#	c #4A3100",
"##	c #5A3701",
"$#	c #764306",
"%#	c #7E4709",
"&#	c #7E490D",
"*#	c #7E470A",
"=#	c #754206",
"-#	c #583701",
";#	c #493100",
">#	c #4B3102",
",#	c #693E07",
"'#	c #724308",
")#	c #714207",
"!#	c #6B4106",
"~#	c #4F3601",
"{#	c #453300",
"]#	c #433300",
"^#	c #413300",
"/#	c #443500",
"(#	c #423500",
"_#	c #3C3500",
":#	c #282B00",
"<#	c #312D00",
"[#	c #413601",
"}#	c #313300",
"|#	c #3A3400",
"1#	c #413500",
"2#	c #453600",
"3#	c #483500",
"4#	c #4D3600",
"5#	c #523700",
"6#	c #633E04",
"7#	c #75460A",
"8#	c #6C410A",
"9#	c #5A390A",
"0#	c #372C02",
"a#	c #392D00",
"b#	c #513501",
"c#	c #5A3904",
"d#	c #72450D",
"e#	c #78470E",
"f#	c #804A0F",
"g#	c #633D07",
"h#	c #613D07",
"i#	c #5D3B05",
"j#	c #573701",
"k#	c #503600",
"l#	c #563A0C",
"m#	c #925420",
"n#	c #774308",
"o#	c #6D3F05",
"p#	c #633E05",
"q#	c #623E06",
"r#	c #5E3C05",
"s#	c #4C3602",
"t#	c #3F3200",
"u#	c #3E3300",
"v#	c #363300",
"w#	c #343400",
"x#	c #3B3500",
"y#	c #282F00",
"z#	c #2E3200",
"A#	c #303300",
"B#	c #2D3100",
"C#	c #393400",
"D#	c #3E3500",
"E#	c #373400",
"F#	c #3E3000",
"G#	c #4B3401",
"H#	c #5D3B04",
"I#	c #5F3C03",
"J#	c #613C04",
"K#	c #693E05",
"L#	c #703F06",
"M#	c #844C19",
"N#	c #583908",
"O#	c #4F3500",
"P#	c #543500",
"Q#	c #5C3801",
"R#	c #693D03",
"S#	c #6F4106",
"T#	c #683D03",
"U#	c #5B3800",
"V#	c #533500",
"W#	c #202700",
"X#	c #633D0B",
"Y#	c #824B18",
"Z#	c #713F05",
"`#	c #663E05",
" $	c #603C04",
".$	c #5B3A03",
"+$	c #453100",
"@$	c #383400",
"#$	c #3F3600",
"$$	c #2F3300",
"%$	c #2C3100",
"&$	c #503703",
"*$	c #613D06",
"=$	c #663D05",
"-$	c #724105",
";$	c #844A16",
">$	c #88511B",
",$	c #2C2A01",
"'$	c #493400",
")$	c #543701",
"!$	c #593802",
"~$	c #603D07",
"{$	c #623C04",
"]$	c #553600",
"^$	c #523500",
"/$	c #513500",
"($	c #503400",
"_$	c #4E3400",
":$	c #4D3500",
"<$	c #4C3500",
"[$	c #232700",
"}$	c #5A390B",
"|$	c #98541E",
"1$	c #793F05",
"2$	c #5F3601",
"3$	c #483100",
"4$	c #423100",
"5$	c #343300",
"6$	c #353500",
"7$	c #2E3201",
"8$	c #262E00",
"9$	c #373500",
"0$	c #393500",
"a$	c #363500",
"b$	c #403100",
"c$	c #433100",
"d$	c #533300",
"e$	c #663905",
"f$	c #925625",
"g$	c #684111",
"h$	c #332C00",
"i$	c #533800",
"j$	c #533600",
"k$	c #583600",
"l$	c #593600",
"m$	c #5C3800",
"n$	c #543600",
"o$	c #232800",
"p$	c #764714",
"q$	c #8D5223",
"r$	c #663903",
"s$	c #4E3200",
"t$	c #383200",
"u$	c #3B3600",
"v$	c #313400",
"w$	c #302F00",
"x$	c #403000",
"y$	c #443100",
"z$	c #4D3200",
"A$	c #6C3B02",
"B$	c #874913",
"C$	c #8F511B",
"D$	c #2F2A01",
"E$	c #252800",
"F$	c #443200",
"G$	c #4E3500",
"H$	c #503500",
"I$	c #593700",
"J$	c #5D3800",
"K$	c #613B02",
"L$	c #5E3A01",
"M$	c #5A3800",
"N$	c #573700",
"O$	c #563700",
"P$	c #513600",
"Q$	c #3A2E00",
"R$	c #272900",
"S$	c #5D3B11",
"T$	c #9D5825",
"U$	c #7B420A",
"V$	c #623801",
"W$	c #513400",
"X$	c #4C3400",
"Y$	c #423200",
"Z$	c #373600",
"`$	c #393600",
" %	c #473200",
".%	c #4B3300",
"+%	c #4D3300",
"@%	c #583601",
"#%	c #663907",
"$%	c #955829",
"%%	c #6D4317",
"&%	c #583900",
"*%	c #593800",
"=%	c #5F3800",
"-%	c #653A00",
";%	c #693C01",
">%	c #613900",
",%	c #673C00",
"'%	c #593A00",
")%	c #262900",
"!%	c #7B4A1C",
"~%	c #8F5426",
"{%	c #673905",
"]%	c #543401",
"^%	c #4C3300",
"/%	c #4A3300",
"(%	c #463200",
"_%	c #413100",
":%	c #3C3600",
"<%	c #3A3600",
"[%	c #363600",
"}%	c #2A3000",
"|%	c #3F3300",
"1%	c #483300",
"2%	c #543400",
"3%	c #6F3C03",
"4%	c #8B4C1A",
"5%	c #945422",
"6%	c #332B02",
"7%	c #583700",
"8%	c #603B01",
"9%	c #5F3901",
"0%	c #673D02",
"a%	c #6E3F02",
"b%	c #683E01",
"c%	c #613B01",
"d%	c #5C3900",
"e%	c #322B00",
"f%	c #643F16",
"g%	c #A6602F",
"h%	c #925017",
"i%	c #703E06",
"j%	c #563800",
"k%	c #533700",
"l%	c #5E3B04",
"m%	c #684005",
"n%	c #493501",
"o%	c #483601",
"p%	c #493902",
"q%	c #453701",
"r%	c #443701",
"s%	c #433701",
"t%	c #443700",
"u%	c #353600",
"v%	c #343500",
"w%	c #293000",
"x%	c #3D3500",
"y%	c #483801",
"z%	c #483701",
"A%	c #493801",
"B%	c #4C3901",
"C%	c #3D3300",
"D%	c #413400",
"E%	c #633D02",
"F%	c #653E02",
"G%	c #553700",
"H%	c #5B3900",
"I%	c #6C3E04",
"J%	c #854911",
"K%	c #A45E29",
"L%	c #734719",
"M%	c #292A00",
"N%	c #563600",
"O%	c #623A00",
"P%	c #6B3D01",
"Q%	c #734102",
"R%	c #673C01",
"S%	c #714002",
"T%	c #623900",
"U%	c #483200",
"V%	c #824E1E",
"W%	c #A05C27",
"X%	c #83490F",
"Y%	c #673C03",
"Z%	c #5A3801",
"`%	c #5E3B02",
" &	c #403400",
".&	c #4A3901",
"+&	c #423601",
"@&	c #0F2200",
"#&	c #1A2700",
"$&	c #463801",
"%&	c #4A3802",
"&&	c #473401",
"*&	c #4F3701",
"=&	c #6C4107",
"-&	c #573902",
";&	c #553800",
">&	c #583800",
",&	c #80450D",
"'&	c #9C5824",
")&	c #9E5C2C",
"!&	c #362C03",
"~&	c #3B2E00",
"{&	c #4D3400",
"]&	c #593900",
"^&	c #5E3A00",
"/&	c #653C01",
"(&	c #6C3E02",
"_&	c #6B3E02",
":&	c #673C02",
"<&	c #7B4405",
"[&	c #794404",
"}&	c #714103",
"|&	c #453000",
"1&	c #392E00",
"2&	c #53360A",
"3&	c #884C14",
"4&	c #8A4E13",
"5&	c #6B3E06",
"6&	c #523600",
"7&	c #593903",
"8&	c #603D05",
"9&	c #493401",
"0&	c #4B3501",
"a&	c #4C3802",
"b&	c #473701",
"c&	c #3F3400",
"d&	c #3B3200",
"e&	c #463702",
"f&	c #443601",
"g&	c #433600",
"h&	c #3E3400",
"i&	c #322F00",
"j&	c #283000",
"k&	c #4A3801",
"l&	c #4F3501",
"m&	c #5F3B02",
"n&	c #613C03",
"o&	c #683C02",
"p&	c #7E480C",
"q&	c #8C511A",
"r&	c #5E3B0A",
"s&	c #2B2900",
"t&	c #342B00",
"u&	c #402E00",
"v&	c #483000",
"w&	c #5B3701",
"x&	c #744204",
"y&	c #7C4405",
"z&	c #744203",
"A&	c #683D02",
"B&	c #473000",
"C&	c #3E2D00",
"D&	c #6B410F",
"E&	c #8B5119",
"F&	c #7C460A",
"G&	c #643B01",
"H&	c #5B3902",
"I&	c #493300",
"J&	c #433400",
"K&	c #2F2D00",
"L&	c #142400",
"M&	c #112300",
"N&	c #433601",
"O&	c #453601",
"P&	c #4C3702",
"Q&	c #4D3601",
"R&	c #623F05",
"S&	c #533601",
"T&	c #7B450D",
"U&	c #8A4D14",
"V&	c #824A15",
"W&	c #332B01",
"X&	c #3E2F00",
"Y&	c #5E3901",
"Z&	c #6C3F02",
"`&	c #744304",
" *	c #7C4504",
".*	c #7D4606",
"+*	c #673B02",
"@*	c #5E3801",
"#*	c #673B03",
"$*	c #4F3301",
"%*	c #382B00",
"&*	c #382C00",
"**	c #3B2D00",
"=*	c #3C2D00",
"-*	c #402E01",
";*	c #3D2E01",
">*	c #3B2D01",
",*	c #362C00",
"'*	c #352C00",
")*	c #342D00",
"!*	c #312B00",
"~*	c #302B01",
"{*	c #2B2B00",
"]*	c #282A00",
"^*	c #4F3801",
"/*	c #503A01",
"(*	c #383600",
"_*	c #333500",
":*	c #272F00",
"<*	c #2A3100",
"[*	c #523A01",
"}*	c #624002",
"|*	c #242800",
"1*	c #2C2A00",
"2*	c #322A00",
"3*	c #362B01",
"4*	c #372C00",
"5*	c #2E2900",
"6*	c #312900",
"7*	c #432F00",
"8*	c #583702",
"9*	c #653B05",
"0*	c #6F4006",
"a*	c #643B04",
"b*	c #573603",
"c*	c #422E00",
"d*	c #2D2900",
"e*	c #342C00",
"f*	c #352A00",
"g*	c #332B00",
"h*	c #483501",
"i*	c #634102",
"j*	c #503901",
"k*	c #272A00",
"l*	c #392C00",
"m*	c #3C2D01",
"n*	c #3F2D01",
"o*	c #332A00",
"p*	c #5E3802",
"q*	c #633A02",
"r*	c #342900",
"s*	c #322900",
"t*	c #3D2D00",
"u*	c #462F00",
"v*	c #5C3803",
"w*	c #693D04",
"x*	c #6D3D02",
"y*	c #6D3E02",
"z*	c #653B01",
"A*	c #633A01",
"B*	c #633B01",
"C*	c #5D3900",
"D*	c #5B3A00",
"E*	c #583A00",
"F*	c #563900",
"G*	c #523800",
"H*	c #513800",
"I*	c #4B3600",
"J*	c #493500",
"K*	c #513902",
"L*	c #573C01",
"M*	c #393700",
"N*	c #2B3100",
"O*	c #453700",
"P*	c #5D3F02",
"Q*	c #5F4003",
"R*	c #403300",
"S*	c #473400",
"T*	c #4B3500",
"U*	c #4F3600",
"V*	c #543700",
"W*	c #5A3601",
"X*	c #5C3701",
"Y*	c #5F3801",
"Z*	c #643A02",
"`*	c #663B02",
" =	c #613A03",
".=	c #5A3602",
"+=	c #4F3200",
"@=	c #462F01",
"#=	c #382A00",
"$=	c #473001",
"%=	c #4B3000",
"&=	c #5C3702",
"*=	c #623A03",
"==	c #673B01",
"-=	c #4E3600",
";=	c #453501",
">=	c #654303",
",=	c #563B01",
"'=	c #463400",
")=	c #4D3700",
"!=	c #5A3A00",
"~=	c #5D3A00",
"{=	c #603A00",
"]=	c #663B01",
"^=	c #693D02",
"/=	c #6B3D02",
"(=	c #6B3E05",
"_=	c #4E3201",
":=	c #462E00",
"<=	c #3C2B00",
"[=	c #452E00",
"}=	c #613801",
"|=	c #744002",
"1=	c #7A4405",
"2=	c #8F4E0C",
"3=	c #98510E",
"4=	c #A75914",
"5=	c #A85913",
"6=	c #A65812",
"7=	c #A65710",
"8=	c #9B520E",
"9=	c #724001",
"0=	c #6E3F01",
"a=	c #6D3F01",
"b=	c #714001",
"c=	c #6D4001",
"d=	c #543900",
"e=	c #503700",
"f=	c #433500",
"g=	c #353001",
"h=	c #533A01",
"i=	c #5A3D01",
"j=	c #463700",
"k=	c #383700",
"l=	c #363700",
"m=	c #2D3201",
"n=	c #2C3201",
"o=	c #3D3301",
"p=	c #483600",
"q=	c #4B3700",
"r=	c #4E3800",
"s=	c #513900",
"t=	c #6B4003",
"u=	c #754303",
"v=	c #6A3E01",
"w=	c #653B00",
"x=	c #693C00",
"y=	c #934F0E",
"z=	c #9F5514",
"A=	c #9E5614",
"B=	c #A15816",
"C=	c #9A5516",
"D=	c #8E4E10",
"E=	c #8F5012",
"F=	c #7C4508",
"G=	c #703E02",
"H=	c #794307",
"I=	c #693C06",
"J=	c #482E00",
"K=	c #492F00",
"L=	c #6B3D06",
"M=	c #784307",
"N=	c #703F03",
"O=	c #80470B",
"P=	c #905013",
"Q=	c #8F4F11",
"R=	c #9C5517",
"S=	c #A05716",
"T=	c #9F5614",
"U=	c #9E5514",
"V=	c #8C4C0C",
"W=	c #683C00",
"X=	c #6C3F01",
"Y=	c #774504",
"Z=	c #623D01",
"`=	c #543800",
" -	c #503900",
".-	c #4D3800",
"+-	c #4A3700",
"@-	c #493600",
"#-	c #543B01",
"$-	c #373700",
"%-	c #2D3200",
"&-	c #533901",
"*-	c #242901",
"=-	c #403600",
"--	c #533900",
";-	c #5C3A00",
">-	c #714101",
",-	c #6F4001",
"'-	c #804605",
")-	c #A0550F",
"!-	c #A65810",
"~-	c #A75913",
"{-	c #A35713",
"]-	c #934F0D",
"^-	c #8E4E0C",
"/-	c #6F3E01",
"(-	c #754003",
"_-	c #472E00",
":-	c #432E00",
"<-	c #4F3100",
"[-	c #593400",
"}-	c #583400",
"|-	c #583401",
"1-	c #5A3600",
"2-	c #5F3701",
"3-	c #683B02",
"4-	c #6C3C03",
"5-	c #6B3C04",
"6-	c #693C03",
"7-	c #673A02",
"8-	c #6E3F03",
"9-	c #623A01",
"0-	c #5D3801",
"a-	c #573800",
"b-	c #5D3A01",
"c-	c #623D02",
"d-	c #633E02",
"e-	c #613E02",
"f-	c #603D01",
"g-	c #5E3E02",
"h-	c #503801",
"i-	c #4F3901",
"j-	c #1C2800",
"k-	c #403601",
"l-	c #463701",
"m-	c #493701",
"n-	c #4C3700",
"o-	c #623F02",
"p-	c #643F02",
"q-	c #664102",
"r-	c #654002",
"s-	c #613E01",
"t-	c #5B3A01",
"u-	c #613A01",
"v-	c #5B3700",
"w-	c #6F3E04",
"x-	c #673B04",
"y-	c #663B04",
"z-	c #683B05",
"A-	c #693A04",
"B-	c #653A03",
"C-	c #5C3601",
"D-	c #5C3600",
"E-	c #5B3501",
"F-	c #5D3601",
"G-	c #5D3501",
"H-	c #5B3500",
"I-	c #5C3500",
"J-	c #693B04",
"K-	c #673B05",
"L-	c #6D3D05",
"M-	c #6B3D03",
"N-	c #5A3700",
"O-	c #5E3C01",
"P-	c #654102",
"Q-	c #664003",
"R-	c #644002",
"S-	c #5A3C02",
"T-	c #493700",
"U-	c #3E3601",
"V-	c #463501",
"W-	c #4D3901",
"X-	c #4C3800",
"Y-	c #4D3801",
"Z-	c #523901",
"`-	c #603E02",
" ;	c #5A3901",
".;	c #603901",
"+;	c #6A3D02",
"@;	c #6C3E03",
"#;	c #683B03",
"$;	c #6B3B03",
"%;	c #6B3C02",
"&;	c #5D3701",
"*;	c #593401",
"=;	c #523100",
"-;	c #533302",
";;	c #382700",
">;	c #302500",
",;	c #302600",
"';	c #342800",
");	c #3D2A00",
"!;	c #3E2B00",
"~;	c #3F2B00",
"{;	c #3C2A00",
"];	c #3C2B01",
"^;	c #392900",
"/;	c #362900",
"(;	c #342A00",
"_;	c #413301",
":;	c #453401",
"<;	c #423301",
"[;	c #282C00",
"};	c #122300",
"|;	c #1F2A00",
"1;	c #423600",
"2;	c #3C3201",
"3;	c #362D00",
"4;	c #372800",
"5;	c #3B2A01",
"6;	c #3A2901",
"7;	c #392800",
"8;	c #3A2900",
"9;	c #3D2B00",
"0;	c #432D00",
"a;	c #382800",
"b;	c #332600",
"c;	c #322500",
"d;	c #312500",
"e;	c #4E3000",
"f;	c #352700",
"g;	c #312600",
"h;	c #322600",
"i;	c #412C00",
"j;	c #3B2A00",
"k;	c #3A2A00",
"l;	c #3D3201",
"m;	c #423501",
"n;	c #413700",
"o;	c #473501",
"p;	c #4A3601",
"q;	c #443301",
"r;	c #352D00",
"s;	c #352B00",
"t;	c #372A00",
"u;	c #3B2B00",
"v;	c #392A00",
"w;	c #2F2500",
"x;	c #452D01",
"y;	c #5C3602",
"z;	c #81490B",
"A;	c #472D02",
"B;	c #2E2400",
"C;	c #2E2500",
"D;	c #2E2600",
"E;	c #392801",
"F;	c #603C12",
"G;	c #7A5027",
"H;	c #7E5128",
"I;	c #78491B",
"J;	c #75430A",
"K;	c #744105",
"L;	c #714005",
"M;	c #734206",
"N;	c #724206",
"O;	c #6F4005",
"P;	c #6A3F03",
"Q;	c #473601",
"R;	c #383201",
"S;	c #3E3201",
"T;	c #533701",
"U;	c #663D02",
"V;	c #6A3F04",
"W;	c #6D4004",
"X;	c #6C3F04",
"Y;	c #6F3F04",
"Z;	c #714109",
"`;	c #6E3F0B",
" >	c #7A4C24",
".>	c #80532F",
"+>	c #65401B",
"@>	c #362601",
"#>	c #302400",
"$>	c #2F2400",
"%>	c #322400",
"&>	c #392700",
"*>	c #713D04",
"=>	c #3F2901",
"->	c #342600",
";>	c #3A2802",
">>	c #5D3D1A",
",>	c #6D4824",
"'>	c #674019",
")>	c #603907",
"!>	c #623A05",
"~>	c #5F3903",
"{>	c #5E3A03",
"]>	c #5C3902",
"^>	c #593701",
"/>	c #553801",
"(>	c #3E3301",
"_>	c #343001",
":>	c #3E3401",
"<>	c #3F3301",
"[>	c #413201",
"}>	c #4B3400",
"|>	c #523501",
"1>	c #593801",
"2>	c #5F3A03",
"3>	c #633C04",
"4>	c #643C04",
"5>	c #633A03",
"6>	c #663E0C",
"7>	c #694319",
"8>	c #6B4721",
"9>	c #64421C",
"0>	c #472E05",
"a>	c #342700",
"b>	c #302700",
"c>	c #2F2700",
"d>	c #2D2500",
"e>	c #6C3E07",
"f>	c #7E4509",
"g>	c #663B05",
"h>	c #3F2A01",
"i>	c #482E07",
"j>	c #9B561F",
"k>	c #C97038",
"l>	c #C16B30",
"m>	c #A4581A",
"n>	c #934E0A",
"o>	c #924C08",
"p>	c #8D4C08",
"q>	c #8B4C0A",
"r>	c #894C0A",
"s>	c #804809",
"t>	c #794506",
"u>	c #6E4003",
"v>	c #5F3B01",
"w>	c #4E3700",
"x>	c #543A01",
"y>	c #563C01",
"z>	c #5B3E01",
"A>	c #5E3F02",
"B>	c #5B3E02",
"C>	c #553D02",
"D>	c #533B01",
"E>	c #593D02",
"F>	c #553900",
"G>	c #6D4103",
"H>	c #774403",
"I>	c #834905",
"J>	c #894C06",
"K>	c #894B06",
"L>	c #8F4B06",
"M>	c #914D09",
"N>	c #924D0C",
"O>	c #B2632E",
"P>	c #CB7244",
"Q>	c #A85E2D",
"R>	c #402A03",
"S>	c #332500",
"T>	c #312400",
"U>	c #3A2700",
"V>	c #603503",
"W>	c #3F2900",
"X>	c #59350B",
"Y>	c #AE6434",
"Z>	c #CB7345",
"`>	c #AF612B",
" ,	c #95500E",
".,	c #974F0A",
"+,	c #924E07",
"@,	c #8F4E07",
"#,	c #8E4E07",
"$,	c #874B06",
"%,	c #794503",
"&,	c #704304",
"*,	c #593D01",
"=,	c #5E3E01",
"-,	c #5D3E02",
";,	c #5C3E02",
">,	c #3F3401",
",,	c #523B02",
"',	c #5A3E02",
"),	c #614002",
"!,	c #553B01",
"~,	c #523900",
"{,	c #573A00",
"],	c #5E3B00",
"^,	c #663D01",
"/,	c #774405",
"(,	c #814908",
"_,	c #8A4D0B",
":,	c #914F0C",
"<,	c #914F0B",
"[,	c #984F09",
"},	c #9B5412",
"|,	c #B16225",
"1,	c #CD743B",
"2,	c #C16C34",
"3,	c #794412",
"4,	c #362701",
"5,	c #5D3704",
"6,	c #5E3704",
"7,	c #593502",
"8,	c #573201",
"9,	c #573301",
"0,	c #563201",
"a,	c #603603",
"b,	c #6F3B05",
"c,	c #793F06",
"d,	c #3E2A01",
"e,	c #533A18",
"f,	c #AD6636",
"g,	c #B15E29",
"h,	c #A15216",
"i,	c #914904",
"j,	c #864502",
"k,	c #824501",
"l,	c #794101",
"m,	c #723F01",
"n,	c #6E3E01",
"o,	c #663B00",
"p,	c #5E3900",
"q,	c #573D01",
"r,	c #443201",
"s,	c #382D00",
"t,	c #362E00",
"u,	c #252900",
"v,	c #323201",
"w,	c #333201",
"x,	c #513901",
"y,	c #4F3700",
"z,	c #663C00",
"A,	c #733F01",
"B,	c #784101",
"C,	c #7F4301",
"D,	c #874501",
"E,	c #964D12",
"F,	c #A45624",
"G,	c #B97042",
"H,	c #473111",
"I,	c #3A2800",
"J,	c #723C04",
"K,	c #753D04",
"L,	c #643702",
"M,	c #593201",
"N,	c #543001",
"O,	c #533001",
"P,	c #512F01",
"Q,	c #472C01",
"R,	c #472B01",
"S,	c #492C01",
"T,	c #4E2E01",
"U,	c #5E3402",
"V,	c #6F3A03",
"W,	c #633603",
"X,	c #362600",
"Y,	c #6C4928",
"Z,	c #B36536",
"`,	c #A85826",
" '	c #954D11",
".'	c #864401",
"+'	c #7E4201",
"@'	c #764001",
"#'	c #713E01",
"$'	c #6C3D00",
"%'	c #633B00",
"&'	c #483400",
"*'	c #513A01",
"='	c #2C2D00",
"-'	c #1E2400",
";'	c #533802",
">'	c #372C01",
",'	c #3F2F00",
"''	c #5E3F01",
")'	c #473700",
"!'	c #5F3A00",
"~'	c #7A4201",
"{'	c #834401",
"]'	c #874502",
"^'	c #9A4D0B",
"/'	c #AB5A21",
"('	c #B76531",
"_'	c #91592D",
":'	c #3B2A05",
"<'	c #573203",
"['	c #6D3A05",
"}'	c #623603",
"|'	c #4D2E01",
"1'	c #4A2D00",
"2'	c #4B2D01",
"3'	c #4B2E00",
"4'	c #4D2F01",
"5'	c #794002",
"6'	c #C46511",
"7'	c #C05E08",
"8'	c #BE5B04",
"9'	c #C15B03",
"0'	c #CD6510",
"a'	c #CA6414",
"b'	c #AB530D",
"c'	c #AE580B",
"d'	c #4E3002",
"e'	c #584021",
"f'	c #C37547",
"g'	c #AA5921",
"h'	c #984A01",
"i'	c #954901",
"j'	c #8F4902",
"k'	c #8E4701",
"l'	c #854601",
"m'	c #7E4401",
"n'	c #7B4401",
"o'	c #774201",
"p'	c #663E00",
"q'	c #623D00",
"r'	c #583B00",
"s'	c #4F3800",
"t'	c #4A3800",
"u'	c #5B3B02",
"v'	c #704503",
"w'	c #734502",
"x'	c #6E4302",
"y'	c #623F01",
"z'	c #5C3D01",
"A'	c #3A3700",
"B'	c #3E3800",
"C'	c #433900",
"D'	c #423800",
"E'	c #3B3700",
"F'	c #413901",
"G'	c #473A01",
"H'	c #3F3700",
"I'	c #513A00",
"J'	c #593B00",
"K'	c #643F01",
"L'	c #6C4202",
"M'	c #724403",
"N'	c #784803",
"O'	c #6D4202",
"P'	c #4E3900",
"Q'	c #543A00",
"R'	c #5B3B00",
"S'	c #5E3C00",
"T'	c #613C00",
"U'	c #643D00",
"V'	c #6A3D00",
"W'	c #7B4301",
"X'	c #804401",
"Y'	c #854501",
"Z'	c #8A4601",
"`'	c #914701",
" )	c #974901",
".)	c #994D0F",
"+)	c #C67F51",
"@)	c #4B3416",
"#)	c #432A01",
"$)	c #964803",
"%)	c #B35506",
"&)	c #C8600B",
"*)	c #CC650F",
"=)	c #C25F06",
"-)	c #BE5B03",
";)	c #BA5A03",
">)	c #BD5C05",
",)	c #B95A03",
"')	c #BC5A03",
"))	c #C05E06",
"!)	c #C6620D",
"~)	c #C25D09",
"{)	c #AB5204",
"])	c #884202",
"^)	c #3E2900",
"/)	c #735534",
"()	c #BC7044",
"_)	c #984B09",
":)	c #954801",
"<)	c #8F4701",
"[)	c #884501",
"})	c #824401",
"|)	c #784201",
"1)	c #663D00",
"2)	c #623C00",
"3)	c #5F3C00",
"4)	c #5D3C00",
"5)	c #4B3800",
"6)	c #4F3A01",
"7)	c #4D3401",
"8)	c #734503",
"9)	c #744603",
"0)	c #6A4102",
"a)	c #5B3C00",
"b)	c #3D3600",
"c)	c #403700",
"d)	c #453900",
"e)	c #443901",
"f)	c #403901",
"g)	c #3C3700",
"h)	c #443800",
"i)	c #5A3C01",
"j)	c #603E01",
"k)	c #6B4201",
"l)	c #714402",
"m)	c #6D4403",
"n)	c #583A01",
"o)	c #573C00",
"p)	c #613D00",
"q)	c #673E00",
"r)	c #7A4301",
"s)	c #864602",
"t)	c #8D4702",
"u)	c #964A01",
"v)	c #984A02",
"w)	c #BA6734",
"x)	c #A96B41",
"y)	c #3F2C08",
"z)	c #824707",
"A)	c #A25008",
"B)	c #B55A0F",
"C)	c #C7620F",
"D)	c #C45F08",
"E)	c #BE5A03",
"F)	c #BC5B04",
"G)	c #BE600E",
"H)	c #BB5E0D",
"I)	c #AF560A",
"J)	c #A75107",
"K)	c #A45005",
"L)	c #A55107",
"M)	c #B65C13",
"N)	c #B35A15",
"O)	c #B1560C",
"P)	c #BB5C07",
"Q)	c #543202",
"R)	c #352600",
"S)	c #583915",
"T)	c #BD6A30",
"U)	c #AD5715",
"V)	c #A14D01",
"W)	c #9A4C01",
"X)	c #964B01",
"Y)	c #954A01",
"Z)	c #8E4801",
"`)	c #864601",
" !	c #7F4401",
".!	c #764101",
"+!	c #734101",
"@!	c #683F01",
"#!	c #623E00",
"$!	c #503A00",
"%!	c #4F3A00",
"&!	c #553C01",
"*!	c #613C02",
"=!	c #724603",
"-!	c #734603",
";!	c #654001",
">!	c #5F3E01",
",!	c #573B00",
"'!	c #473600",
")!	c #5C3C00",
"!!	c #633F01",
"~!	c #6C4101",
"{!	c #7C4905",
"]!	c #7D4A06",
"^!	c #754703",
"/!	c #6F4303",
"(!	c #483700",
"_!	c #5A3B00",
":!	c #6B3E00",
"<!	c #713F01",
"[!	c #794201",
"}!	c #814401",
"|!	c #8B4702",
"1!	c #8F4801",
"2!	c #904701",
"3!	c #944901",
"4!	c #9D4C01",
"5!	c #A04E09",
"6!	c #BA6F3C",
"7!	c #483110",
"8!	c #492D00",
"9!	c #B75705",
"0!	c #B95807",
"a!	c #AE550B",
"b!	c #AF5811",
"c!	c #A14F09",
"d!	c #9C4D06",
"e!	c #9A4C06",
"f!	c #A04E07",
"g!	c #9C4C06",
"h!	c #9E4D06",
"i!	c #A4510A",
"j!	c #B45A12",
"k!	c #B4580C",
"l!	c #BB5807",
"m!	c #A65004",
"n!	c #422A00",
"o!	c #6F4D2B",
"p!	c #B56533",
"q!	c #9F4D05",
"r!	c #9B4B01",
"s!	c #934801",
"t!	c #904801",
"u!	c #8E4702",
"v!	c #874601",
"w!	c #6A3E00",
"x!	c #653D00",
"y!	c #563A00",
"z!	c #503800",
"A!	c #543601",
"B!	c #754603",
"C!	c #784804",
"D!	c #7B4905",
"E!	c #744503",
"F!	c #674001",
"G!	c #5E3D01",
"H!	c #3D3800",
"I!	c #292D01",
"J!	c #644001",
"K!	c #714503",
"L!	c #714603",
"M!	c #493800",
"N!	c #553A00",
"O!	c #633E00",
"P!	c #6F4101",
"Q!	c #904901",
"R!	c #974B01",
"S!	c #9C4C01",
"T!	c #A24E02",
"U!	c #B86126",
"V!	c #A66130",
"W!	c #3F2B04",
"X!	c #372700",
"Y!	c #894805",
"Z!	c #B55606",
"`!	c #B55912",
" ~	c #B95E17",
".~	c #B15910",
"+~	c #A45004",
"@~	c #A65005",
"#~	c #AC5409",
"$~	c #AA530A",
"%~	c #A75208",
"&~	c #A65107",
"*~	c #A75309",
"=~	c #A65207",
"-~	c #A25005",
";~	c #AC5303",
">~	c #CB680F",
",~	c #5D3602",
"'~	c #593507",
")~	c #B55F18",
"!~	c #B2570A",
"~~	c #A85001",
"{~	c #A14E01",
"]~	c #9C4D02",
"^~	c #9B4C01",
"/~	c #874602",
"(~	c #754201",
"_~	c #704101",
":~	c #6A4001",
"<~	c #643E00",
"[~	c #533A00",
"}~	c #5B3D01",
"|~	c #5D3F01",
"1~	c #694102",
"2~	c #6F4402",
"3~	c #764603",
"4~	c #663F01",
"5~	c #5C3B01",
"6~	c #5D3E01",
"7~	c #553B00",
"8~	c #583C01",
"9~	c #754101",
"0~	c #7D4301",
"a~	c #924901",
"b~	c #9A4B01",
"c~	c #A34E01",
"d~	c #A54E02",
"e~	c #AD5A1A",
"f~	c #482D05",
"g~	c #342500",
"h~	c #C05D08",
"i~	c #B65604",
"j~	c #A14F06",
"k~	c #9F4F08",
"l~	c #9E4F07",
"m~	c #9C4E08",
"n~	c #994D09",
"o~	c #9B4D09",
"p~	c #9A4D08",
"q~	c #A04E05",
"r~	c #BD5905",
"s~	c #B25807",
"t~	c #452B00",
"u~	c #6C4116",
"v~	c #A85513",
"w~	c #A44E02",
"x~	c #894601",
"y~	c #734001",
"z~	c #6B3F00",
"A~	c #603C00",
"B~	c #5C3E01",
"C~	c #463101",
"D~	c #6F4302",
"E~	c #784704",
"F~	c #6F4202",
"G~	c #623E01",
"H~	c #704402",
"I~	c #6B4202",
"J~	c #633E01",
"K~	c #523701",
"L~	c #5C3F01",
"M~	c #653F00",
"N~	c #804501",
"O~	c #8A4701",
"P~	c #AB5202",
"Q~	c #B55B11",
"R~	c #A15718",
"S~	c #412A01",
"T~	c #3B2800",
"U~	c #955109",
"V~	c #C45F09",
"W~	c #A65003",
"X~	c #A25006",
"Y~	c #A65208",
"Z~	c #A85208",
"`~	c #A15009",
" {	c #9B4D05",
".{	c #A14F05",
"+{	c #A15007",
"@{	c #A15108",
"#{	c #A25107",
"${	c #A15004",
"%{	c #A85102",
"&{	c #BE5F08",
"*{	c #603601",
"={	c #362700",
"-{	c #513102",
";{	c #9C4E09",
">{	c #AF5405",
",{	c #A55001",
"'{	c #A24E01",
"){	c #9F4D01",
"!{	c #9D4D01",
"~{	c #974A01",
"{{	c #934A01",
"]{	c #8F4802",
"^{	c #864702",
"/{	c #814601",
"({	c #7E4502",
"_{	c #794401",
":{	c #694001",
"<{	c #5D3D00",
"[{	c #5A3C00",
"}{	c #604001",
"|{	c #593E01",
"1{	c #754605",
"2{	c #5C3D00",
"3{	c #653E01",
"4{	c #6B3F01",
"5{	c #734201",
"6{	c #794301",
"7{	c #984B01",
"8{	c #994B01",
"9{	c #9C4B01",
"0{	c #9E4C01",
"a{	c #A64F01",
"b{	c #A84F02",
"c{	c #944A07",
"d{	c #412901",
"e{	c #512F00",
"f{	c #B25604",
"g{	c #B35504",
"h{	c #A35107",
"i{	c #A04F07",
"j{	c #9A4D07",
"k{	c #944B07",
"l{	c #8F4A06",
"m{	c #914A08",
"n{	c #914A07",
"o{	c #954B07",
"p{	c #9B4E07",
"q{	c #A04F08",
"r{	c #A45106",
"s{	c #B65603",
"t{	c #A65104",
"u{	c #5E3504",
"v{	c #974905",
"w{	c #A44E01",
"x{	c #8D4701",
"y{	c #834501",
"z{	c #7D4401",
"A{	c #764201",
"B{	c #6E4001",
"C{	c #683F00",
"D{	c #653E00",
"E{	c #5F3D00",
"F{	c #372D00",
"G{	c #673F01",
"H{	c #724504",
"I{	c #6D4203",
"J{	c #3E3600",
"K{	c #5A3B01",
"L{	c #6D4301",
"M{	c #5A3E01",
"N{	c #593C01",
"O{	c #593C00",
"P{	c #684001",
"Q{	c #714201",
"R{	c #7A4401",
"S{	c #7E4501",
"T{	c #874702",
"U{	c #A04D01",
"V{	c #A34F01",
"W{	c #AB5308",
"X{	c #8D4909",
"Y{	c #402A00",
"Z{	c #3D2900",
"`{	c #944D05",
" ]	c #B65906",
".]	c #A35003",
"+]	c #A15006",
"@]	c #A25108",
"#]	c #A35108",
"$]	c #9F4E05",
"%]	c #944B06",
"&]	c #8A4706",
"*]	c #864504",
"=]	c #874605",
"-]	c #8E4A07",
";]	c #904C05",
">]	c #914B04",
",]	c #964C04",
"']	c #A25002",
")]	c #5D3401",
"!]	c #402900",
"~]	c #713902",
"{]	c #AC5203",
"]]	c #A34F02",
"^]	c #A24F02",
"/]	c #A04E01",
"(]	c #9E4D01",
"_]	c #884702",
":]	c #744201",
"<]	c #6D4101",
"[]	c #633D00",
"}]	c #5F3D01",
"|]	c #613F01",
"1]	c #533B00",
"2]	c #4B3900",
"3]	c #6C4301",
"4]	c #4A3400",
"5]	c #343600",
"6]	c #754502",
"7]	c #603F01",
"8]	c #653F01",
"9]	c #6B4001",
"0]	c #6B4101",
"a]	c #6F4201",
"b]	c #784301",
"c]	c #A04C01",
"d]	c #A24C01",
"e]	c #AF5101",
"f]	c #A85103",
"g]	c #743E03",
"h]	c #553200",
"i]	c #984C02",
"j]	c #9C4E02",
"k]	c #914A04",
"l]	c #8D4A05",
"m]	c #874703",
"n]	c #7E4303",
"o]	c #753F03",
"p]	c #774004",
"q]	c #794003",
"r]	c #824404",
"s]	c #8A4803",
"t]	c #904B05",
"u]	c #954B05",
"v]	c #A45003",
"w]	c #934B02",
"x]	c #834404",
"y]	c #AB5001",
"z]	c #A14C01",
"A]	c #9F4C01",
"B]	c #8A4602",
"C]	c #834601",
"D]	c #764301",
"E]	c #643E01",
"F]	c #302D00",
"G]	c #724503",
"H]	c #744402",
"I]	c #6C4302",
"J]	c #4E3A00",
"K]	c #814502",
"L]	c #894702",
"M]	c #904902",
"N]	c #A14E02",
"O]	c #9F4D03",
"P]	c #583001",
"Q]	c #854402",
"R]	c #974D04",
"S]	c #934C05",
"T]	c #934C06",
"U]	c #894705",
"V]	c #8E4906",
"W]	c #7E4304",
"X]	c #6B3B02",
"Y]	c #6B3B01",
"Z]	c #6E3D02",
"`]	c #774104",
" ^	c #764203",
".^	c #7A4304",
"+^	c #7C4403",
"@^	c #7A4202",
"#^	c #563200",
"$^	c #623502",
"%^	c #B05608",
"&^	c #BC5C09",
"*^	c #BC5E0C",
"=^	c #BF610D",
"-^	c #BF600C",
";^	c #784401",
">^	c #724301",
",^	c #613E00",
"'^	c #523B00",
")^	c #483800",
"!^	c #573901",
"~^	c #734301",
"{^	c #463800",
"]^	c #4D3701",
"^^	c #5D3B01",
"/^	c #704102",
"(^	c #673F00",
"_^	c #694101",
":^	c #684103",
"<^	c #6B4302",
"[^	c #664001",
"}^	c #724101",
"|^	c #7C4401",
"1^	c #8C4702",
"2^	c #A95102",
"3^	c #BB5B06",
"4^	c #C05D05",
"5^	c #C95D04",
"6^	c #A14D03",
"7^	c #613401",
"8^	c #382600",
"9^	c #743F01",
"0^	c #804503",
"a^	c #7B4202",
"b^	c #764102",
"c^	c #723F02",
"d^	c #6F3D01",
"e^	c #693B01",
"f^	c #6A3C01",
"g^	c #683B00",
"h^	c #703E01",
"i^	c #754102",
"j^	c #7A4302",
"k^	c #7F4403",
"l^	c #834603",
"m^	c #723E01",
"n^	c #513000",
"o^	c #6D3902",
"p^	c #AF5203",
"q^	c #C65C03",
"r^	c #BD5A02",
"s^	c #BA5B05",
"t^	c #B35604",
"u^	c #8A4702",
"v^	c #844602",
"w^	c #704001",
"x^	c #6E4101",
"y^	c #684202",
"z^	c #634001",
"A^	c #523702",
"B^	c #693F01",
"C^	c #653D01",
"D^	c #423700",
"E^	c #3E3700",
"F^	c #643D01",
"G^	c #704201",
"H^	c #774301",
"I^	c #AF5505",
"J^	c #BA5E0A",
"K^	c #BA5D0B",
"L^	c #B85B0A",
"M^	c #BB5B08",
"N^	c #A04F05",
"O^	c #3C2900",
"P^	c #3B2900",
"Q^	c #7E4402",
"R^	c #7F4604",
"S^	c #7C4404",
"T^	c #7A4404",
"U^	c #784205",
"V^	c #6A3B01",
"W^	c #6A3B02",
"X^	c #693B02",
"Y^	c #5A3402",
"Z^	c #523101",
"`^	c #4F3101",
" /	c #4C3001",
"./	c #4E3101",
"+/	c #503001",
"@/	c #402B00",
"#/	c #452B01",
"$/	c #6E3A01",
"%/	c #944D04",
"&/	c #AA5608",
"*/	c #BE600C",
"=/	c #D0670D",
"-/	c #CA6105",
";/	c #C85E02",
">/	c #C75D03",
",/	c #C55D03",
"'/	c #C25D04",
")/	c #AD5604",
"!/	c #8C4A04",
"~/	c #663A01",
"{/	c #7A4402",
"]/	c #6E4303",
"^/	c #664002",
"//	c #4E3902",
"(/	c #684002",
"_/	c #5D3D01",
":/	c #6D4302",
"</	c #6C4201",
"[/	c #714301",
"}/	c #754402",
"|/	c #784402",
"1/	c #613901",
"2/	c #AA5301",
"3/	c #BB5902",
"4/	c #C05C02",
"5/	c #C35D02",
"6/	c #C55E02",
"7/	c #C55D02",
"8/	c #CC6103",
"9/	c #D16407",
"0/	c #BF5C05",
"a/	c #B25503",
"b/	c #8D4804",
"c/	c #643601",
"d/	c #352500",
"e/	c #412A00",
"f/	c #4D2E00",
"g/	c #4F2F01",
"h/	c #4C2E00",
"i/	c #4F2F00",
"j/	c #553201",
"k/	c #533100",
"l/	c #593301",
"m/	c #492B00",
"n/	c #763D01",
"o/	c #A04F04",
"p/	c #BB5903",
"q/	c #CA6006",
"r/	c #D46506",
"s/	c #C75E02",
"t/	c #C35D01",
"u/	c #C05B02",
"v/	c #B55702",
"w/	c #A24F01",
"x/	c #6D3D01",
"y/	c #683C01",
"z/	c #744301",
"A/	c #6A4101",
"B/	c #473301",
"C/	c #433700",
"D/	c #633F02",
"E/	c #704302",
"F/	c #6F4403",
"G/	c #663F00",
"H/	c #744202",
"I/	c #974E04",
"J/	c #AF5704",
"K/	c #C15D04",
"L/	c #C45C02",
"M/	c #C65C02",
"N/	c #CF6408",
"O/	c #D16810",
"P/	c #BC5F0C",
"Q/	c #AD5808",
"R/	c #362800",
"S/	c #4D2F00",
"T/	c #563301",
"U/	c #513101",
"V/	c #523201",
"W/	c #553301",
"X/	c #683900",
"Y/	c #4F3000",
"Z/	c #4A2E00",
"`/	c #472D00",
" (	c #442C00",
".(	c #3F2A00",
"+(	c #372600",
"@(	c #462D00",
"#(	c #533200",
"$(	c #693A01",
"%(	c #763E01",
"&(	c #7D4001",
"*(	c #7E4001",
"=(	c #7F4101",
"-(	c #824101",
";(	c #824302",
">(	c #834402",
",(	c #804302",
"'(	c #7D4402",
")(	c #7B4503",
"!(	c #744302",
"~(	c #6E4102",
"{(	c #613D01",
"](	c #5B3B01",
"^(	c #363001",
"/(	c #3C3301",
"((	c #403401",
"_(	c #392F01",
":(	c #593A01",
"<(	c #6A3F01",
"[(	c #7C4503",
"}(	c #824301",
"|(	c #834201",
"1(	c #834301",
"2(	c #814201",
"3(	c #7D4101",
"4(	c #783F01",
"5(	c #673901",
"6(	c #522F00",
"7(	c #432B00",
"8(	c #472C00",
"9(	c #4E2E00",
"0(	c #502F00",
"a(	c #5C3300",
"b(	c #442B00",
"c(	c #462B00",
"d(	c #5E3400",
"e(	c #773F01",
"f(	c #884401",
"g(	c #8D4601",
"h(	c #914A02",
"i(	c #894902",
"j(	c #7A4403",
"k(	c #2C2B00",
"l(	c #372E01",
"m(	c #3D3401",
"n(	c #533801",
"o(	c #6C4001",
"p(	c #734302",
"q(	c #784503",
"r(	c #7D4502",
"s(	c #8A4501",
"t(	c #7F4202",
"u(	c #6D3B01",
"v(	c #573300",
"w(	c #422B00",
"x(	c #432C00",
"y(	c #492E00",
"z(	c #563300",
"A(	c #6C3A01",
"B(	c #643700",
"C(	c #5E3600",
"D(	c #452C00",
"E(	c #372500",
"F(	c #352800",
"G(	c #372900",
"H(	c #442D00",
"I(	c #3E2E00",
"J(	c #3B2C00",
"K(	c #3E2C00",
"L(	c #3F2C00",
"M(	c #3F2800",
"N(	c #482D00",
"O(	c #5B3400",
"P(	c #5D3400",
"Q(	c #603500",
"R(	c #733B01",
"S(	c #613500",
"T(	c #5B3300",
"U(	c #593300",
"V(	c #4E2F00",
"W(	c #3E2800",
"X(	c #3D2800",
"Y(	c #3C2800",
"Z(	c #402C00",
"`(	c #422D00",
" _	c #402D00",
"._	c #332D00",
"+_	c #332F00",
"@_	c #412F00",
"#_	c #442F00",
"$_	c #452D00",
"%_	c #382900",
"&_	c #362500",
"*_	c #583300",
"=_	c #5A3400",
"-_	c #5F3600",
";_	c #723C01",
">_	c #894302",
",_	c #B15507",
"'_	c #A64F03",
")_	c #994A01",
"!_	c #904601",
"~_	c #703B01",
"{_	c #633600",
"]_	c #5F3400",
"^_	c #5F3300",
"/_	c #693700",
"(_	c #6D3800",
"__	c #6E3801",
":_	c #693600",
"<_	c #663500",
"[_	c #5D3301",
"}_	c #2E2700",
"|_	c #2D2700",
"1_	c #2F2900",
"2_	c #603701",
"3_	c #6F4002",
"4_	c #7F4805",
"5_	c #864B07",
"6_	c #7E4805",
"7_	c #764504",
"8_	c #724505",
"9_	c #6A4204",
"0_	c #4B3601",
"a_	c #513702",
"b_	c #714506",
"c_	c #774708",
"d_	c #7B4707",
"e_	c #7E4807",
"f_	c #834805",
"g_	c #3F2D00",
"h_	c #5D3200",
"i_	c #6B3700",
"j_	c #733A00",
"k_	c #753B00",
"l_	c #723900",
"m_	c #6E3800",
"n_	c #653600",
"o_	c #673700",
"p_	c #6A3800",
"q_	c #814000",
"r_	c #914501",
"s_	c #974701",
"t_	c #964600",
"u_	c #974802",
"v_	c #A65008",
"w_	c #8D4402",
"x_	c #8C4300",
"y_	c #8E4401",
"z_	c #884200",
"A_	c #723B00",
"B_	c #5C3400",
"C_	c #5A3300",
"D_	c #573100",
"E_	c #553100",
"F_	c #5A3200",
"G_	c #5B3200",
"H_	c #543000",
"I_	c #2F2600",
"J_	c #2F2800",
"K_	c #312800",
"L_	c #412E00",
"M_	c #663C01",
"N_	c #7C4606",
"O_	c #794707",
"P_	c #754607",
"Q_	c #653F04",
"R_	c #694104",
"S_	c #724405",
"T_	c #754504",
"U_	c #7C4705",
"V_	c #7F4906",
"W_	c #764404",
"X_	c #603A01",
"Y_	c #4D3100",
"Z_	c #4C2C00",
"`_	c #4E2D00",
" :	c #563000",
".:	c #553000",
"+:	c #503000",
"@:	c #6C3A00",
"#:	c #804100",
"$:	c #8B4501",
"%:	c #8E4601",
"&:	c #944701",
"*:	c #9F4B02",
"=:	c #BA5B0E",
"-:	c #D66C15",
";:	c #CD620B",
">:	c #B55300",
",:	c #B25200",
"':	c #AE5100",
"):	c #AB5101",
"!:	c #A64E01",
"~:	c #9B4A01",
"{:	c #B05201",
"]:	c #B75601",
"^:	c #BA5601",
"/:	c #B85501",
"(:	c #B45401",
"_:	c #B35401",
"::	c #462C00",
"<:	c #452E01",
"[:	c #744712",
"}:	c #7E470E",
"|:	c #824503",
"1:	c #964E04",
"2:	c #924E04",
"3:	c #8C4D05",
"4:	c #7C4704",
"5:	c #6B4102",
"6:	c #473800",
"7:	c #633D01",
"8:	c #804804",
"9:	c #8C4C05",
"0:	c #904C04",
"a:	c #8A4904",
"b:	c #7B4303",
"c:	c #814709",
"d:	c #7C460B",
"e:	c #462E01",
"f:	c #322700",
"g:	c #412B00",
"h:	c #673701",
"i:	c #B75301",
"j:	c #BB5501",
"k:	c #BD5601",
"l:	c #B55301",
"m:	c #A34D01",
"n:	c #A44D01",
"o:	c #A94F01",
"p:	c #AD5000",
"q:	c #B15000",
"r:	c #B25100",
"s:	c #C15A06",
"t:	c #D26714",
"u:	c #C45B07",
"v:	c #B35100",
"w:	c #A74E01",
"x:	c #A84E01",
"y:	c #BC5601",
"z:	c #C15701",
"A:	c #C35801",
"B:	c #C25801",
"C:	c #C05701",
"D:	c #954701",
"E:	c #523000",
"F:	c #563504",
"G:	c #724107",
"H:	c #774206",
"I:	c #904B04",
"J:	c #974F05",
"K:	c #7A4503",
"L:	c #503701",
"M:	c #714302",
"N:	c #844A05",
"O:	c #8F4F05",
"P:	c #964F05",
"Q:	c #9A5005",
"R:	c #7C4303",
"S:	c #73440C",
"T:	c #623E0D",
"U:	c #312700",
"V:	c #3E2A00",
"W:	c #B05301",
"X:	c #B95601",
"Y:	c #BE5801",
"Z:	c #BF5801",
"`:	c #BB5701",
" <	c #AB4F01",
".<	c #9D4B01",
"+<	c #A24D01",
"@<	c #A74F01",
"#<	c #AE5101",
"$<	c #B05200",
"%<	c #B25300",
"&<	c #C05905",
"*<	c #D96B13",
"=<	c #CF6612",
"-<	c #B85401",
";<	c #AF5001",
"><	c #B45300",
",<	c #AF5100",
"'<	c #9A4A01",
")<	c #964901",
"!<	c #924801",
"~<	c #8B4701",
"{<	c #773E01",
"]<	c #7F4102",
"^<	c #613600",
"/<	c #593202",
"(<	c #884A0D",
"_<	c #AA5E19",
":<	c #A75B15",
"<<	c #7D4403",
"[<	c #774101",
"}<	c #6D3E01",
"|<	c #453200",
"1<	c #453800",
"2<	c #5B3801",
"3<	c #8A4A04",
"4<	c #A55811",
"5<	c #AD5D18",
"6<	c #8A4A0B",
"7<	c #5A3401",
"8<	c #332800",
"9<	c #613501",
"0<	c #8C4402",
"a<	c #874201",
"b<	c #854301",
"c<	c #8C4501",
"d<	c #944801",
"e<	c #954800",
"f<	c #994901",
"g<	c #AF5000",
"h<	c #B05000",
"i<	c #AC4F00",
"j<	c #AE5001",
"k<	c #AE5000",
"l<	c #984901",
"m<	c #964800",
"n<	c #8F4601",
"o<	c #874401",
"p<	c #804101",
"q<	c #844201",
"r<	c #7E3F02",
"s<	c #683903",
"t<	c #965213",
"u<	c #AB5B15",
"v<	c #9F550E",
"w<	c #6D3F02",
"x<	c #523601",
"y<	c #864805",
"z<	c #A95D18",
"A<	c #A65C19",
"B<	c #79420A",
"C<	c #6A3901",
"D<	c #753D01",
"E<	c #8B4601",
"F<	c #B45200",
"G<	c #B35201",
"H<	c #B55201",
"I<	c #C05600",
"J<	c #B85300",
"K<	c #B65300",
"L<	c #A04B01",
"M<	c #9D4A01",
"N<	c #964801",
"O<	c #944800",
"P<	c #BA5702",
"Q<	c #7A3D01",
"R<	c #342701",
"S<	c #723E0B",
"T<	c #AA5914",
"U<	c #A75811",
"V<	c #934F0A",
"W<	c #8E4B08",
"X<	c #9F540F",
"Y<	c #AA5810",
"Z<	c #7E450E",
"`<	c #372901",
" [	c #793C00",
".[	c #BB5401",
"+[	c #AB4E01",
"@[	c #974800",
"#[	c #914600",
"$[	c #924600",
"%[	c #934700",
"&[	c #9A4900",
"*[	c #A44C00",
"=[	c #B65200",
"-[	c #B55200",
";[	c #A54C00",
">[	c #9D4A00",
",[	c #9C4A01",
"'[	c #934800",
")[	c #924701",
"![	c #914700",
"~[	c #984800",
"{[	c #683700",
"][	c #492F03",
"^[	c #8C490C",
"/[	c #A55611",
"([	c #9B530E",
"_[	c #884805",
":[	c #7B4302",
"<[	c #97510C",
"[[	c #A95912",
"}[	c #9F5312",
"|[	c #613605",
"1[	c #934702",
"2[	c #AA5002",
"3[	c #934701",
"4[	c #9E4B01",
"5[	c #A14C00",
"6[	c #A64D00",
"7[	c #B75400",
"8[	c #BA5400",
"9[	c #BC5400",
"0[	c #9B4900",
"a[	c #9A4901",
"b[	c #984801",
"c[	c #944700",
"d[	c #9F4A01",
"e[	c #B15101",
"f[	c #D56204",
"g[	c #8C4403",
"h[	c #542F00",
"i[	c #392B05",
"j[	c #AC6631",
"k[	c #A75612",
"l[	c #9B510C",
"m[	c #8C4905",
"n[	c #754001",
"o[	c #6A3C00",
"p[	c #5A3900",
"q[	c #744001",
"r[	c #894804",
"s[	c #944D07",
"t[	c #A6540E",
"u[	c #BD6D34",
"v[	c #442D06",
"w[	c #4B2D00",
"x[	c #824001",
"y[	c #CE5B01",
"z[	c #AF4F00",
"A[	c #9C4901",
"B[	c #974801",
"C[	c #A34B00",
"D[	c #B25000",
"E[	c #B55100",
"F[	c #B75200",
"G[	c #A24B00",
"H[	c #9F4B01",
"I[	c #924700",
"J[	c #9F4A00",
"K[	c #B35000",
"L[	c #C95A01",
"M[	c #6A4118",
"N[	c #BB682D",
"O[	c #A1520C",
"P[	c #643B00",
"Q[	c #8D4906",
"R[	c #9D520D",
"S[	c #B05C1C",
"T[	c #8E5729",
"U[	c #5F3301",
"V[	c #AA5103",
"W[	c #CA5C02",
"X[	c #AA4F01",
"Y[	c #9B4901",
"Z[	c #A04A01",
"`[	c #BE5500",
" }	c #BB5400",
".}	c #B45100",
"+}	c #AA4E00",
"@}	c #964700",
"#}	c #A34C01",
"$}	c #B05101",
"%}	c #CE5F04",
"&}	c #924602",
"*}	c #5D3201",
"=}	c #332700",
"-}	c #3B2C08",
";}	c #B26F3E",
">}	c #AB5918",
",}	c #A1530D",
"'}	c #623B00",
")}	c #573900",
"!}	c #643E02",
"~}	c #613A00",
"{}	c #6E3E00",
"]}	c #864704",
"^}	c #9F520A",
"/}	c #A7530D",
"(}	c #C26F30",
"_}	c #482F06",
":}	c #512E01",
"<}	c #8A4302",
"[}	c #D25E01",
"}}	c #974700",
"|}	c #9A4800",
"1}	c #9F4901",
"2}	c #A34B01",
"3}	c #A94D00",
"4}	c #B75300",
"5}	c #A84D00",
"6}	c #9D4901",
"7}	c #994800",
"8}	c #994900",
"9}	c #A54D01",
"0}	c #D05E01",
"a}	c #763B02",
"b}	c #704519",
"c}	c #C26B2B",
"d}	c #A6540C",
"e}	c #6D3D00",
"f}	c #563901",
"g}	c #603B00",
"h}	c #784102",
"i}	c #904B07",
"j}	c #A2540D",
"k}	c #B66226",
"l}	c #976237",
"m}	c #673601",
"n}	c #AE5203",
"o}	c #C85B03",
"p}	c #AD5001",
"q}	c #A84E00",
"r}	c #B95300",
"s}	c #AD4F00",
"t}	c #AC4D01",
"u}	c #954700",
"v}	c #A94E01",
"w}	c #C35903",
"x}	c #914502",
"y}	c #653501",
"z}	c #3D2D08",
"A}	c #B5723E",
"B}	c #AE5A17",
"C}	c #A5540B",
"D}	c #8D4903",
"E}	c #2F3301",
"F}	c #6C3E00",
"G}	c #814504",
"H}	c #9F520B",
"I}	c #A6530B",
"J}	c #BF6823",
"K}	c #4A3004",
"L}	c #573000",
"M}	c #8F4502",
"N}	c #CA5B01",
"O}	c #A14A01",
"P}	c #9C4801",
"Q}	c #AE4E01",
"R}	c #B24F00",
"S}	c #B04F00",
"T}	c #AC4E00",
"U}	c #AD4E00",
"V}	c #A74C01",
"W}	c #9B4801",
"X}	c #994801",
"Y}	c #964701",
"Z}	c #A64B01",
"`}	c #CB5B01",
" |	c #803F01",
".|	c #6F4312",
"+|	c #C16621",
"@|	c #A5540C",
"#|	c #974F09",
"$|	c #8F4A04",
"%|	c #A6550D",
"&|	c #B86427",
"*|	c #996538",
"=|	c #713901",
"-|	c #A64D02",
";|	c #B95502",
">|	c #974900",
",|	c #AF4F01",
"'|	c #B35200",
")|	c #A64C01",
"!|	c #9C4A00",
"~|	c #B85400",
"{|	c #D16002",
"]|	c #A74D01",
"^|	c #763B00",
"/|	c #3C2D07",
"(|	c #B36D36",
"_|	c #A9550F",
":|	c #A55208",
"<|	c #6B3D00",
"[|	c #693D00",
"}|	c #303301",
"||	c #684102",
"1|	c #673D00",
"2|	c #804403",
"3|	c #A25209",
"4|	c #A05007",
"5|	c #BD6219",
"6|	c #4C3002",
"7|	c #653500",
"8|	c #A54E01",
"9|	c #D76001",
"0|	c #BA5300",
"a|	c #B95400",
"b|	c #AA4F00",
"c|	c #A14B01",
"d|	c #B14F01",
"e|	c #AB4D00",
"f|	c #B85200",
"g|	c #B95200",
"h|	c #B25001",
"i|	c #A94E00",
"j|	c #B75201",
"k|	c #D56101",
"l|	c #6E400B",
"m|	c #BE6117",
"n|	c #A35209",
"o|	c #984E08",
"p|	c #633C00",
"q|	c #5D3D02",
"r|	c #643C00",
"s|	c #924B04",
"t|	c #A55308",
"u|	c #B66020",
"v|	c #986131",
"w|	c #864001",
"x|	c #C45A02",
"y|	c #B15100",
"z|	c #B25201",
"A|	c #BF5500",
"B|	c #C55700",
"C|	c #C45700",
"D|	c #BD5501",
"E|	c #C65800",
"F|	c #C25600",
"G|	c #B05001",
"H|	c #C15600",
"I|	c #C85A00",
"J|	c #C35800",
"K|	c #C55900",
"L|	c #C65900",
"M|	c #C45900",
"N|	c #C35900",
"O|	c #C25800",
"P|	c #C15700",
"Q|	c #C05700",
"R|	c #D76101",
"S|	c #382B03",
"T|	c #A3581D",
"U|	c #9F4E04",
"V|	c #9F4F05",
"W|	c #8E4A03",
"X|	c #6D3E00",
"Y|	c #5C3C01",
"Z|	c #613B00",
"`|	c #884703",
" 1	c #9E5108",
".1	c #BB5F13",
"+1	c #4D3002",
"@1	c #D45F01",
"#1	c #C45800",
"$1	c #C75A00",
"%1	c #C85900",
"&1	c #C95A00",
"*1	c #C95900",
"=1	c #C75800",
"-1	c #C15500",
";1	c #C25500",
">1	c #B75100",
",1	c #BE5400",
"'1	c #C35600",
")1	c #A84D01",
"!1	c #C75900",
"~1	c #BF5600",
"{1	c #D35F02",
"]1	c #6E3E06",
"^1	c #BD5E12",
"/1	c #A15107",
"(1	c #994E06",
"_1	c #7C4301",
":1	c #683D00",
"<1	c #8D511E",
"[1	c #2E2800",
"}1	c #894201",
"|1	c #BB5601",
"11	c #CD5C01",
"21	c #BF5700",
"31	c #C25700",
"41	c #B45101",
"51	c #AA4E01",
"61	c #D45E00",
"71	c #D96001",
"81	c #D55E00",
"91	c #D45D00",
"01	c #CE5B00",
"a1	c #CD5B00",
"b1	c #D15D00",
"c1	c #CE5C00",
"d1	c #C65A00",
"e1	c #C35A00",
"f1	c #D55F01",
"g1	c #6E3900",
"h1	c #362A01",
"i1	c #9E4E07",
"j1	c #9E4D03",
"k1	c #994D04",
"l1	c #8F4A03",
"m1	c #704203",
"n1	c #694002",
"o1	c #653C00",
"p1	c #693E00",
"q1	c #944B02",
"r1	c #8C4802",
"s1	c #A04F03",
"t1	c #B05606",
"u1	c #482D01",
"v1	c #A24B01",
"w1	c #C15800",
"x1	c #CA5B00",
"y1	c #CF5C00",
"z1	c #CB5A00",
"A1	c #CB5B00",
"B1	c #D25C00",
"C1	c #D35D00",
"D1	c #CE5A00",
"E1	c #C95800",
"F1	c #CD5A00",
"G1	c #D25D00",
"H1	c #CC5B00",
"I1	c #683A03",
"J1	c #B45706",
"K1	c #9A4D04",
"L1	c #8D4802",
"M1	c #8B4802",
"N1	c #744101",
"O1	c #683E00",
"P1	c #904A03",
"Q1	c #A34F03",
"R1	c #894707",
"S1	c #7F4001",
"T1	c #D05C00",
"U1	c #D15C00",
"V1	c #D65E00",
"W1	c #D75F00",
"X1	c #DA6001",
"Y1	c #BD5500",
"Z1	c #D25D01",
"`1	c #CB5901",
" 2	c #C45601",
".2	c #C65801",
"+2	c #CD5C00",
"@2	c #D65F01",
"#2	c #753C00",
"$2	c #974A05",
"%2	c #A04E03",
"&2	c #984C04",
"*2	c #7A4705",
"=2	c #734405",
"-2	c #724304",
";2	c #7A4604",
">2	c #984D03",
",2	c #934B05",
"'2	c #A75307",
")2	c #C85B00",
"!2	c #C95B00",
"~2	c #C35700",
"{2	c #CA5900",
"]2	c #CC5900",
"^2	c #CC5A00",
"/2	c #D05D01",
"(2	c #482C00",
"_2	c #623802",
":2	c #AD5508",
"<2	c #9B4E05",
"[2	c #934B04",
"}2	c #904A02",
"|2	c #854B07",
"12	c #5D3B00",
"22	c #172600",
"32	c #764506",
"42	c #693E01",
"52	c #934B03",
"62	c #A44F04",
"72	c #834204",
"82	c #864301",
"92	c #B75401",
"02	c #CF5D00",
"a2	c #C35701",
"b2	c #C85800",
"c2	c #CF5B00",
"d2	c #C55800",
"e2	c #DC6201",
"f2	c #DE6401",
"g2	c #7A3E01",
"h2	c #8B4605",
"i2	c #9D4F05",
"j2	c #994F06",
"k2	c #754002",
"l2	c #6D4102",
"m2	c #693F00",
"n2	c #6A3F00",
"o2	c #924C07",
"p2	c #995009",
"q2	c #A7540C",
"r2	c #9E530D",
"s2	c #AA5001",
"t2	c #D45D01",
"u2	c #D86001",
"v2	c #DD6302",
"w2	c #DB6001",
"x2	c #C55A00",
"y2	c #C05800",
"z2	c #5E3703",
"A2	c #A9560D",
"B2	c #A0520A",
"C2	c #964E08",
"D2	c #874704",
"E2	c #6C4002",
"F2	c #663E02",
"G2	c #6F4102",
"H2	c #7C4302",
"I2	c #9B4F06",
"J2	c #A05006",
"K2	c #9E4E04",
"L2	c #7A3F04",
"M2	c #CC5C00",
"N2	c #DD6502",
"O2	c #DE6301",
"P2	c #C25900",
"Q2	c #CB5D02",
"R2	c #DF7016",
"S2	c #DF6C0C",
"T2	c #CE5D00",
"U2	c #CB5C00",
"V2	c #D15E00",
"W2	c #D15D01",
"X2	c #BB5300",
"Y2	c #BD5400",
"Z2	c #7A4106",
"`2	c #9F530F",
" 3	c #A15512",
".3	c #8C4B08",
"+3	c #864A05",
"@3	c #433800",
"#3	c #7D4703",
"$3	c #794502",
"%3	c #884A09",
"&3	c #A45815",
"*3	c #88490B",
"=3	c #6B3800",
"-3	c #C45701",
";3	c #BA5301",
">3	c #C95C00",
",3	c #CC5D01",
"'3	c #DB6D15",
")3	c #DD7018",
"!3	c #CE6309",
"~3	c #D0630A",
"{3	c #D6670F",
"]3	c #B65100",
"^3	c #523202",
"/3	c #99510F",
"(3	c #A25511",
"_3	c #9B5410",
":3	c #7F4504",
"<3	c #814703",
"[3	c #413800",
"}3	c #3D3700",
"|3	c #844804",
"13	c #8F4C0A",
"23	c #A15410",
"33	c #9A500C",
"43	c #6E3C05",
"53	c #894401",
"63	c #C15601",
"73	c #CF5C01",
"83	c #D26102",
"93	c #DC6C10",
"03	c #D8670E",
"a3	c #B75501",
"b3	c #AC5101",
"c3	c #B15301",
"d3	c #B95702",
"e3	c #C3600C",
"f3	c #C15D06",
"g3	c #CE5E01",
"h3	c #D36101",
"i3	c #DE6B02",
"j3	c #DE6B03",
"k3	c #DD6A03",
"l3	c #D66401",
"m3	c #C75A01",
"n3	c #D85F01",
"o3	c #AC4F01",
"p3	c #6D3A00",
"q3	c #573302",
"r3	c #944E0E",
"s3	c #A15817",
"t3	c #8E4E0D",
"u3	c #764202",
"v3	c #7B4603",
"w3	c #754302",
"x3	c #804709",
"y3	c #A55B18",
"z3	c #965111",
"A3	c #633903",
"B3	c #663600",
"C3	c #AA4D01",
"D3	c #DA5F01",
"E3	c #E06701",
"F3	c #E16A02",
"G3	c #DF6703",
"H3	c #D76302",
"I3	c #C95C01",
"J3	c #B85A0B",
"K3	c #B75C0C",
"L3	c #B15705",
"M3	c #AF5301",
"N3	c #AD5201",
"O3	c #A95001",
"P3	c #AE5201",
"Q3	c #B25401",
"R3	c #B55501",
"S3	c #BA5D09",
"T3	c #C06312",
"U3	c #C35F0C",
"V3	c #CF5E01",
"W3	c #DC6502",
"X3	c #E16902",
"Y3	c #E36B02",
"Z3	c #E06601",
"`3	c #D95F01",
" 4	c #9A4701",
".4	c #422C00",
"+4	c #7A4409",
"@4	c #9F5615",
"#4	c #9D5716",
"$4	c #734002",
"%4	c #804803",
"&4	c #724302",
"*4	c #5C3B00",
"=4	c #824904",
"-4	c #754202",
";4	c #904F0F",
">4	c #A35817",
",4	c #8B4B0D",
"'4	c #533202",
")4	c #A64C00",
"!4	c #BC5401",
"~4	c #DC6101",
"{4	c #DF6902",
"]4	c #DF6C03",
"^4	c #E16C03",
"/4	c #DE6902",
"(4	c #CE5F02",
"_4	c #CA640E",
":4	c #CB620B",
"<4	c #B85600",
"[4	c #AF5201",
"}4	c #B35301",
"|4	c #633800",
"14	c #6A3A00",
"24	c #713D01",
"34	c #763F01",
"44	c #793F01",
"54	c #7B4001",
"64	c #713C01",
"74	c #693801",
"84	c #773D00",
"94	c #793D01",
"04	c #8A4401",
"a4	c #884301",
"b4	c #AC5001",
"c4	c #A44B01",
"d4	c #854100",
"e4	c #823F00",
"f4	c #6F3B00",
"g4	c #543200",
"h4	c #623903",
"i4	c #774409",
"j4	c #96510E",
"k4	c #8E4E09",
"l4	c #7F4704",
"m4	c #6C3F00",
"n4	c #663E01",
"o4	c #673E01",
"p4	c #864A07",
"q4	c #754207",
"r4	c #503201",
"s4	c #593200",
"t4	c #7D3F01",
"u4	c #834001",
"v4	c #874101",
"w4	c #994601",
"x4	c #A44B00",
"y4	c #B15201",
"z4	c #AE4F01",
"A4	c #9E4901",
"B4	c #994700",
"C4	c #964601",
"D4	c #8B4301",
"E4	c #793E01",
"F4	c #743D01",
"G4	c #703C01",
"H4	c #6C3B00",
"I4	c #663900",
"J4	c #7A4001",
"K4	c #7C4101",
"L4	c #7A3F00",
"M4	c #864201",
"N4	c #B95401",
"O4	c #9F4801",
"P4	c #8A4201",
"Q4	c #7D4608",
"R4	c #814808",
"S4	c #854906",
"T4	c #764403",
"U4	c #182600",
"V4	c #814805",
"W4	c #94510B",
"X4	c #95510E",
"Y4	c #7A450A",
"Z4	c #603803",
"`4	c #7C3F01",
" 5	c #914500",
".5	c #AD4F01",
"+5	c #914702",
"@5	c #874301",
"#5	c #814001",
"$5	c #723B01",
"%5	c #7E4101",
"&5	c #7B4101",
"*5	c #733E01",
"=5	c #5D3500",
"-5	c #402C01",
";5	c #6A3D04",
">5	c #7E4704",
",5	c #704202",
"'5	c #5E3D00",
")5	c #784603",
"!5	c #794704",
"~5	c #6F4004",
"{5	c #513301",
"]5	c #412E01",
"^5	c #503100",
"/5	c #563101",
"(5	c #563100",
"_5	c #553101",
":5	c #4C3101",
"<5	c #774704",
"[5	c #764503",
"}5	c #383101",
"|5	c #2C2C00",
"15	c #7C4603",
"25	c #683C04",
"35	c #432E01",
"45	c #492C00",
"55	c #583200",
"65	c #543201",
"75	c #523200",
"85	c #4B2F00",
"95	c #613400",
"05	c #7B3D00",
"a5	c #8A4400",
"b5	c #C95D01",
"c5	c #D05F01",
"d5	c #D06001",
"e5	c #DA6403",
"f5	c #C25A03",
"g5	c #884201",
"h5	c #884101",
"i5	c #A44C02",
"j5	c #A64D01",
"k5	c #713900",
"l5	c #3D2F00",
"m5	c #4E3501",
"n5	c #4E3401",
"o5	c #352A01",
"p5	c #6E3901",
"q5	c #8B4401",
"r5	c #904501",
"s5	c #C66107",
"t5	c #DC6603",
"u5	c #D56001",
"v5	c #D25F01",
"w5	c #C95B01",
"x5	c #773C00",
"y5	c #673600",
"z5	c #C05801",
"A5	c #C85B01",
"B5	c #CA5C01",
"C5	c #CB5D01",
"D5	c #D06204",
"E5	c #864101",
"F5	c #834101",
"G5	c #9E4A01",
"H5	c #342C01",
"I5	c #4B3201",
"J5	c #573801",
"K5	c #593901",
"L5	c #513601",
"M5	c #4F3300",
"N5	c #743B01",
"O5	c #954702",
"P5	c #CC5E02",
"Q5	c #CA5E02",
"R5	c #C55C01",
"S5	c #C35B01",
"T5	c #C35A01",
"U5	c #703A00",
"V5	c #422B01",
"W5	c #7A3F01",
"X5	c #B45301",
"Y5	c #BE5600",
"Z5	c #D15E01",
"`5	c #D86101",
" 6	c #D65F00",
".6	c #D35F01",
"+6	c #D36001",
"@6	c #D66303",
"#6	c #CF5F03",
"$6	c #CA5E07",
"%6	c #D3640C",
"&6	c #DC6913",
"*6	c #D25E04",
"=6	c #BA5602",
"-6	c #3F2B02",
";6	c #6D3F12",
">6	c #714211",
",6	c #6D3D0A",
"'6	c #613804",
")6	c #5A3501",
"!6	c #563501",
"~6	c #513403",
"{6	c #4D3101",
"]6	c #4B3101",
"^6	c #483001",
"/6	c #553703",
"(6	c #5C3B06",
"_6	c #5B3B07",
":6	c #543804",
"<6	c #503602",
"[6	c #4C3501",
"}6	c #433201",
"|6	c #4A3502",
"16	c #583803",
"26	c #5B3A04",
"36	c #603C07",
"46	c #5F3B08",
"56	c #533503",
"66	c #543502",
"76	c #543402",
"86	c #4F3201",
"96	c #523302",
"06	c #5B3806",
"a6	c #653D0C",
"b6	c #754617",
"c6	c #412D02",
"d6	c #B95501",
"e6	c #D05D00",
"f6	c #CD5B01",
"g6	c #DC6204",
"h6	c #D45F03",
"i6	c #C65902",
"j6	c #D26405",
"k6	c #D96000",
"l6	c #BD5700",
"m6	c #B65301",
"n6	c #432B01",
"o6	c #D35E01",
"p6	c #D85F00",
"q6	c #D86000",
"r6	c #D86201",
"s6	c #DC6705",
"t6	c #CE6205",
"u6	c #BC5501",
"v6	c #BF5602",
"w6	c #D86104",
"x6	c #D86002",
"y6	c #CC5B01",
"z6	c #57370C",
"A6	c #633D0F",
"B6	c #583707",
"C6	c #4F3303",
"D6	c #4A3001",
"E6	c #4D3202",
"F6	c #4C3302",
"G6	c #4C3202",
"H6	c #503404",
"I6	c #5A3907",
"J6	c #563704",
"K6	c #523603",
"L6	c #533702",
"M6	c #4E3502",
"N6	c #483301",
"O6	c #413101",
"P6	c #3A2D01",
"Q6	c #463201",
"R6	c #4A3401",
"S6	c #4A3301",
"T6	c #4C3503",
"U6	c #533805",
"V6	c #4D3302",
"W6	c #442E01",
"X6	c #452F01",
"Y6	c #472F01",
"Z6	c #4A3102",
"`6	c #523301",
" 7	c #5A3604",
".7	c #643A09",
"+7	c #673E0E",
"@7	c #5F390D",
"#7	c #372801",
"$7	c #D45F06",
"%7	c #DA6812",
"&7	c #C95F08",
"*7	c #C35B05",
"=7	c #BD5702",
"-7	c #DB6504",
";7	c #D76201",
">7	c #D96100",
",7	c #DB6301",
"'7	c #814303",
")7	c #C15902",
"!7	c #CB5900",
"~7	c #B95500",
"{7	c #BB5500",
"]7	c #D56003",
"^7	c #CD5C05",
"/7	c #C75C07",
"(7	c #AE5002",
"_7	c #BA5500",
":7	c #C65901",
"<7	c #824201",
"[7	c #4B2E02",
"}7	c #A0551A",
"|7	c #BE6423",
"17	c #C96B2C",
"27	c #C36623",
"37	c #BB5E15",
"47	c #B0580D",
"57	c #AB5A13",
"67	c #A85F1C",
"77	c #96530F",
"87	c #93510C",
"97	c #9B5610",
"07	c #93510A",
"a7	c #90510A",
"b7	c #8E510F",
"c7	c #8D5212",
"d7	c #7D4B0B",
"e7	c #674102",
"f7	c #5F3F01",
"g7	c #604002",
"h7	c #5F3E02",
"i7	c #784807",
"j7	c #874F0D",
"k7	c #8E5212",
"l7	c #905415",
"m7	c #905313",
"n7	c #945312",
"o7	c #975613",
"p7	c #985613",
"q7	c #96510B",
"r7	c #9F540D",
"s7	c #9F520C",
"t7	c #A95714",
"u7	c #B96425",
"v7	c #C36B30",
"w7	c #C26A2B",
"x7	c #89480D",
"y7	c #613701",
"z7	c #773D01",
"A7	c #B45201",
"B7	c #CF5B01",
"C7	c #BC5600",
"D7	c #BC5500",
"E7	c #BD5600",
"F7	c #CB5A01",
"G7	c #BF5701",
"H7	c #814202",
"I7	c #CD5A01",
"J7	c #B75500",
"K7	c #C25901",
"L7	c #D75F01",
"M7	c #DB6102",
"N7	c #A64E02",
"O7	c #633802",
"P7	c #96541F",
"Q7	c #BA672C",
"R7	c #B2642C",
"S7	c #A75A1D",
"T7	c #9A500F",
"U7	c #944E0B",
"V7	c #924E0A",
"W7	c #92510F",
"X7	c #965512",
"Y7	c #925312",
"Z7	c #915212",
"`7	c #905416",
" 8	c #925515",
".8	c #8F5311",
"+8	c #824B0A",
"@8	c #714405",
"#8	c #5D3C01",
"$8	c #634002",
"%8	c #5F3F02",
"&8	c #6A4302",
"*8	c #7F4C0B",
"=8	c #8F5412",
"-8	c #905210",
";8	c #91510A",
">8	c #90500B",
",8	c #945210",
"'8	c #8E4F0B",
")8	c #935211",
"!8	c #A35D1D",
"~8	c #A15510",
"{8	c #B25B16",
"]8	c #BA6426",
"^8	c #BF672B",
"/8	c #AE5D22",
"(8	c #7E4412",
"_8	c #8D4600",
":8	c #B65401",
"<8	c #BF5805",
"[8	c #D9650F",
"}8	c #D96309",
"|8	c #DE6503",
"18	c #D35E00",
"28	c #CF5D01",
"38	c #954903",
"48	c #804202",
"58	c #6D3804",
"68	c #BD5A10",
"78	c #BD5B14",
"88	c #B75912",
"98	c #AF550D",
"08	c #AB550B",
"a8	c #9C5009",
"b8	c #914E09",
"c8	c #884C09",
"d8	c #774503",
"e8	c #744403",
"f8	c #6C4102",
"g8	c #784604",
"h8	c #774402",
"i8	c #8D4C07",
"j8	c #984F08",
"k8	c #AC5916",
"l8	c #B35C1A",
"m8	c #AE5816",
"n8	c #B95B13",
"o8	c #703B03",
"p8	c #322800",
"q8	c #A04B00",
"r8	c #C85C01",
"s8	c #924802",
"t8	c #9F4E02",
"u8	c #C45A01",
"v8	c #C35901",
"w8	c #BA5401",
"x8	c #A04A00",
"y8	c #472D01",
"z8	c #8B4708",
"A8	c #AF5714",
"B8	c #B65D1C",
"C8	c #B95F1E",
"D8	c #AB5814",
"E8	c #A2530C",
"F8	c #994E08",
"G8	c #8C4C08",
"H8	c #7C4806",
"I8	c #6A4003",
"J8	c #674003",
"K8	c #653F03",
"L8	c #653F02",
"M8	c #4F3900",
"N8	c #5B3C01",
"O8	c #663F02",
"P8	c #6B4002",
"Q8	c #814A06",
"R8	c #784504",
"S8	c #7D4805",
"T8	c #90500D",
"U8	c #99510B",
"V8	c #B0560C",
"W8	c #B45710",
"X8	c #BC5B16",
"Y8	c #C05D16",
"Z8	c #AE5512",
"`8	c #623503",
" 9	c #9A4801",
".9	c #C95901",
"+9	c #512E00",
"@9	c #793C01",
"#9	c #954601",
"$9	c #6D3900",
"%9	c #663502",
"&9	c #BA5A0F",
"*9	c #AA530D",
"=9	c #9B4F09",
"-9	c #894A06",
";9	c #7D4604",
">9	c #603D00",
",9	c #523A00",
"'9	c #934D08",
")9	c #964D08",
"!9	c #8E4907",
"~9	c #984C09",
"{9	c #BF5F15",
"]9	c #6B3A03",
"^9	c #B85500",
"/9	c #8A4301",
"(9	c #643500",
"_9	c #6D3801",
":9	c #C75B01",
"<9	c #A34C00",
"[9	c #CA5A00",
"}9	c #914A0A",
"|9	c #AF5611",
"19	c #964C09",
"29	c #944D09",
"39	c #994F09",
"49	c #4C3900",
"59	c #7D4504",
"69	c #8D4B07",
"79	c #9F510A",
"89	c #9C4F09",
"99	c #A1500A",
"09	c #AF550E",
"a9	c #AB520B",
"b9	c #3A2B00",
"c9	c #A94D01",
"d9	c #BE5700",
"e9	c #633400",
"f9	c #8B4602",
"g9	c #A54D02",
"h9	c #7A3B01",
"i9	c #733B04",
"j9	c #B95D1A",
"k9	c #A35413",
"l9	c #934B07",
"m9	c #974E09",
"n9	c #954E09",
"o9	c #8E4D08",
"p9	c #884A06",
"q9	c #563B00",
"r9	c #804703",
"s9	c #8C4A06",
"t9	c #8F4B07",
"u9	c #8A4805",
"v9	c #B65D18",
"w9	c #6E3B05",
"x9	c #BF5601",
"y9	c #C05601",
"z9	c #BF5501",
"A9	c #A84C00",
"B9	c #823F01",
"C9	c #904401",
"D9	c #763C00",
"E9	c #7C3D01",
"F9	c #B35300",
"G9	c #8D490B",
"H9	c #A85511",
"I9	c #8B4705",
"J9	c #8E4A06",
"K9	c #884906",
"L9	c #7F4603",
"M9	c #794402",
"N9	c #4D3900",
"O9	c #583C00",
"P9	c #7B4604",
"Q9	c #8F4D08",
"R9	c #964F09",
"S9	c #954D08",
"T9	c #A85514",
"U9	c #AE5614",
"V9	c #623401",
"W9	c #814101",
"X9	c #8F4301",
"Y9	c #713A01",
"Z9	c #733A01",
"`9	c #A34E02",
" 0	c #C25701",
".0	c #D05E00",
"+0	c #BB5600",
"@0	c #783F08",
"#0	c #B15D22",
"$0	c #BC6627",
"%0	c #C06620",
"&0	c #A4530D",
"*0	c #8B4B07",
"=0	c #814905",
"-0	c #764402",
";0	c #7E4703",
">0	c #854904",
",0	c #884905",
"'0	c #954D06",
")0	c #A5530B",
"!0	c #BA6422",
"~0	c #BA6729",
"{0	c #AA5A1D",
"]0	c #743F06",
"^0	c #5F3500",
"/0	c #CF5E00",
"(0	c #D46001",
"_0	c #D45E01",
":0	c #C75901",
"<0	c #874001",
"[0	c #9D4801",
"}0	c #AD4E01",
"|0	c #904301",
"10	c #7A3C00",
"20	c #D66001",
"30	c #D25E00",
"40	c #B65400",
"50	c #89490E",
"60	c #AA5B1D",
"70	c #AE5E22",
"80	c #A75814",
"90	c #9C4F08",
"00	c #894905",
"a0	c #834804",
"b0	c #794603",
"c0	c #6E4201",
"d0	c #593B01",
"e0	c #7A4603",
"f0	c #994F0A",
"g0	c #A3530D",
"h0	c #B35E1B",
"i0	c #B36021",
"j0	c #A8571C",
"k0	c #753B01",
"l0	c #D45F00",
"m0	c #D35F00",
"n0	c #D55F00",
"o0	c #833F01",
"p0	c #994701",
"q0	c #AB4D01",
"r0	c #CB5E03",
"s0	c #CC5D00",
"t0	c #CD5D00",
"u0	c #BA5600",
"v0	c #C95E02",
"w0	c #583303",
"x0	c #874B18",
"y0	c #93551F",
"z0	c #975416",
"A0	c #9B500C",
"B0	c #944E0A",
"C0	c #854A07",
"D0	c #854A05",
"E0	c #814906",
"F0	c #7C4804",
"G0	c #684201",
"H0	c #774401",
"I0	c #7B4502",
"J0	c #824804",
"K0	c #964E07",
"L0	c #9D5009",
"M0	c #A5571A",
"N0	c #A65D24",
"O0	c #7B4511",
"P0	c #653A04",
"Q0	c #7C4000",
"R0	c #B65501",
"S0	c #CE5D01",
"T0	c #CD5D01",
"U0	c #CD5E01",
"V0	c #CA5C00",
"W0	c #B15001",
"X0	c #C05500",
"Y0	c #9E4D02",
"Z0	c #BC5300",
"`0	c #CE5E00",
" a	c #C55A01",
".a	c #AA5101",
"+a	c #753E01",
"@a	c #77420A",
"#a	c #9C5720",
"$a	c #B66528",
"%a	c #AF5A16",
"&a	c #9F5108",
"*a	c #8C4B05",
"=a	c #804704",
"-a	c #6A4202",
";a	c #7B4804",
">a	c #7F4804",
",a	c #834906",
"'a	c #854A06",
")a	c #99500B",
"!a	c #A2530E",
"~a	c #AE5F1F",
"{a	c #A55D24",
"]a	c #8B4C19",
"^a	c #7F3F01",
"/a	c #C15901",
"(a	c #B25101",
"_a	c #C15A02",
":a	c #9B4E03",
"<a	c #CF5F01",
"[a	c #B65601",
"}a	c #B15401",
"|a	c #422C01",
"1a	c #573502",
"2a	c #593601",
"3a	c #603801",
"4a	c #714004",
"5a	c #8B4D0A",
"6a	c #8C4E0A",
"7a	c #8F500D",
"8a	c #804907",
"9a	c #7D4905",
"0a	c #7C4805",
"aa	c #734604",
"ba	c #563A01",
"ca	c #754604",
"da	c #7B4805",
"ea	c #7D4804",
"fa	c #8D4D07",
"ga	c #8B4D09",
"ha	c #884B08",
"ia	c #8F4E0A",
"ja	c #8B4D08",
"ka	c #5D3702",
"la	c #5B3601",
"ma	c #603804",
"na	c #3B2B01",
"oa	c #603600",
"pa	c #9A4B02",
"qa	c #AC5201",
"ra	c #B45501",
"sa	c #CB5C01",
"ta	c #CC5C01",
"ua	c #603501",
"va	c #763D02",
"wa	c #B85601",
"xa	c #BD5701",
"ya	c #B95701",
"za	c #AE5301",
"Aa	c #BC5801",
"Ba	c #964A02",
"Ca	c #422D01",
"Da	c #5B3606",
"Ea	c #6E3E08",
"Fa	c #965109",
"Ga	c #96520B",
"Ha	c #8F4E09",
"Ia	c #8E4E08",
"Ja	c #914F08",
"Ka	c #734504",
"La	c #834A07",
"Ma	c #92510C",
"Na	c #92520E",
"Oa	c #91500C",
"Pa	c #92500B",
"Qa	c #6E3E03",
"Ra	c #4C3003",
"Sa	c #6F3A01",
"Ta	c #B95600",
"Ua	c #C05A01",
"Va	c #BC5701",
"Wa	c #BA5701",
"Xa	c #B55400",
"Ya	c #B15200",
"Za	c #CC5F02",
"`a	c #7F4201",
" b	c #683801",
".b	c #A75002",
"+b	c #AB5201",
"@b	c #8D4801",
"#b	c #733D00",
"$b	c #553501",
"%b	c #583801",
"&b	c #5C3A02",
"*b	c #5D3B02",
"=b	c #5A3A01",
"-b	c #5B3901",
";b	c #603B02",
">b	c #673E03",
",b	c #653D02",
"'b	c #5C3802",
")b	c #4B3200",
"!b	c #473100",
"~b	c #422F00",
"{b	c #452F00",
"]b	c #402F00",
"^b	c #693A00",
"/b	c #934901",
"(b	c #914801",
"_b	c #864501",
":b	c #BB5801",
"<b	c #C45901",
"[b	c #C55B01",
"}b	c #894501",
"|b	c #8C4601",
"1b	c #5D3600",
"2b	c #4C2F00",
"3b	c #392D01",
"4b	c #463000",
"5b	c #4E3300",
"6b	c #6E4004",
"7b	c #704204",
"8b	c #6C4103",
"9b	c #5A3A02",
"0b	c #4B3100",
"ab	c #5E3500",
"bb	c #9B4D02",
"cb	c #8C4701",
"db	c #884601",
"eb	c #844401",
"fb	c #102300",
"gb	c #2B2C00",
"hb	c #372B00",
"ib	c #3D2C00",
"jb	c #673801",
"kb	c #623600",
"lb	c #533201",
"mb	c #513201",
"nb	c #533301",
"ob	c #553401",
"pb	c #543301",
"qb	c #252700",
"rb	c #362A00",
"sb	c #482F00",
"tb	c #583301",
"ub	c #613601",
"vb	c #643701",
"wb	c #653601",
"xb	c #643501",
"yb	c #693A02",
"zb	c #392B00",
"Ab	c #3A2D00",
"Bb	c #3D2E00",
"Cb	c #2D2701",
"Db	c #3E2C01",
"Eb	c #6A3E03",
"Fb	c #533402",
"Gb	c #4C3201",
"Hb	c #493001",
"Ib	c #553502",
"Jb	c #593803",
"Kb	c #673D04",
"Lb	c #2A2801",
"Mb	c #3C2F00",
"Nb	c #463100",
"Ob	c #433000",
"Pb	c #3F2E00",
"Qb	c #573202",
"Rb	c #1F2501",
"Sb	c #292700",
"Tb	c #573702",
"Ub	c #2B2700",
"Vb	c #212500",
"Wb	c #3D2D01",
"Xb	c #422E01",
"Yb	c #563803",
"Zb	c #4D3403",
"`b	c #793F02",
" c	c #B65703",
".c	c #A85201",
"+c	c #8A4802",
"@c	c #954C02",
"#c	c #944B01",
"$c	c #914901",
"%c	c #784202",
"&c	c #523608",
"*c	c #944D06",
"=c	c #A75303",
"-c	c #8E4B04",
";c	c #784403",
">c	c #8A4A05",
",c	c #A35002",
"'c	c #643E0C",
")c	c #282801",
"!c	c #6E3D01",
"~c	c #994C01",
"{c	c #8D4902",
"]c	c #9F4E01",
"^c	c #784002",
"/c	c #5E3601",
"(c	c #804301",
"_c	c #743E01",
":c	c #633801",
"<c	c #6C3D01",
"[c	c #6B3E01",
"}c	c #473307",
"|c	c #6E3F05",
"1c	c #964B02",
"2c	c #974E03",
"3c	c #7E4705",
"4c	c #734202",
"5c	c #573A01",
"6c	c #7C4502",
"7c	c #8C4B04",
"8c	c #9D5004",
"9c	c #844605",
"0c	c #4D3306",
"ac	c #272800",
"bc	c #5F3B00",
"cc	c #633901",
"dc	c #6B3C01",
"ec	c #7C4001",
"fc	c #9D4E02",
"gc	c #B75804",
"hc	c #6D3C04",
"ic	c #7D4506",
"jc	c #8B4902",
"kc	c #974D02",
"lc	c #A65303",
"mc	c #AB5602",
"nc	c #9F5002",
"oc	c #9C4F02",
"pc	c #9D4F02",
"qc	c #994F02",
"rc	c #984E02",
"sc	c #964D02",
"tc	c #8C4A02",
"uc	c #874802",
"vc	c #8A4A02",
"wc	c #874902",
"xc	c #814702",
"yc	c #7E4602",
"zc	c #70420E",
"Ac	c #844907",
"Bc	c #653D03",
"Cc	c #704005",
"Dc	c #8C4F15",
"Ec	c #372E02",
"Fc	c #7A4502",
"Gc	c #834902",
"Hc	c #7C4501",
"Ic	c #814802",
"Jc	c #724201",
"Kc	c #8C4B02",
"Lc	c #954D02",
"Mc	c #994E02",
"Nc	c #994D01",
"Oc	c #9C4E01",
"Pc	c #9F4F01",
"Qc	c #A04F01",
"Rc	c #A85302",
"Sc	c #A65302",
"Tc	c #A15102",
"Uc	c #9A4D02",
"Vc	c #814403",
"Wc	c #AE5402",
"Xc	c #B25501",
"Yc	c #B55601",
"Zc	c #AA5302",
"`c	c #663701",
" d	c #884602",
".d	c #A25102",
"+d	c #AA5402",
"@d	c #AF5502",
"#d	c #AB5302",
"$d	c #A75202",
"%d	c #9B4F02",
"&d	c #9A4F02",
"*d	c #984F02",
"=d	c #8B4A02",
"-d	c #754301",
";d	c #7D4602",
">d	c #804702",
",d	c #68400F",
"'d	c #8F4E0E",
")d	c #834605",
"!d	c #724204",
"~d	c #673E02",
"{d	c #5E3B01",
"]d	c #804603",
"^d	c #914B02",
"/d	c #924E08",
"(d	c #6C410D",
"_d	c #834702",
":d	c #824702",
"<d	c #884A02",
"[d	c #844702",
"}d	c #804602",
"|d	c #884802",
"1d	c #944D02",
"2d	c #9C5002",
"3d	c #9B5002",
"4d	c #9E5102",
"5d	c #A65202",
"6d	c #A75403",
"7d	c #A95502",
"8d	c #9F5103",
"9d	c #513202",
"0d	c #B65702",
"ad	c #AF5401",
"bd	c #AD5301",
"cd	c #5F3502",
"dd	c #713F03",
"ed	c #814503",
"fd	c #894802",
"gd	c #8C4901",
"hd	c #8D4901",
"id	c #6A3E09",
"jd	c #7D4811",
"kd	c #362D01",
"ld	c #8A4801",
"md	c #904A01",
"nd	c #7C4201",
"od	c #7A4203",
"pd	c #A95101",
"qd	c #774102",
"rd	c #974C02",
"sd	c #924A02",
"td	c #8C4902",
"ud	c #7F4501",
"vd	c #2F2C00",
"wd	c #76440B",
"xd	c #633A00",
"yd	c #6B3E09",
"zd	c #904B02",
"Ad	c #683D01",
"Bd	c #A95201",
"Cd	c #794202",
"Dd	c #784502",
"Ed	c #764401",
"Fd	c #754401",
"Gd	c #653C05",
"Hd	c #78460D",
"Id	c #352C01",
"Jd	c #713D02",
"Kd	c #8F4903",
"Ld	c #A75001",
"Md	c #A54F01",
"Nd	c #7A3F02",
"Od	c #7B4103",
"Pd	c #5D3908",
"Qd	c #74440A",
"Rd	c #7D4302",
"Sd	c #5D3502",
"Td	c #B05401",
"Ud	c #964C01",
"Vd	c #B75701",
"Wd	c #B95801",
"Xd	c #A05003",
"Yd	c #643901",
"Zd	c #6D4201",
"`d	c #5E3903",
" e	c #6C4105",
".e	c #6A3F02",
"+e	c #683D05",
"@e	c #663901",
"#e	c #B05705",
"$e	c #C65B02",
"%e	c #814301",
"&e	c #C55B02",
"*e	c #9C4F05",
"=e	c #6C3C01",
"-e	c #573604",
";e	c #764406",
">e	c #6E4205",
",e	c #703F01",
"'e	c #5B3402",
")e	c #BA5C03",
"!e	c #814501",
"~e	c #7D4501",
"{e	c #A35001",
"]e	c #603C01",
"^e	c #603900",
"/e	c #894502",
"(e	c #623901",
"_e	c #543801",
":e	c #AE5602",
"<e	c #8C4801",
"[e	c #7C4402",
"}e	c #493200",
"|e	c #3C2E00",
"1e	c #2C2700",
"2e	c #683A00",
"3e	c #7E4301",
"4e	c #7B4201",
"5e	c #733D01",
"6e	c #4A2F00",
"7e	c #4C3200",
"8e	c #6A3D01",
"9e	c #382B05",
"0e	c #392A03",
"ae	c #312A01",
"be	c #332B04",
"ce	c #372A04",
"de	c #3A2C00",
"ee	c #182200",
"fe	c #362B00",
"ge	c #573E1D",
"he	c #AA6E47",
"ie	c #A16034",
"je	c #9C571B",
"ke	c #9F5104",
"le	c #7C4204",
"me	c #292600",
"ne	c #4A3000",
"oe	c #3D2D05",
"pe	c #683F0C",
"qe	c #6C400B",
"re	c #6D410C",
"se	c #6D420B",
"te	c #6F430E",
"ue	c #493105",
"ve	c #1C2300",
"we	c #3C2C00",
"xe	c #70420B",
"ye	c #6C400D",
"ze	c #6A3F0C",
"Ae	c #693D08",
"Be	c #653E0D",
"Ce	c #3F2D05",
"De	c #412D00",
"Ee	c #874402",
"Fe	c #994B02",
"Ge	c #9F5003",
"He	c #9D561C",
"Ie	c #A46942",
"Je	c #A66943",
"Ke	c #8C5B38",
"Le	c #834B13",
"Me	c #814302",
"Ne	c #6A3A02",
"Oe	c #4A3207",
"Pe	c #573607",
"Qe	c #5B3706",
"Re	c #5B3A09",
"Se	c #5E3A08",
"Te	c #553505",
"Ue	c #312901",
"Ve	c #2B2600",
"We	c #3E2D03",
"Xe	c #5F3B0A",
"Ye	c #5E3A09",
"Ze	c #5C3908",
"`e	c #5B390A",
" f	c #282702",
".f	c #3F2C01",
"+f	c #7B4305",
"@f	c #844703",
"#f	c #854A08",
"$f	c #824E21",
"%f	c #8B5B38",
"&f	c #A96842",
"*f	c #B2602A",
"=f	c #AA591C",
"-f	c #AD560E",
";f	c #BA5801",
">f	c #BF5901",
",f	c #7E4202",
"'f	c #783E01",
")f	c #563500",
"!f	c #232400",
"~f	c #493000",
"{f	c #844502",
"]f	c #5F3900",
"^f	c #432D01",
"/f	c #613602",
"(f	c #6C3D03",
"_f	c #794204",
":f	c #784204",
"<f	c #744104",
"[f	c #784303",
"}f	c #673D01",
"|f	c #6F3F01",
"1f	c #6F3F03",
"2f	c #744103",
"3f	c #754103",
"4f	c #764002",
"5f	c #713F04",
"6f	c #653701",
"7f	c #633601",
"8f	c #824502",
"9f	c #834502",
"0f	c #623800",
"af	c #533400",
"bf	c #683901",
"cf	c #6E3B01",
"df	c #B0570B",
"ef	c #A85A23",
"ff	c #AC5D29",
"gf	c #B46331",
"hf	c #B95D12",
"if	c #C75D02",
"jf	c #C05901",
"kf	c #944A02",
"lf	c #392901",
"mf	c #4C2F01",
"nf	c #613B08",
"of	c #6E3E05",
"pf	c #724004",
"qf	c #724106",
"rf	c #754307",
"sf	c #6C3E01",
"tf	c #734104",
"uf	c #764509",
"vf	c #734207",
"wf	c #744206",
"xf	c #754106",
"yf	c #533303",
"zf	c #252500",
"Af	c #503200",
"Bf	c #A75102",
"Cf	c #C15B02",
"Df	c #C25B01",
"Ef	c #AF5C1E",
"Ff	c #BE6931",
"Gf	c #AD602C",
"Hf	c #864604",
"If	c #874701",
"Jf	c #8F4901",
"Kf	c #894701",
"Lf	c #9B4E02",
"Mf	c #A65203",
"Nf	c #A14F02",
"Of	c #AC5302",
"Pf	c #2C2801",
"Qf	c #824601",
"Rf	c #503303",
"Sf	c #673903",
"Tf	c #A14E05",
"Uf	c #A95103",
"Vf	c #9C4E03",
"Wf	c #964D04",
"Xf	c #563903",
"Yf	c #804502",
"Zf	c #8E4A02",
"`f	c #AC4F02",
" g	c #A95105",
".g	c #773E03",
"+g	c #A65101",
"@g	c #8A4603",
"#g	c #874604",
"$g	c #8C4805",
"%g	c #904802",
"&g	c #B25301",
"*g	c #AE5501",
"=g	c #AB5301",
"-g	c #794102",
";g	c #4A3101",
">g	c #774003",
",g	c #A74F04",
"'g	c #9D4C02",
")g	c #8F4A02",
"!g	c #4A3402",
"~g	c #212501",
"{g	c #6F3F00",
"]g	c #8C4A05",
"^g	c #914C05",
"/g	c #964D05",
"(g	c #9E4F04",
"_g	c #A24F04",
":g	c #8C4705",
"<g	c #513302",
"[g	c #3E2E02",
"}g	c #2A2700",
"|g	c #854602",
"1g	c #974C01",
"2g	c #AC5402",
"3g	c #A95202",
"4g	c #AB5303",
"5g	c #B25703",
"6g	c #984D01",
"7g	c #8A4704",
"8g	c #884606",
"9g	c #884705",
"0g	c #714000",
"ag	c #854701",
"bg	c #784302",
"cg	c #914E18",
"dg	c #A85416",
"eg	c #B2560B",
"fg	c #A24E04",
"gg	c #854502",
"hg	c #6B4204",
"ig	c #252501",
"jg	c #A84E02",
"kg	c #BE5809",
"lg	c #AD530F",
"mg	c #985017",
"ng	c #553402",
"og	c #7D4201",
"pg	c #9B4D01",
"qg	c #653C0B",
"rg	c #964C10",
"sg	c #B5550C",
"tg	c #C15705",
"ug	c #513701",
"vg	c #694204",
"wg	c #914902",
"xg	c #AB5105",
"yg	c #B3550A",
"zg	c #9A5013",
"Ag	c #7E4611",
"Bg	c #824602",
"Cg	c #864701",
"Dg	c #603705",
"Eg	c #AE5E2D",
"Fg	c #9B4D14",
"Gg	c #924804",
"Hg	c #6B4305",
"Ig	c #644101",
"Jg	c #272601",
"Kg	c #6E3D00",
"Lg	c #753F01",
"Mg	c #884502",
"Ng	c #984B04",
"Og	c #A14D0A",
"Pg	c #BB5D1D",
"Qg	c #683B04",
"Rg	c #6E3F00",
"Sg	c #844812",
"Tg	c #B95A16",
"Ug	c #A44F09",
"Vg	c #9D4B03",
"Wg	c #774001",
"Xg	c #362A02",
"Yg	c #874503",
"Zg	c #9B4C08",
"`g	c #A9551E",
" h	c #A15626",
".h	c #553203",
"+h	c #613C01",
"@h	c #5F3605",
"#h	c #A85A29",
"$h	c #944911",
"%h	c #8A4504",
"&h	c #132400",
"*h	c #714505",
"=h	c #8E4703",
"-h	c #994C0C",
";h	c #AA5821",
">h	c #663A04",
",h	c #693D01",
"'h	c #824715",
")h	c #AC561A",
"!h	c #974A07",
"~h	c #392C02",
"{h	c #8D4604",
"]h	c #9C4F1A",
"^h	c #A05626",
"/h	c #5A3504",
"(h	c #673C0A",
"_h	c #96511E",
":h	c #88460C",
"<h	c #7F4305",
"[h	c #734805",
"}h	c #252601",
"|h	c #6B3C00",
"1h	c #8E480E",
"2h	c #A65B2B",
"3h	c #6E3F08",
"4h	c #5C3901",
"5h	c #4F3202",
"6h	c #7F471A",
"7h	c #9F5321",
"8h	c #8D4708",
"9h	c #6E4604",
"0h	c #3A2C02",
"ah	c #844405",
"bh	c #914A14",
"ch	c #945020",
"dh	c #5C3606",
"eh	c #362901",
"fh	c #202601",
"gh	c #6D4010",
"hh	c #80470E",
"ih	c #83470E",
"jh	c #734105",
"kh	c #5E3C02",
"lh	c #543901",
"mh	c #673B00",
"nh	c #723E02",
"oh	c #87470C",
"ph	c #A25B2A",
"qh	c #7D470E",
"rh	c #262601",
"sh	c #5C3706",
"th	c #8B4F20",
"uh	c #A35827",
"vh	c #332A01",
"wh	c #85470E",
"xh	c #824811",
"yh	c #693F0F",
"zh	c #1E2601",
"Ah	c #553500",
"Bh	c #4B3104",
"Ch	c #673D07",
"Dh	c #734204",
"Eh	c #7A4204",
"Fh	c #613904",
"Gh	c #483401",
"Hh	c #4F3400",
"Ih	c #4F3304",
"Jh	c #6D3F09",
"Kh	c #7E450B",
"Lh	c #7D4404",
"Mh	c #703F02",
"Nh	c #7E470D",
"Oh	c #6B3F09",
"Ph	c #413000",
"Qh	c #663D06",
"Rh	c #774509",
"Sh	c #754408",
"Th	c #5C3A01",
"Uh	c #5F3C01",
"Vh	c #643D02",
"Wh	c #6C4003",
"Xh	c #633B02",
"Yh	c #563902",
"Zh	c #443000",
"`h	c #543501",
" i	c #734303",
".i	c #7C4708",
"+i	c #7F4909",
"@i	c #6B3F06",
"#i	c #142500",
"$i	c #4A3201",
"%i	c #352B01",
"&i	c #563801",
"*i	c #2A2600",
"=i	c #342B01",
"-i	c #372D01",
";i	c #372B01",
">i	c #382C01",
",i	c #242500",
"'i	c #453001",
")i	c #724202",
"!i	c #643C01",
"~i	c #633C01",
"{i	c #453201",
"]i	c #5F3A01",
"^i	c #7E4702",
"/i	c #202400",
"(i	c #573600",
"_i	c #523401",
":i	c #784001",
"<i	c #753F02",
"[i	c #6D3C02",
"}i	c #653A01",
"|i	c #523300",
"1i	c #804905",
"2i	c #7C4803",
"3i	c #593B02",
"4i	c #7F4903",
"5i	c #5B3600",
"6i	c #723F03",
"7i	c #703D03",
"8i	c #753E02",
"9i	c #743E02",
"0i	c #6A3A01",
"ai	c #693901",
"bi	c #623902",
"ci	c #563401",
"di	c #543300",
"ei	c #503300",
"fi	c #874A04",
"gi	c #774502",
"hi	c #814A03",
"ii	c #774603",
"ji	c #7A4702",
"ki	c #7F4803",
"li	c #7D4705",
"mi	c #472F00",
"ni	c #573501",
"oi	c #683B01",
"pi	c #6C3B01",
"qi	c #A85407",
"ri	c #A85306",
"si	c #A55207",
"ti	c #934903",
"ui	c #7A4101",
"vi	c #5E3800",
"wi	c #954C04",
"xi	c #A3520A",
"yi	c #A05008",
"zi	c #9D4E05",
"Ai	c #9C4E04",
"Bi	c #924A03",
"Ci	c #9F4F04",
"Di	c #A35006",
"Ei	c #A5520A",
"Fi	c #A7540B",
"Gi	c #A35208",
"Hi	c #423201",
"Ii	c #A95407",
"Ji	c #AB5507",
"Ki	c #AC5507",
"Li	c #934A02",
"Mi	c #523400",
"Ni	c #673A00",
"Oi	c #643A00",
"Pi	c #663A00",
"Qi	c #653900",
"Ri	c #723D01",
"Si	c #423000",
"Ti	c #583500",
"Ui	c #4E3701",
"Vi	c #573500",
"Wi	c #563B02",
"Xi	c #563C02",
"Yi	c #543B02",
"Zi	c #4F3802",
"`i	c #433301",
" j	c #503902",
".j	c #4D3501",
"+j	c #373201",
"@j	c #4B3701",
"#j	c #573B02",
"$j	c #553A03",
"%j	c #593C03",
"&j	c #553902",
"*j	c #583C04",
"=j	c #152500",
"-j	c #3B3001",
";j	c #192200",
">j	c #4F3401",
",j	c #412F01",
"'j	c #473201",
")j	c #442F01",
"!j	c #2E2701",
"~j	c #1F2401",
"{j	c #1E2300",
"]j	c #272501",
"^j	c #312801",
"/j	c #322D01",
"(j	c #3D2E02",
"_j	c #653D06",
":j	c #6A4007",
"<j	c #433101",
"[j	c #603C02",
"}j	c #623C01",
"|j	c #613D02",
"1j	c #6B4004",
"2j	c #6E4106",
"3j	c #453301",
"4j	c #503502",
"5j	c #503601",
"6j	c #583901",
"7j	c #6E4002",
"8j	c #683E02",
"9j	c #543802",
"0j	c #5A3905",
"aj	c #5F3A04",
"bj	c #643C02",
"cj	c #553901",
"dj	c #5F3D03",
"ej	c #5D3A02",
"fj	c #623C02",
"gj	c #553701",
"hj	c #533902",
"ij	c #683F04",
"jj	c #543603",
"kj	c #5F3C04",
"lj	c #4F3602",
"mj	c #513703",
"nj	c #172100",
"oj	c #443101",
"pj	c #423101",
"qj	c #3A3201",
"rj	c #3B3201",
"sj	c #332E01",
"tj	c #322F01",
"uj	c #373101",
"vj	c #0D1D00",
"wj	c #091B00",
"xj	c #081B00",
"yj	c #081A00",
"zj	c #0A1B00",
"Aj	c #081C00",
"Bj	c #1E2401",
"Cj	c #071A00",
"Dj	c #313101",
"Ej	c #2C2D01",
"Fj	c #091D00",
"Gj	c #102006",
"Hj	c #8C8E8B",
"  . + @ @ @ # $ % & $ $ * = - ; > , ' ) ! ~ { ] ^ ^ / ( { _ : : < [ } | 1 2 3 4 5 4 4 6 7 8 9 2 2 9 0 a b c d e d b 2 9 f d g h i ! 7 ~ f b c i f j j j 0 j j . ) k l 5 6 6 8 7 1 m m n o a i i : : c b f a < 0 p q r s t s t u ' 1 t } v w ; x & & x y z f p A B y C % D E E | w w w F | w v G H I 8 0 9 2 : d c / J d d 9 [ ' K L 1 ' 3 M 4 l k 6 ! ~ [ j 9 2 j N b O O b N ~ 0 a : { : e i 9 j 0 i O c i f 0 9 9 j 9 ! ! 7 5 5 5 4 8 ! ' , , ' 9 a d : d { J b b J b 0 ! 6 u } P P > | ; ; Q Q - D & R R R S T U ",
"C V W X @ @ Y Z `  ...X & % +.@.w F  .V 8 ~ e / < ^ J _ #.$.! 9 %.&.> *.> } n 5 5 =.5 5 4 3 2 2 9 9 0 0 b c c c b b 0 0 : c h g -.e ! 8 0 f < $.< N 9 2 9 9 9 2 8 n l 5 5 5 5 } ;.*.>.*.&.! j 2 ^ ,.'.i N 2 f : ! ) C ).w s t 1 u , ; E !.~.{.% R @ ].@ ^./.^.@ ].@ R % (.~.!._.; } u 1 t s x :.<.8 ~ { j 2 < e [.{ 0 9 0 l , +.}.;.P ' 5 5 5 l L l [ 9 9 9 2 2 0 < < $.$.N ! 8 c e h |.d d < 2 b b O c c b 0 0 j 9 2 2 3 4 4 5 5 5 5 n } > *.;.} ~ j ! O _ 1.J < < 2.$.! 8 3.4.P > - = % & 5.Z 6.` 7.Y @ R 8.9.C 0.",
"a.b.c.6.d.d.d.e.f.d.c.c.g.h...].R E y ' 7 ! i.d f j l $._ [ 1 n 1 j.k q k I n j.K n l 6 8 ! 3 %.2 0 0 a < b $.k.j . 2 0 i l.h g m.f ~ n.  ~ . N f b 0 2 2 [ 8 8 8 7 4 5 5 o.n K n n k l n &.} j.k { p.;.~ [ 0 i.8 8 I v - & R ].q.r.s.g.c.a.b.b.f.f.t.u.e.t.f.v.t.f.e.b.b.d.c.g.6.h.q.].R & w v q 3 8 { 2 [ 7 I w.< K &.j.j.L k I n 1 t n l 5 5 4 7 3 8 ! 2 2 2 b $.N j ~ ~ ~ ~ x.e h y.'.O a 2 2 j f $.b < N 0 0 9 %.3 ! 8 6 l n K j.n L k q k } 1 n z.0 _ N 4 j < ( $.3 6 u v x R ].Z g.c.c.c.d.e.e.d.A.c.s.d.u.B.",
"C.D.E.g.F.F.G.H.c.H.g.e.I.J.K.R x P I 6 %.! c : b f ! e ,.O . ~ 3 ! ! 3 7 6 L u L q %.! n.L.u A N O O e m.M.N.O.,.,.O.w.O.P.|.|.g g Q.R.h h ,.w.w.M.m.e S.f <.T L.) %.n.%.z L.u 1 z.l 3 ~ 8 %.n.x.w.T.j.j 0 ^ e ! %.6 L } | = U.V.W.X.a.a.d.Y.h.f.b.B.H.Z.`.H.Z.B.b.e. +h.d.d..+X.++V.@+D w t I 7 ! ! { #+j p L.'.:   ! %.%.2 q L z.1 <.L.%.n.n.p L.T <.n.S.c m.-.l.w.'.h h R.h Q.g |.|.h '.w.w.R.,.O.w.M.m.e i.c $.A u L.n.! %.5 ' ' L q 8 8 ~ 3 3 2 2 d P.O ~ f i { k.! 8 q ' F x $+%+&+*+c.g.H.Z.G.Z.F.f.~.=+-+;+",
"T >+,+'+)+!+~+{+v.d.!.]+^+/+(+_+,+,+  k.O S.p.T.p.p.:+N.O.l.<+M.m.p.[+$.}+}+e m.m.l.|+,.1+R.,.,.P.h -.L.<.L.p 2+:+3+~ j < -.|.|.: x..   . 2+4+<.I r q i h [.R.h P.,.R.,.,.,.,.:+k.N 3+}+T.p.m.M.N.|+<+5+p.m.-.T.O O S.6+7+,+8+9+0+a+b+E.~..+u.`.c+d+H._+e+f+e+g+A.d+c+B.u..+C.h+i+a+0+b+j+U 7+6+S.O O l.-.p.i.}+N.|+N.m.p.p.T.[+3+N 5+|+R.,.R.,.R.,.h R.,.P.2.%.r k+<.>+l+6+  . j O y.|.w.b j ~ x.m+}+n+L.<.6 i.P.h ,.,.R.Q.,.|+l.m.m.p.}+O k.5+p.m.M.l.w.O.M.p.p.p.M.i.S.S.6+o+,+,+p+(+q+r+s+Y.f.t+u+v+w+c+x+y+8+e+",
"z+A+B+C+D+E+s+F+G+H+I+_+J+K+L+M+N+O+P+L+Q+-+H.d.s.h.h.g.'+R+g.s.s.6.s._.S+l+R.y.y.y.R.l+T+U+B+V+W+o+s X+X+X+X+$ Y @.&.j.n 3 h y.0 k 1 } ;.$ Y+Z+Z+Z+Z+P 7+H+B+`+ @.@+@,.y.y.y.P.-.G+(.s.a.e.d.g. +'+c.d.c. + +@@#@$@D+%@&@*@=@-@;@G+J+  y+7+,+>@,@'@)@!@~@{@~@]@)@.@D+8+,+7+y+U J+G+J+^@/@*@(@,@_@-+G.@@ +@@c.c.H.'+@@c.e.a.a.6.:@5+,.y.y.h P.N.<@`+ @[@}@4+' |@Z+1@Z+1@1@@.j.K L ! '.|.0 n K &.| Y Y X+X+X+2@} n+3@V+4@U+T+l+R.y.y.g R.5+r ^.s.6.` s.6.!.C.g.h.r.s.d.@@C.E.%@5@N+N+6@7@J+J+8@I+I+G+^@s+=+9@C+0@{@a@",
"b@c@d@e@f@g@8@S.k.h@i@j@k@l@m@n@o@p@q@r@s@t@u@u@v@v@w@x@y@z@A@B@B@A@C@D@Z+x E@p.h w.F@@ G@x@H@:.I@= J@K@K@;.L@L@;., &.M@z.! R.'.M j.&., L@, &.;.> }.}.X+>.$ G@N@N@O@~.=+-.[.l.<.P@R Q@H@y@y@:.:.y@).R@v@t@u@S@c+S@S@T@U@V@W@X@Y@Z@k@`@ #.#. y+=++#@###$#%#&#*#=#-#;#f.^@x.o+O+>#,#k@'#)#!#~#{#]#^#S@/#/#c+/#v@(#).).y@:.y@_#H@y@B@x :#N P.[.J+<#R@N@N@[#z@>.}#>.}.@.> , &.;., &.j.l : g N n j.&., ;.L@L@;.K@+.X+>.+.|#H@x@G@@ F@w.P.p.E@x Y+D@|#B@B@B@A@z@H@1#2#v@v@/#u@t@3#r@4#5#6#m@7#l@8#9#0#o+S.[+_@a#b#c#d#e#f#",
"g#h#i#j#k#V@v.=+n+l#m#n#o#p#q#r#s#T@B.t#u#R@R@).:.A@v#X+X+X+X+}#>.* w#J@w#x#B@4+: o+Q@_#Y++.> L@> *.> ;.2@}#@.*.L@j.j.j.;.6 O.w.' *.&.&.&.y#z#z#K@A#m B#;.B#B#z#}#C#D#).o+O S.1@x#E#E#C#Y+w#w#w#Z+1@1@z@Q@z@z@z@ . .s.e.F#G#H#I#J#K#L#M#N#p F@V@O#P#Q#R#o#S#o#T#U#V#O#U@8+W#X#Y#Z#`# $I#.$+$f.e.6. . .z@ .z@Q@B@1@1@Z+Z+w#Z+A@@$Y+@$x#S ( N E.#$:.Z+}.K@B#m *.m z#}.K@$$L@y#&.&.m &.e g ~ L@&.j.j.L@*.%$I@J@m ;.B#*.L@;.+.Y+y@z@U : 4+B@C@w#J@1@I@>.}#X+X+X+X+v#z@:.).R@R@u#t#B.T@&$*$q#=$-$;$>$,$n+D.]#'$)$!$~$h#{$",
"]$^$/$($_$:$<$G.[$}$|$1$2$3$4$+#v.t#t#t.u.).Q@z@A@@$Z+w#w#|@J@J@J@5$w#I@K@>.F 5+n.E C#@$Z+X+%$*.}.>.K@m 6$2@K K K M@M@M@7$k w.w.1 A#M@z.M@8$z.M@}.}#}#J@J@X+A#A#6$9$0$_#@ 6 i - * +.I@E#C#@$E#Y+a$1@1@1@` A@4.4.Z r.6.s.f.b$4$c$c$d$e$f$g$f+h$i$j$V#P#k$l$m$l$k$P#V#n$i$^@o$p$q$r$s$c$c$4$+#d.s.` r.t$4.4.t$ .v#1@Z+a$Y+E#@$C#1@>.+.* <.a v x#u$D@a$X+>.X+J@J@2@}#v$L@z.K M@K K K@> e h ! B#&.M@M@K K z.A#6$%$B#>.>.*.B#X+Z+@$C#w$n.5+w I@K@}#w#5$J@J@J@|@w#J@Y+@$A@z@Q@).u.t.t#t.v.x$y$z$A$B$C$D$E$F$<$G$_$H$^$V#I$",
"J$K$L$M$N$O$P$Q$R$S$T$U$V$W$X$V@Y$B.t#t..+|#z@A@B@v#5$|@|@|@X+X+J@|@X++.L ! j { n+w$|#:.C@D@9$Z+6$X+J@A#%$;.&.y#M@M@o.M 8 0 w.'.[ l n z.K M@M@M@;.m >.X+X+6$Z$D@0$`$u$_#& 6 ( 2 k l +.E#@$B@v#Z+1@1@1@1@7.4.7.4.t$ .e.c.b$4$ %.%+%@%#%$%%%^@G.&%*%U#=%-%;%>%,%-%=%U#*%'%=+)%!%~%{%]%^%/%(%_%F#d..+r.t$7.4.4.v#1@1@1@Z+1@v#v#@$1@, 5 q J 0 G C#:%<%`$D@D@[%J@X+}#m }%M@M@8$K z.n l 7 -.h f 3 M l M@M@&., ;.*.}.J@}#6$w#E#0$C@|#:.w$n+{ j ! u +.X+|@|@X+X+|@|@5$w#Y+A@z@|#Q@t.t.|%`.Y$1%_$2%3%4%5%6%R$(%j$O$7%m$8%9%J$",
"0%a%b%c%d%O$ %e%F@f%g%h%i%M$j%k%l%m%n%V@o%p%q%y@z@A@r%s%t%D#A@7.v## % @.5 b d _ p 3.).:.C#Z+Z+a$6$u%v%B#y#y#L@L@L@> L@n L 3 -.w.! z.K &.L@&.w%w%y#&.K@v%a$[%a$1@5$Z+u$x%@ k 2.J 2 k F # :.x%G@q%y%z%A%B%y@C%R@C%D%S@r@G$E%F%k%G%H%I%J%K%L%M%&@.%N%M$O%P%Q%R%S%P%T%M$]$U%s+=+V%W%X%Y%U#n$Z%F%`%<$r@X. &R@R@H@1#.&y%y%z%+&x%_#:.8.&.8 < @&0 P :.:%D@5$5$Y+[%a$6$}#L@y#w%w%y#y#L@j.z.4 -.,.#&L ' M@m L@L@L@L@y#B#v%6$6$a$6$Z+C#:.).3.p _ d b k @.& # v#7.z@G@t%r%[#A@z@D#$&%&&&V@*&=&-&;&>&J$,&'&)&!&x+~&{&]&^&/&(&_&:&",
"<&[&}&/&k$|&1&s+=+2&3&4&5&^$6&P$7&8&9&1%0&a&b&c&.+d&e&f&g&x@h&..^.:@E@%.< : _ '.L.i&y@:.5$>.v%6$K@2@J@M@w%L@L@L@;.L@;.L@&.4 e l.7 &.y#}%}%y#j&w%w%y#M@2@v%B#w#5$X+>.@$x@A@k 2.2.J ^ 0 A ;+{.r.y%k&k&.&B% &D% &D%S@c+/%l&m&n&H$k%>&o&p&q&r&F@s&t&u&v&w&T#x&y&z&A&I$B&C&e%=+=+D&E&F&G&>&5#j#n&H&{&I&c+J& & &D%/#B%k&k&.&+&(.{.K&%.< L&M&#.j P@G@H@|@>.5$w#}.2@v%;.&.w%w%w%y#w%}%L@y#L e |+M M@L@}%L@L@L@L@w%w%y#}#J@B#v%Z+}.5$:.R@3.L.'._ : N %.:#:@^.4.h&1#N&O&N&d&R@1#z%P&n%u+Q&R&S&6&6&N%T&U&V&W&M%E.X&+%Y&Z&`& *.*",
"+*@*#*$*%*N+h+&***=*-*;*>*&*,*,*'*)*h$!*~*(@g@{*M%]*R$]*R$R$^@o$T T W#W#>+o+i.'.L.^*/*u#@$D@(*a$K@v$_*y#}%}%}%}%}%}%}%L@&.4 i.l.7 :*y#L@L@y#w%<*}%y#L@}#v%z#a$D@0$C@#$[*}*r 2.d n.W#T 8+f+|*|*E$^@R$R$R$R$s+s+1*g@g@h+!*&@h+N+!*e%2*W&3*t&,*4*5*5*6*7*8*9*0*a*b*c*6*d*h+&*e*f*3*g*2*e%e%M+h+!*&@6@g@1*E+E+M%R$R$R$R$^@|*|*o$>@T T p f 1.0 h*i*g&:%0$D@9$>.2@_*m L@w%}%w%j&w%}%y#y#l e |+3 M@L@}%}%L@;.}%}%}%w%2@2@%$6$(*(*@$h&/*j*6 #.i.o+e+W#W#L.T o$^@R$R$]*k*]*M%1*g@~*!*D.h$e*'*,*,*l*m*n*-*****e*M+o*C&p*q*q*p*",
"r*s*t*u*;#v*w*x*y*:&z*A*B*C*^&D*'%E*F*G*H*I*J*c+T@|%u#c&u#R@).|#x#x#z@1@Y +.z w.q K*L*v@D#x#`$M*6$[%v%}.$$%$N*}%}%}%}%L@y#5 e l.7 y#L@}%}%}%<*N*N*z#v$6$[%a$9$9$0$:%O*P*Q*S ] %.X+E#C#z@).R@).d&d&C%C%u#R*c+S*J*r@T*U*5#V*G%O$*%I$@%W*X*Y*Z*`* =.=@#+=@=r*#=f*$=s$%=&=*===Z*@*w&W*@%I$*%G%G%V*5#-=T*r@J*s@J&|%u#C%R@` ` ).R@Q@C#C#Z+w ] 2 ;=>=/*#$C@D@9$[%[%[%2@$$%$<*N*<*}%}%w%y#L e |+8 y#L@w%}%}%}%N*N*$$}._*[%6$(*`$x#D#2#,=K*q _ z +.Y v#z@x#:.|#).C%h&c&|%R*T@'=r@)=H*i$F*'%!=~=^&{=B*G&]=^=y*/=(=_=B&:=o*A+<=",
"[=c*}=|=P%1=2=3=4=5=6=7=8=9=0=a=b=c=]&;&;&d=i$e=I*3#s@u@f=X.1#O@x@x@:.@$Z+w#|*_ ) g=h=i=j=B@Z+9$Z$k=l=u%[%}.m=%$N*}%m m }%5 e { 7 y#m m }%}%n=7$A#[%Z$Z$Z$Z$Z$6$$ j=L*^*o=H / W#J@Z+C#:.x@(#(#X.X.X.J&p=d+q=r=s=G*5#;&]&t=u=v=w=x=y=z=A=B=C=D=E=F=G=H=I=J=%=K=L=M=N=O=P=Q=R=S=T=U=V=W=w=X=Y=Z=&%`=p@H* -.-+-@-s@X.X.X.X.f=(#h&|#@$6$@./ ~ 3.o%#-[*C#|@Z$Z$Z$Z$Z$$-2@$$m=N*}%m N*w%l c O.3 }%m *.}%N*%$%-}.u%u%l=k=Z$Z$6$B@j=i=&-g=) _ *-Z+Z+@$y@x@=-O@(#X.f=u@s@3#q@H*--d=;&j%;->-b=X=,-'-)-!-~-4={-]-^-/=/-(-_-:-<-",
"[-}-|-W*1-2-3-4-5-6-7-3-8-o&9-0-@*]$N$a-b-c-d-e-f-e-g-h-i-V.V.B%z@>.K@+.|@= >+1.[ ' Q U.O*D#_#Z+[%[%u%v%[%v%A#B#N*B#I@+.m 5 -.l.j-l >.}#m L@%$A#v%u%[%[%Z$Z$6$_#k-l-m-E t q ( o+; @.P @.= v#1#p=p=+-n-e-o-p-q-r-s-t-k%V*N%u-G&v-v-w-5-x-y-z-A-B-C-D-E-E-F-[-G-E-H-I-C-#*J-K-y-x-L-M-N-Q#z*0-n$k%`=O-o-P-Q-R-o-S-I*T-@-v@x%* = | > D :#( j u v C%V.[#U-@$Z$Z$a$[%u%v%2@%$L@}%}.X+z.M c O.j-m B#I@K@N*%$$$_*a$u%u%Z$[%Z+y@D#j=V-_.' [ 1.>+= |@+.K@= y@W-X-Y-j*Z-`-e-f-e-d-c- ;a-N$]$.;Q#]=+;@;7-#;6-$;%;q*&;W**;}-*;=;",
"-;;;>;>;,;';);!;!;~;);{;];{;<=^;/;(;o*2*g*g*t&h$*@<#-+_;:;<;g.P@P j.j., [;~ };] #+8 t } Y :.O@C@9$[%v%v%v%6$6$w#2@>.1 M k 5 -.-.! =.|;I K@J@J@6$Z$Z$6$[%(*C@#$1;2;{., 1 ' 2 ( / ! 5 L s G v F h.g.c.c. +R+-+@@H.@@3;g*o*2*(;r*r*4;5;6;7;8;8;9;0;a;b;c;d;c;e;f;d;g;h;7;i;j;^;^;4;6;k;/;';r*(;g*t&'*G.Z.A.c.~.@@c.v.b.v.Y.F V G t L k i 2.b 6 K j.x l;m;n;x#D@Z$u%u%Z$[%J@}#>.j.4 =.8 c ,.8 n 3 L >.v$2@v%6$v%v%v%[%9$0$1;x%# j.1 8 #+] d %.G , j.} > w$t#o;p;q;r;*@D.s;e*h$g*s*t&z+t;k;u;j;u;j;9;9;9;9;v;g;,;w;d;x;y;",
"z;A;B;B;C;!@D;!@w;g;E;F;G;H;I;J;K;L;M;N;O;P;K$j#6&e=e=4#o;Q;Q;b&l-R;; w H %.L&] J 2 %.! 3 ! p I l L l l ' 1 t L 6 3 [ j-j-2 ( 2.f j-|;M 3 M n K &., K 1 1 } s ' 5 5 7 ) 2 J 2./ 2 q H [;0.S;;=U.O&;=]#c+]#u+<$T;K$U;V;W;X;Y;Z;`; >.>+>@>c;c;#>>;B;$>$>%>&>*>=>d;$>$>>;b;c;b;->;>>>,>'>)>!>~>{>{>]>^>/>I&{#b$t#B.t.(>u#u.s.;+y u L.3 L&2./ 0 7 6 5 k t F > } j.M@;.> L@M@' 5 o 7 M 9 d _ 9 o o j-7 L 1 &.j.s 1 n K K s k+6 4 M 8 ~ i ] J n.A G w _>:>(><><>[>3#T*}>X$|>1>2>3>4>4>5>x-6>7>8>9>0>a>b;g;b>c>d>B;B;>;e>f>",
"g>h>d;d;,;g;d;g;w;>;i>j>k>l>m>n>o>p>q>r>s>t>u>v>!=`=--w>x>L*y>z>A>B>C>:>C L.^ 2.] $.k.S.S.O J i ^ 0 2 j.t k   f f N f < i d _ #.{ c b f f N N 3 u } } 4 3 ) 0 < f f N ~ 7+d 1.};%.H 4.D>E>i=i=i=#-[*p=d+3#<$F>t-G>H>I>J>K>L>M>N>O>P>Q>R>#>#>%>S>d;c;T>S>U>V>W>S>T>%>#>T>#>$>d;X>Y>Z>`> ,.,+,@,#,$,%,&,&%F*q@I*q=.-L**,=,-,;,#-U.w$I < 2.2.b . 0 f f < a 8 |;6 K &.K 5 . N 0 0 f b ( #.'.c i < N j N j n.5 1 K %.9 < J c c O S.$.S.] @&^ <.P@>,,,',),A>i=B>!,~,{,E*],^,/,(,_,:,<,n>[,},|,1,2,3,4,$>w;w;w;>;>;>;b;5,6,",
"7,8,9,8,0,a,b,c,d,d;e,f,g,h,i,j,k,l,m,n,o,p,>&P$U*c+|%|%R*h&:.R@k&i=q,#-q;C j ] E+r,r,r+s,t,C...u,. a ! ~ < ( 7+% v,w,F z n.N N n+z I Q x x 4+< [ ! 2 i i >+i&~.R+r;Q$*+W@M+: b S Y.x,L*y>O*H@D%D%D%u#T@S@T*y,P$k%~=z,/-A,B,C,D,E,F,G,H,#>I,J,K,L,M,N,O,P,=;Q,R,S,T,U,V,W,X,>;Y,Z,`, '.'+'@'#'$'%'>&P$U*<$&'^#|%c&X.X.1#G@*'*,,=o;='2 2.-'0+;'1&D.*@$@0.u,i };2 8 8 0 c :#F V k+~ . k.O N . r x +.Q U { < %.L.f f n+!.<#D.g*>','F#)%] 0 S ]##-','')'H@H@c&R*|%B.S*-=6&>&!'==n,A,~'{']'^'/'('_':'c;<'['}'|'1'2'3'4'5'",
"6'7'8'9'0'a'b'c'd'b;e'f'g'h'i'j'k'l'm'n'o',-a=p'q'r'H*s'r=q=+-G@1#t'+-*,j*X %.b u'v'w'x'y'z'r=~,t't%Y+j 9 / S+`$A'B'C'D'B'E'I@K@(*F'C'G'D'H'D@P f 0 ! Q _#O*t'I'J'K'L'M'N'O'W+N _.D#I'P'+-1;2#+-r=s=Q'F>d=R'S'T'U'V'9=W'X'Y'Z'`' ).)+)@)d;#)$)%)&)*)=)-);)>),)')))!)~){)])^)c;/)()_):)<)[)})m'|)0=1)2)3)4)E*G*d=s=r=I*v@(#w@5)I'6)v#q ] 7)8)9)0)K'a)s=5)t%_#8.L.0 < ) 5$b)c)d)e)f)M*z#*.D@g)B'h)B'E'D@H ] a 0 +.O@2#s=n-i)j)k)l)m)n)b %.3.x,o)T-5)h&c&T-+-X-r=s'J'p)q)X=,-o'r)m's)t)j'u)v)w)x)y)X,z)A)B)C)D)E)F)G)H)",
"I)J)K)L)M)N)O)P)Q)R)S)T)U)V)W)X)Y)Z)`)k, !.!+!c=@!#!S'J'Q's=P'+-.-$!T-%!&!..) k.*!=!9)-!;!>!,!--T-'!j=3.F j S a$|@| f=D'`$I@A#>.}#Z$c)v@* Y+B@W L.Q X O@t'X-r=)!!!~!{!]!^!/!I+j 0.(#I'(!q=P'.-s's=d=E*_!R'3)2)q):!<![!}!|!1!2!3!4!5!6!7!c;8!9!0!a!b!c!d!e!f!g!h!i!j!k!l!m!n!c;o!p!q!r!s!t!u!v! !.!n,w!x!T'4)J''%y!~,z!r=5).-T-5)P'` f+/ A!B!C!D!E!F!G!Q'X-t't%@ P@<.H B@@$1@1#h)M*J@>.}.|@D@H!t'= X+9$I!f } _.(#'!T-~,y!G!J!K!=!L!*!k.) ..D>%!M!I'+-T-r=s=N!r'S'O!@!P!+!B, !k,v!Q!Y)R!S!T!U!V!W!X!Y!Z!`! ~.~+~@~#~$~",
"%~&~L)*~=~-~;~>~,~X!'~)~!~~~{~]~^~u)1!|!/~ !r)(~_~:~<~j)z'r'Q'[~,=}~X-!,|~D%W#$.~#f-1~2~j)E*w>s@T@T@T-C#E#w G u t k <>n;Z+%$>.}.m X+b)T@r s S S +.C#|#(!2#J&c+i$;-U'3~E!4~5~y+N _;!,6~s=7~8~d=N!E*_!4)3)T'x!q),-9~0~Y'|!a~Y)u)b~c~d~e~f~g~|'h~i~j~k~l~m~n~o~p~m~l~k~q~r~s~t~S>u~v~w~V)h'u)3!1!x~{'|)y~z~x!2)A~S'a)r'N!----8~ -7~B~i-f+d C~K'D~E~F~2)'%4#u@2#M!H@x#Y s y [;u e.1;w#m K@A#*.X+`$m-u t t s [;1@C#T-J&]#3#p@_!G~H~I~J~K~$.L. &L~I't'6~Q's=Q',!a)j)M~:~>-(~r)N~/~O~1!u)S!]~c~P~Q~R~S~T~U~V~W~X~%~Y~L)Z~`~",
" {.{+{@{#{${%{&{*{={-{;{>{,{'{){!{W)~{{{]{^{/{({_{_~:{:{J~<{a)[{i)6~6~}{|{ &) f ~#y'x'l)'%-={#]#T@T@/#D#=-x%@$`$1@k t$C@J@v%2@2@w#a$C@e.<.X D@B@z@C#y@v@S@J&S@{#:$T'1{x'R'r@$.z :; -,=,!i)}~2{4)3)p)3{4~4{_~5{6{N~v!1!3!7{8{9{0{a{b{c{d{R)e{f{g{h{i{j{k{l{m{n{o{p{q{r{s{t{1'R)u{v{~~w{0{r!8{u)a~x{y{z{A{_~B{C{D{#!E{4))!}~}~L*,!7~Z-{*J F{F>G{H{I{>&S*c+J&S@v@D#C#A@A@E#E#<.t,J{a$v%X+2@J@J@5$1#' * D@@$_##$H@f=T@T@]#{#y,K{H~L{G~~#< p  &M{}{z'6~N{O{a)4)J~P{:{Q{R{S{/{T{]{{{~{^~0{U{V{;~W{X{Y{Z{`{ ].]+]@]#]X~$]%]",
"&]*]=]-];]>],]'])]f;!]~]{]]]'{^]/](]S!b~u)]{_]({6{:]P!<]C{[]}]z'z'|]z'1]2]A@I $.9&i)L'3]f-;&4]U@^#` R@h&D#x#5$<%x#l _.x >.6$5]_*2@I@% K&<.@ 0$v#R@x@c&u#.+]#V@1%V*B{6]x'5#_%^ 8+` X.I'}~7]=,f-G~#!8]9]0]a]:]b]N~l'x{Y)8{r!4!c]d]e]f]g];;={h]i]j]k]l]m]n]o]p]q]r]s]t]u]v]w]e;R)^)x]{]y]z]A]9{b~7{a~B]C]z{D]5{<]:~P{E]q'j)}]>!=,N{X-R*F]i M+4#G~G]H]2)'$V@U@t.u#c&(#c&4.E#x#S++ x }.}#J@_*6$}#@.E L E#u$1@|#G@c&h&d&R*{#'$`=S'L'I]>!Q&< I z@J]!,6~7]}~z'}]O!@!<]_~:]n'K]L]M]X)b~^~(]N]^]{~%{O]P]T~Z{Q]']R]S]T]l{U]V]W]",
"X]Y]Z]`] ^.^+^@^#^a>X!$^%^&^*^=^-^;~c~V)S!R!M] !W'6{;^>^:~D{,^G!|]q-'^)^g&% M };  x+!^j)P{~^b%3#B.Q@D#1@|#:.z@5$R k m-G'b)[%u%5]Z$n;{^]^r E R |#H@C#A@).d&r@4]^^/^(^_^:^R$  };n.{. &r=,=<^y's-[^F!:{<]c=}^:]|^_]1^a~8{!{2^3^4^9'5^6^7^8^X!#^9^0^a^b^c^d^e^f^g^h^i^j^k^l^m^n^={&>o^p^q^r^s^t^V)^~u)1!u^v^6{+!w^x^~!P{4~8]}]y^z^[~+-R@E@J f e+A^H~@!B^C^k#r@|% .A@z@:.x%v#7.f+r,A%D^Z$6$5][%<%E^*'s R Z+A@|#C@1@H@z@t.'=F^G^P{K't-E+o+};8 & t%M!!,y^>!G!#!D{9]>^H^6{r)k,M]~{S!U{c~I^J^K^L^M^N^O^={P^Y]Q^R^S^T^U^V^W^X^",
"Y^0,Z^`^ /./+/+/@/b;->#/$/%/&/*/=/-/;/>/,/'/F))/!/~/{/~^<]P{4~H~]/L*(!'!G@D ! L&]*F]6.J&1~L'^/r-}~*'T-F $ z@7.P L 7 //.&J{[%6$a$0$=-)^]^f+s ;.C#D%7.X W-;,>!>!}](/4)U*]#/.]*J ~ w$.+r=d=_/:/:/k)</[/}/|/1/})2/3/4/5/6/7/8/9/0/a/b/c/!]d/R)e/f/Z^g/h/i/n^O,j/#^h]k/n^0,l/+/e/R)X,m/n/o/p/q/r/s/t/t/u/r^v/w/x/y/z/~^a]</A/2~y^i)--p=Z u };U {*c.)=E*4~1~}]=,6~x> .4.c&y@- , ) B/B%C/0$6$6$a$:%=-E>r I , 7.:.# E 2#%!L*D/1~E/0)'=` K&R$L&! D x@v@T-}~F/x'G/P{<]z/H/P%I/J/')K/L/M/s/N/O/P/Q/>]$/R)->R/S/0,T/U/V/W/|-G-0,",
"X/Y/Z/`/ (.(7;={f;R)b;S>+(@(#($(%(&(*(=(-(;(>(,('()(!(~(G{{(](G*q@t@J&^#Y.H 0 a ~ n.  f+~.A.s+B S+W#S+! ) H w | G 7 ^(/(R@y@ .z@G@m;((_(q G Q @ s.k+! H k*o$|*'+'=V@j+n+    f a r K&Y$r@<$/>:(f-4~@!<(,-[(_]x~}(|(1(2(3(&(4(5(6(Z{X!R)g~R)X,+(T~7(8(Z/9(0(a(i/3'8(b(Y{7;X,R)R)g~R)&>c(d(e(D,f(Z'x{k'g(x{h(i(j(_~c=0]P{f-O-F>w>q@b.P@~ L&j n+e+[$1&-=^#<#k(:@W T r h.Q@% D k l(+&t%D^x%).D#h&m(((I } - - v k 8 S ]*{*0.F]b$b.u,z p n.#+j s ` /#t@@-n(n)}]8]o(p(q(r(l^u^]{t)g(Z's(D,t(u(v(w(X,c;->f;f;={7;@/x(@(y(z(A(",
"|(B(C(H-v(=;D(7;X!;;X!E(X,->f;f;f;F(a>a>f;G(k;H(:=:-u&I(**&*&*r;-+ +R+<#/.M%f+T z   . . n.n.n.2 < L&< f 9 j 9 9 0 a j ~ p 8 b k.6 ) 8 ~ 0 0 j %.p %.[ 2 0 a x.n.z W#n.~ 9 %.p L.M%/@'+-+-+r;-+a#l***J(K(L(0;0;k;4;={f;a>a>f;f;={&>^)W>^)M(!]e/N(n^v(O(P(Q(R(S(T(U(h]V(t~W>W(X(Y(X(T~;;={={={={R/4;a;P^Z(_-:=`( _t*=***1&)*e*)*._/@B W#%.) ~ 2 n.p 8+>+. f a 9 2 [ %.! j 0 < 2 p ) q   i.%.p n.j < a 0 0 0 j f < ^ ^ 9 ~ n+n+. . ~ 8 ) W#)%+ :@+_-+._,*l***I(@_#_B&%=$_);%_4;R/R//;R/={a>->X,&_X!4;={I,Z/k/*_=_-_;_>_",
",_'_)_i'!_|(~_{_]_^_/_(___:_<_<_[_7;h;>;w;D;}_|_|_5@1_6*(;a@2_3_4_5_6_7_8_9_0_X L 2   2 W#L.^.8.u,+ w$v = +.+.;.&.M@} ;.;.&.  y+P > ;.> ;.;.*.* X+|@= i&/.u,E w$o$f+! %.< W#~.a_b_c_d_e_f_[(f^&;g_/;';0@c>}_|_D;D;D;D;D;4;h_i_(_j_k_l_m_n_n_o_p_q_r_s_t_u_v_w_x_y_z_A_B_C_D_E_F_a(]_G_H_0(w(I_D;}_D;D;}_}_}_0@J_K_A+L_V#M_T^N_d_O_P_Q_d.k*f 0 ! n.e+E@_.E@S+V ; = I@= @.&., ;., L@P z i.M@, , K K j.&.*.@.@.s V k+p E 9.n.~ . 2 2 I w$9&R_S_T_U_V_W_X_Y_%*M+1_5*5@5@5@|_D;w;>;h;4;f/Z_`_6( :.:e{V(+:*_@:#:$:%:&:*:=:",
"-:;:>:,:':):!:A]~:~:{:]:^:/:(:_:U{$(+:8(::@/';|_|_';<:[:}:|:1:2:3:4:5:d=n-s@h&Y I 9 )%E+).Q@H@1;1;6:O@D@9$a$a$}#m ;.m %$m L@    m *.@.z#B#}.}#a$9$9$E#1;f=G@x%C%R@u#F]/.a x+u# &3#4#`=7:8:9:0:a:b:c:d:e:R/I_D;f:);g: (+:h:d]i:j:k:k:j:l:m:c]c]n:o:p:q:r:s:t:u:v:r:p:w:n:c]z]x:y:z:A:B:C:j:D:E:::);P^a;I_I_,;%_F:G:H:Q^I:J:9:K:5~L:I*J&c&h.j f+:@'+h&Q@y@x%D%)'|#9$9$a$J@}.B#B#%$m *.T :+L@}%m > ;.m >.v%a$9$D@x@M!G@#$y@z@` x+o$9 k 5$h&s@n-{,M:N:O:P:Q:R:S:T:9;U:|_!@F(V:n!b(h/u(W:/:X:Y:Z:`: <~:.<+<@<#<$<%<&<*<=<",
"-<;<>:><r:,<x:A]'<:)s!i')<i'3!!<k'~<2({<]<^<w(!@f:/<(<_<:<<<[<}<C^|<U*z!y,t@1#B@L 9 K&.+S@J&u@j=1<#$0$D@a$6$J@}#}.}#}#}.*.t x.. }%B#}.2@2@2@X+6$9$D@D@x#b)s%1;1#f=u@ &^.9 E@A@H@u@d+F>G*}>2<A&r)3<4<5<6<7<8<D;);9<0<a<b<c<!_!<d<3!3!i'e<f<~:~:n:':':g<h<i<j<i<g<k<':p:+<~:~:l<m<)<i'i'd<s!n<o<p<q<r<#^U:I_{;s<t<u<v<^{<!w<x<k#d=G*3# &:.5.! u,` J&t@(#1;O*=-:%D@D@9$a$J@2@X+2@A#K@> q p.1 }%z#}#}#}.}#w#6$a$9$D@#$)^6:2#X./#.+F]9 L v#1#v@w>~,-=u+3_9=~'y<z<A<B<T,D;D;y(C<D<n/=(E<2!3!i' ))<i'd< )r!+<y]$<,:>:F<G<H<",
"I<J<K<,<L<M<~:l<l< )N<d<O<d<s!`'2!<)<)'<P<Q<f/}_R<S<T<U<V<b^P%*%G$'$p@z!s=u@x@C@s [ W q@J*t@f=H@C#x#C@`$a$Z+%$B#z#}.K@%$m ;.    m B#%-}.A#>.A#}#J@6$<%:%x%|#|#1#/#t@y,W 2 t z@c&u@I*d=y,<$k#M$<!'(W<X<Y<Z<`<C;c( [.[+[@[#[n<!_$[%[O<N<l<f<l<l<'<l<&[*[F<=[-[-[F<;[>[,[~:l<f<l< )i''[)[![!_n<$[~[;<;<{[h;w;][^[/[([_[W'y/n$4]T*H*--@-c&R@x 8 <.|%q=u@f=x%|#_#:%u$9$6$}#}#>.A#A#z#B#m q :+, m B#K@}.}.K@B#J@a$0$C@x#@$H@f=t@3#3#_.[ t C@1#2# -s=w>u+G$H%}<:[<[[[}[|[,;b>D_1[2[3[n<<)2!!<s!O<d<d<:) )f<'<4[5[6[7[>:8[9[",
"I<J<-[i<0[a[b[N< )'<z]l<c[%['[!<)<,[d[e[f[g[h[,;i[j[k[l[m[n[o[!'p[6&d=d=~,w@x@y@v 8 )*K'L:p=t@D%D#J{<%A'Z$Z+z#}.>.}.K@%$%$}%n.U B#7$z#z#}.}.}#}#w#a$D@:%D#x%h&g&2#p=^/$@j-v y@ &u@y,F>`=;&p[^&V'q[r[s[t[u[v[g;w[x[y[z[A[3[`'!_#[%[N<~:d]4[ )B[l<f<A[C[D[E[F[E[r:G[A[b[l<B[l<H[L<'<e<I[#[!_!_d<J[K[L[(_a;>;M[N[O[L>|:<!P[d%j%k%d=`=I*R*c&@ 5 k+L:N{v@w@x@H@D#b)D@9$6$>.}#>.}.z#z#7$B#S+i.;.%$%$B#}.A#}.}.w#9$A'u$D#x%D%t@p=h-!!)*8 v _#x@w@~,d=`=P$H%!'P%l,Q[R[S[T[,;h;U[V[W[X[Y[f<d<s!%[%[c[~:L< ) )N<f<f<Z[r:J<9[`[",
" }F[.}r:+}C[@[@} )e<)<e<%[%[%[%[B[,[#}$}%}&}*}=}-};}>},}l]A,x='}^&)}F*N!~,v@O@=-W 6 r;!}H*@-'!/#x@J{<%D@9$9$w#J@}#A#z#m m ;.n.n+B#%-B#*.>.}.}#w#a$D@`$b)J{G@D%/#2#@-O'C.8 _.1#X.t@z!F*{,&%d%~}x={}]}^}/}(}_}h;:}<}[}h<5[l<:)$[$[c[@[ )B[~[@[}}|}1}2}3}h<h<4}q:h<5}2}6}7}@}@[8}f<l<m<%[#[I[)<f<9}E[0}a}O^h;b}c}d}[,:[e}w=!']&)}y!d=n-X.(#t$L u,f}>!v@w@(#x@J{J{<%D@9$Z+X+}.A#B#%$%-B#r }+;.m m B#A#}#2@J@a$9$(*`$J{G@f='!@-z!F%)*7 _.x@1#2#~,F>F>j%g}'}V'h}i}j}k}l},;4;m}n}o}p}m:~:m<%[c[%[c[B[ ):)B[@}~[q}i<.}=[r} }",
"F[s}g<v:z[t}|}m<c[`'c[e<u}e<e<e<N<l<A[v}w}x}y}F(z}A}B}C}D}h^W=%'^&]&E*{,--X-j=g&+_q e*J~G*q=T-p=D%D#J{(*(*9$a$_*}#E}B#*.B#m n.U *.;.&.}%%$z#X+v%9$D@`$J{x@x@(#w@v@@-:/C.M w$g&p=q=~,{,E*!=~=P[F}e}G}H}I}J}K}h;L}M}N}O}@}c[c[u}@}~[~[~[}}@[f<f<P}Q}Q}R}S}T}K[U}S}z[t}V}W}X}b[@}m<~[~[}}u}c[%[c[Y}Z}`} |Y(h;.|+|@|#|n[}<x={=D*'%E*F>s'p=2#R@' )%!^>!'!2#f=x@G@#$<%0$D@a$2@>.B#m L@}%*.r }+m B#%$*.>.}#J@6$9$(*D@b)D# &(!T-q=G*J~e*q i&g&v@q=d={,E*]&!'%'W=A,$|%|&|*|U:O^=|-|;|9}~[>|e<e<e<O<u}c[%[)[e<@[W},|z['|i<S}r}",
"9[.}h<r}Q})|A[0[0[!|K<~|4}7[7[4}>:-[h<v:{|]|^|F(/|(|_|:|$|m,<|[|U'!='%'%N! -t'w@{.k $@{(--I*d+t@|%D#J{<%`$D@Y+J@}#}|B#, L@&.n.o+L@} L@%$B#}.J@E#C@0$<%J{ &G@x@f=v@@-||$@3 3.v@X-z!F*!=!=D*{=1|n,{}2|3|4|5|6|a>7|8|9|J<-[J<8[8[8[0|0|J<a|b|H[c|6})|d|0|q:e|f|e|D[g|h|V}6}d[,[i|F<-[-[=[=[=[-[r:h<j|k|b[Y{=}l|m|n|o|9^{}F}p|~=!=_!E*--r=T-h&n k+n(q|'!w@1# & &G@E'`$C@@$w#}#B#%$L@j.L@S+}+L@L@, m $$A#J@Y+D@`$`$b)h&u#s@+-q=--{($@5 5.w@t'z!N!E*'%!=r|[|<|n[s|t|u|v|0@{;w|;|x|q:i<y|y|,:z|'|'|'|b|u}~[7}6}Q}K[J<i<F[A|",
"B|C|D|E|F|=[G|H|I|J|K|L|K|M|N|J|O|P|Q|`[R|]|^|r*S|T|U|V|W|@'/-X|1)],7:E{E*z!+-j=(.I ^.](--q@d+c& &G@x%:%0$=-C#a$J@A#}.}.m z.~   } @.A#}.}.}#a$0$O@D@x#G@ &|%|%f='!p=Y|K&3 i&v@.-d='%E{[]Z|%'F}b=y~`| 1q~.1+1={/_d~@1I<Q|#1M|M|L|$1%1%1&1%1*1H|s};< }=1-1g|;1>1,1'1=[]|)1F|E|!1&1%1%1!1L|#1#1J|~1H|{14[b(f;]1^1/1(1_1<!w^1|Z|A~T'R'{,y,+-c&n <.Q&x>'!2# &|%c&x@x%0$G@0$9$J@}.}.}#}#&.T }+M@m }.>.$$2@6$D@x%C@u$x%D# &c&d+q@d=5~0.I (.v@+-z!E*3)T'~=:1X|/-l,I:N^_|<1[1P^}1|111`[21P|O|J|N|M|K|K|J|31E|4151r}F|H|4}E|B|",
"`[6171819101a1b1c1I|$1d1L|M|N|e1N|O|J|K|f1,[g1r*h1i1j1k1l1q[$'V'r|U'm1G>E*H*q=2#..u y 4]H*)=I*u@ -(#_#_#C#t'D@(*[%A#*.&.z.=.k.x.K 1 M@z#J@6$<%<%{^@$:.H@u#r=S@v@T-'!&'r 3 i&j=)=d='%n1~(1)o1p10=6{q1r1s1t1u1a;{[v1a131w1J|N|M|K|L|L|L|I|x1y1z1A101B1C1C1D1E1F19191G101A1H1c1&1I|d1L|L|K|M|N|J|Q|31L[&[`/={I1J1K1L1M1N1a=1|r|O1/!A~E*e=T-c&' %.f.d+T-)'/#p=f=H@H@@$j=x#<%9$J@>., n t z m.=.o.M@*.$$a$(*D@)^x#_#_#G@r=/#q=)=H*G$C u ..2#q=H*!=I{~(p|x!:!e}l,P1K1Q1R1.#O^S1_:y[#1O|O|N|e1N|M|L|d1$1I|b1T1H1U1V1W1X1=1C|",
"Y1a1Z1`1 2.201y1+2x1I|$1L|K|M|M|M|M|M|!1@2!:#28<z+$2%2&2,]q[[|o1o1<(*2=2i$s'.-f=].' q t,z!H*n-p=B~x@Y C@x#u$9$9$[%v%X+}.*.z.x.x.&.&.@.E#a$Z$`$`$:%x#x#@$y@i)p='!+-p=e.~ 3 i&v@n-G*;&-2;24{q)p|1|o'>2,2+]'2 (X!/_z]@2J|w1w1w1N|K|d1d1I|)2I|!2L|&1E|~2{2]2=131*1^2{2C|!1&1$1!2&1I|$1d1d1M|N|w1w1w1#1/2l<(2->_2:2<2[2}2b=x!U'p1~!|212--s'T-c&u 22E.J&+-(!'!!,++C#C@x#J{C@`$(*a$Y+D j.&.) m.1 ;.K@>.J@u%Z$9$b)u$C@# H@>!'!n-z!H*t,q u ].f=.-z!n)32Y=42r|o1V'@^52&26272.#O^8292T1L|M|M|M|M|M|K|$1$1)2x102y101a2b2c261C|`[",
"a1d2y1e2f2R|c1A1&1I|I|d1K|K|M|M|M|M|d2d201e]g2A+A+h2i24|j2k2F}:!F}X=l2Z=r@I*+-1#5.' 3 :@X.3#q=2#x@x%C@H@y@0$(*(*Z$[%}#m L@j.. . &.L@m >.9$(*(*`$<%:%:%:.:._#f=w@v@C%E 9 3 X v@q=w>q@],G{m2n2O1p1}^o2p2q2r2@/X!g1s2t2P|2121w1N|M|d1$1d1I|$1!2&1H1u2v2X1C1%1E|=191w2v2f1A1I|I|I|I|!1d1x2M|N|y22121#1[}+<1'h;z2A2B2C2D2a=O1:1z~B^E2;&I*H*p=u#t 22A Z f=v@w@G@:.C#_#:%<%<%(*(*9$|@*.L@y#) e K L@}%}.6$[%Z$(*`$y@y@C#_#1;v@q=3#X.W 8 ' 5.1#q=n-4#F2G2o(:!w!F}H2I2J2K2L2.#P^k'j:{2d2d2M|M|M|M|K|L|$1)2)2x1M2c1N2O2X1&1!1a1",
"M|K|K|M|P2Q2R2S2T2+2U2!2$1K|M|J|O|V2W2X2Y28|n/';A+Z2`2 3.3m,V'Q%+39]A~!=r@'=v@(#i&I ! [;t@q=q=).x#b)D#x@j=u$`$D@9$J@}.}%L@j.. . y#L@}%B#6$Z$(*`$<%@3#$G@1#x%y@(#v@ &E j 8 5.v@J&s@I*{,S'q'#3$3w!w^%3&3/[*38;R/=3z]-3;3W2H131M|K|d1x1>3!2!2,3'3)3!3M|O|21J|L|K|P|O|M|~3'3{3U2)2)2!2!2x2K|M|P|c1z1]3-3r!Z/h;^3/3(3_3:3a=w!<3c=T'12G*p=t@u@|%t 0 r 4.2#2#G@x%x@x@x%[3}3`$`$Z$6$>.L@L@L@L.i.j.L@;.z#J@a$(*`$u$g&1#x%:%x#C%q=d+s@y ! I +_(#t@'=q@!=T'o(|3B{:!n[132333435@j;53$}0|6373A1J|J|M|L|I|x1U2M2839303d1N|M|L|M|Q|",
"a3a{b3c3(:d3e3f3g3h3i3j3k3l3d2#1~2m3n3o3i|d<p3';0@q3r3s3t3u3a=b=v3B^T'D*)='=J&(#i&q [ A S@d+p=_.Y _#x@x@=-<%0$D@[%v%A#L@&.' j j M@;.N*%$A#2@Z$<%u$=-#$=-D^R I@w@t@u#v 0 3 5.v@/#@-n-F>_!S'#3w3X=,-x3y3z3A3a>R/B3s!)|C3D373P|N|K|@1E3F3G3H3I3J3K3L3M3N3~~/]O3~~P3Q3R3S3T3U3V3W3X3Y3Z3V2J|w1Q|`3`3 451!<`/=}.4+4@4#4$4X=X=%4&4*4_!H*+-t@2#^#t a <.{./#2#Q@I@D#O@#$1;J{<%(*6$}#z#N*m &.) i.n M@L@z#w#a$Z$`$<%1;1#G@x%v#W @-d+u@A [ 5 i&(#J&t@w>D*T'<(=4,-:!-4;4>4,4'4}_{;S1c])4!4~4J|J|J|$1{4]4^4/4R|(4_4:4X:<4(:[4}4b3",
"|4142434445464748494-(04a43[)1b4+}c4D:d4e4f4g4a>b>D(h4i4j4k4l4m4o1n4q'F*s'd++-c&_.q 2 q .+v@5)h&4.D#D#x%Z+0$0$D@a$a$>.y#n 7 k.N n K M@}%}.}#a$`$`$E#:.D#G@).H@t'D%Z q 9 j-_.h&J&p=n-G*F*4)o4B^p(K:p4.*q4r4f;={s4t4u4v4w4x4p}y4z4A4B4C4y_D4E4C<D<D<%(F4G4H4I42434J4K454L4~_M4D:B[c|v1+[N4^:-[+[O4P4}1-(7(a>P^h4Q4R4S4T4G2@!D{_!F>H*I*t@R*` L U4%.=' &(!1;t$c&D#x%E#0$D@D@J@}#%$y#M@z.%.: 4 o.&.B#6$a$D@0$0$Z+H@D#G@].R@t''!.+<.2 q W  &p=@-y,E*O!n4o1a=V4W4X4Y4Z4@/D;8;^<`4z_ 5v1e[>:K<.5d<)[+5@5#5E4$5%52(=(&5*5Y]=5",
"x(D(D((28!J=`/Z/=;g4=;k/0,*_C_C_U(E_t~x(w(~;9;a>b>^;Z(-5;5^=u=>5}/,5:{4)a),!s=Z S ! 9 ~ B 0.).d&(.].7.z@I@y@y@1@D 5$w 3 #&U4};i o o o 4 M@> X+0$:%R 4.x%@$ .h&h&k*S+[ U42 I W '!X-z!,!'5F!)5!5*2A&~5{5]5G(=}=}a;Z{.(::::3'n^^53'E:8,/5(5j/=;@(::`/`/::D(b(g:::`/N(y(8!`/y(=;h]E__5(5n^V(=;=;3'(2::Y{^)={=}';!;:5 =}&~(<5[5E/{(a)~,)=(!.+y 8 U42 L.:#}51#u#C#x#y@x x#C@Z+K@m o.M M M 0 2.9 #&M K |@% 5$:.y@* C#A@r...C%c&!.|5! 9 %.:#6.s=N!J'*4:~<]p(15w38-2535i;%_I_4;~;g: (H(4555U(T(C_8,65=;75k/Y/y(Z/85Z/8!`/::@/",
"O^{;@/(28!9505a5b5c5d5h3e5f5g5h5&}i5j5Y[k5w(.(a>b>}_5@1*O+t;3$A!O#F#Q$F{#@$@k(>+j 0 0 a f < b b O d f . 2 y+6+S.i $.b };/ @&1.#.2.] ] J ^ < N x.y+  6+6+k.N k.b ^ < a 0 j j n.K&C.#@1&l5x$.%m5n5o5g*5*J_b>=}a>P^8!p5 < <4[3[q5r5s5t5k|u5v5w5 5x5n_f/w(.(O^8;P^.(e/8!T(y5#[z5A5B5C5D5L3E5F504&:G5r_T(V:a;=}f:0@1_H5;*I5J5K5L5u+Y$F.a.q.+ j U4a a < ^ N   n+U e+j+n.8+z %.j j < };/ / 2.1.] / J < . j . ,+_+p L.n+k.N x.j N a a a a j 8+._g.t+x$F$9& ;b-M5<=,*d*[1c>b>4;~; (N5r_W}O5x[ |82P5Q5R5S5T5~~U5y51'::7({;O^P^",
"e/V5W5o:y]X5Y5Z5`5 6.6+6@6#6x|$6%6&6*6`}=6C<i/4;=}=}-6;6>6,6'6)6!6~6{6:5]6^6/6(6_6:6<6~#a_[6}6x$-+E@$._ 1.{ / f A s S I ) i ( 2.b . ) I r s < i / 1.1./ %.M%3;Q$r,|6a_16.$26364656665676r4_=869606a6b6c68;R/4;i/N5d6e6f6g6h6i6A:j6@6.6V1 6k6Z5l6m6X[c| |D(O^n6g2Y}c|X5Q|o6p6X1q6r6s6t6u6v6w6x6y6N} <F_::f;4;^;z6A6B6C6D6^6v&]6E6F6G6H6I6J6K6L6M6N6O6P6g*1*n+b 2.2.2.};J L.<.L.p x.O 2.1.d 2 L.I r <.f ( 1.1.1.d T E.Q$a+Q6R6N6S6T6U6:6V6-*W6X6Y6Z686`6 7.7+7@7#7f:f:P^0(%5-<y6$7%7&7*7=7-7e5;7`5>7,7w5u6n:A]u)J=.(V:",
"::'7)7T1a1!7!1O|~7{7H|~1P|O|Z5]7^7/7(7_7:7K<<7^;F([7}7|717273747576777879707a7b7c7d7e7_/)!|]f7*,)^G@)%{ ( n.P |@5$I@}.K@*.&.7 M j.> }%m @.Z+1@| 8 2.2.%.Y x%P'i=g7h7_!p-i7j7k7l7m7n7o7p7q7r7s7t7u7v7w7x7y7^;';z7A7{7Y1'|a2B7B7I|C77[~|Q|`[D7~1E7!1F7*1G7L1g:H7i:*1I7%1~1x1#131~1~|J7K7f6L7M7`}{7I|-<N7e{f:x(O7P7Q7R7S7T7U7V7W7X7Y7Z7`7 8.8+8@8s-#8$8%8!,w@& A / 1.d 6 Q 5$}.> ;., 1 3 f ' L@B#}.>.I@@.u < 2._ U y@t%i=7]z^f->!&8*8=8-8;8>8,8'8)8!8~8q2{8]8^8/8(8h>f: (_8:8m3G7<8[8}8|81821I<H|C|Y5N|!1d2y[T128388!7(",
"D(48k:L|*1I7d28[k<y|J<Y1L|$121i:]|O}d['|L|j5{<z+%_586878889808a8b8c8d8e86_<]:{J~f-J'd=~,~, -X-'!f= &)%/ i % |#b)_#Y+}#z#z#%$1 t *.*.*.K@= 0$0$Y+= d ] L.B@x%D%v@+-.- -~,a)s-G~K'4~f8g8p(h8i8j8,}k8l8m8n8o84;p8y54[w18[b|q8C[i:N|I3r8w1Q|7[k<k<4}I<=1%1B:s87(t8L[*1E|~1F<s}k<{7O|Q|u8v8$1w8x8H[w:{7u6c]N(b>y8z8A8B8C8D8E8F8G8H>7_H8I8J8K8L8G~{,z!M8X-(!f=D#C#V ^ ] t 1@0$C@|@K@*.*.*.} l %$K@z#}.Z+x#:%B@% N d e+x@(#'!X- -s=~,N!N8!}O8P8,5Q8R8S8T8U8C}V8W8X8Y8Z8`88<~;%:m6Y5+} 9L<,|B:z5K|P|D74}k<y|Y1.9I7*1y6')V(7(",
"D(+9@9#92}w8`[4}r:'|K<a|21O|>:v}6[y|8[31K|f<$9(;R/%9&9*9m~=9a8-9;9w3,-o(<(8]>9[{r'{,N!Q'~,M85)w@1; &k*J i R x@D#y@9$X+}.%-%$t t m m @.K@= _#_#:.1@i @&n.Y+x%O@j=5)M8,9Q',=O{)!>9#!8]:~o(P!u3y<'9)9!9~9{9]9p80@(5a4P|L|D7'|6[51a|P2y2D7^9F<h<s}F<J<A|51/9(9Y{_9X}41I< }.}s}h<>:_7~1r8:9J<9}<9>:D7[992t4{;J_.4}9|9192939'9:3}^c=:~P{#!>9)![{,!N!-- -49(!g&G@@$[;};/ v C#|#D#Y B#B#*.*.&.L %$%-z#A#9$_#D#G@7.. J z  &O@2#5)P'~,--N!y!r'J'E{<~:~o(B{w3596979899909a9U[p8b9t4X[J|Y1G<+[c|c9Q|!2d98[K<y|'|8[.2i:]|G5e9::e/",
"b(f9g9@9h9 4K<C7E7Y5E7Y5~1`[J|I|M|w121C7N|a[U5(;z+i9j9k9l9m9n9o9p9v3:]G^<]P{8]>!z'J'w+q9N!~,P'g&1;G@b)j b 8.1##$y@9$X+D x w 1 } +.x = >.* _#1#1#].J };9.E#E^n;O*49*',=8~i)>!K'F!P{A/~!a]h8r9y<s9t9u9m{v9w9N+b>]_n<{7Y5E7Q|P|Q|E7{7Y5~1x9y9z9j:=[A9B9=|C9 |O^D9u4E9B4q:D[y|.}=[K<K<>:F9~|Y5`[Q|{7#1z|82);[1-5G9H9I9Y!J9K9L9M9>^~!A/P{4~K'j)i)8~,=[~P'T-g&H'0$P@< M&S x@=-G@1@K@K@> B#, ' &.*.*.A#9$y@D#x@@ . #+Y G@1;f=N9s=d=N!,=O9N8G!!!P{x^G^:]P9p9Q9R9S9n{T9U9V9K_J(W9.5y221w1Q|P|O|8[K<K<-[F<F<'|'|-[X9Y9Z9`91'.(",
"n! ) 0c9 9G5f618V2V2V2V2V2.0c1x1w1+0~7~7C:r5/_(;/;@0#0$0%0&0[,*0p9=04:d80]G{8]s-_/)!O{!+,=s=X-f=D%h&#$. L&P@1;G@|#@$E## 7.= j.;.|@@$1@w#E#x%1#D%..i f ).Z+u$=-O*t'M8N{z'>!J!_^_^P{</Q{-0;0>0,0'0)0!0~0{0]0N+K_^0s(b4><^9D7_721A1.0e6/0v5(0o6_0:0s_<0[041v)O^~:}0|010A4:79| 620.6Z530V2[9D7{7C74040!:[)g:[1355060708090i}00a0b0~^c0A/:{_^F!j)z'i)Q'P')^1;J{9$_#|*M&H 1#1#G@E#5$5$).v#> K > z@4.v#E#|#G@1#5.0 0 D#H@1#/#r=,9,=8~d0a)_/s-8]4~0]}/e0V4p9p>f0g0h0i0j0['6*u;k0L<_7~7_7+0O|A1y118l061m0l0l0n0B:o0p0q0r0f/Z{",
"W>u!v8#1F|Y1!1)2$1x1s0T2t0t0C5,3v5g3u0J7v0~:p5A+8<w0x0y0z0A0B0C0D0E06_F0E2:{~!F!K'j)a)r'r=@-u@D%R*).).x.};V y@H@:.C@C#v#Y = ;.@.|@J@Z+Y+Y+|#x@c&i&i f @ * 0$=-2#v@5)}~j)!!G0D~M::~,5H0I0I>J0a0K0L0M0N0O0P0M+0@+:Q0R0a3]:,3S0S0M2T0U0U2V0V0V0x111p}W0X0J|i]7;Y031Z0c9z|e6H1+2t0s0t0`0g3M2A1w5 a(:^9.a+a~;5*-*@a#a$a%a&a*a=af_;0b]~^0]A/E/-a;!|]=,[~+-2#1;x#Z+@$o$};A c&O@D#E#Y+Z+|@|@K@&.+.$ 1@C#C@|#H@x%E < 0 ` ). &D%t@q=z!r'N8}]G~K':~@!l2;a>a,a'ap4)a!a~a{a]a<'0@v;^ab3/a^9+0,328,3U0T2T2/0+2x1U2U2A1(aH|P|_a45U>",
"I,i/:a<aT2I|7[x:@<b3P3M3Q3[aR0[a]:a3(:}a2^z7s48<c>0@|a1a2a3a4a5ak46a7a'88a9a0aE~aaF!ban)s'@-R*R@d&E s i M&p & z@C#|#7.+.P P P , P > - & # $ Y x q ] M&i 8 $ :.G@f=f=+-.-_!I~cadaea=0J>fagahaiajakalamanaK_1*0@w(oapaQ3qa_:rara_:c3qa@<@<c~U{O3/:sataf6x:uab;vaX5%1#1O|C7(:P3c3}4(:wa|1xaY:Y:yazaAaBaO(j;[1M+CaDaEaW^z)FaGaHaIaJa8:F0S8daH{;!j*r=T-/#f=x@C@v z ^ M&9 R A@B@v## * = +.*.| - ; % 1@|#|#:.1@H J b F 8.C%u#X.@-w>F>&-K'KaE~0aF0LaMaNaOaGaPa<&Qaq*maRa/;b>G(Sau)raR3Ta/aUaY:Y:Y:VaVaWa~7XaYax9$1e6Za`aV:={",
"R/P^ b.braa3+b2!K4`a{'Y'@bu)8{R!R!{{!<Z'#b#^y(^;J_6@1_t*;#7*+$.%s$M5$b-#%b&b`%*b^^=bn)n)r@t#i&_.y n.};] ] i s ='Q x ='<.8 #&#&2 U4! q H S I I 6 j ] ] ] ^ ) s ='r..+S@4#p@~+J5-b;b>b,b'b($)bf@!b~b{b]b=@k(g@8<.4^5^bb</b2!(b!<t!g(_b1(.'b<1(o<a{:bY:/:4(Z{,;e/o<<br8[b+<1(1(o<}b.'k'3!R!8{~{h'7{|b1b2b^;0@1*1*3b4bv&3$5bW$2%Q#6b7b8bC^v>9bn)`=)=D%.+(.F s . };] ] d <.u S [;C I %.9 [ ! ! M I v 5.8.E G j ] ] / p ='w$(.^#q@Y|#8}]c-d-O8F%;bK$]>$b]%|>@#v&0b _1_5*b>j;h/ab1(~{W)bb!{!{!{8{cbdbeb`a544!Waz5Vat8N(4;a>",
"8<p88<~;x(x(x(i;!;<=<=9;L(L(L(L(@/L(Z(9;k;/;r*N+h+&@E./.+ S ' I S+f+8+e+e+8+f+>@8@G+j+j+>+o+o+x.O ( 2.2.1.1.( / / c J / fbM&] 2.2.( / d d };/ : / };};J / / ^ x.o+7+7+W+U W+U ,+8+o$o$f+q T <.r A E@H B gb=@=@&@2*s;hb<=k;u;J(=*J(l*b9<=<=ibK(i;.4x(i;';b>,;f:x(o_74jbkb[-T/65lbmbr4nbobpblb65g4u*C&l*t&h+k({*B s+g@E+E+=+=+s+g@e%!*5*d*s&]+]+_@qb[$n+N c / M&};};d L&J ^ < 0 < b / M&M&};};i 0 ~ j N b / 2.2.@&( i 7+U qb1*N+!*N+g*e%e%h+P+P+s&g@E+M%M%E.*@E.E.(@O+rbj;i;sb^5T/9,=_=_T(*;T/lbV/V/tbubvbwbxb85';=}F(",
"yb!;k;4;f:K_K_f:8</;t;t;v;zb#=#=%_z+rb%*l*AbBbI(]by$ %(%c$F.#@r;3;,*E.E++ C + T 0 ^ j+CbDb{$Eb~>FbGbB&@_N+P+s&<.W#k*k+q %.a };d i 2 j n.S+k+^@x+1*1*2*-*HbIbJbKbW^35Lb_+f < j S+B C K&<#D.e*s,Mb+#+#c$(% %(%|<NbNbObPbt;R/#=v;J(J(#=t;#=/;s*6*O+}_J_/;^;8;Qb8;K_0@J_J_O+O+0@6*6*0@N+g*o*s*s*K_r*&*~&BbMbA.A.MbQ$t,._C.<#E.E+{*C :#k+f+9 < < . RbSb<:TbV6Y6Dbt;UbF+_+Vb,+o+  N ^ < d / / J 0 . n.>+. j Vb_+.@s*%*WbXbG6YbZb}_g+o+b 0 z A E@k+u,x+6@E./.F]C.Z.MbMbZ.s,4*s;s;(;f*A+p8p8p8p8A+8<p8K_K_K_K_K_p8f:=}8<.4`b",
" c.c'{q<D(8<p8<=2-_]L]+c@c#c$c@bZ'm,/-%c:[b^,-O%{=2)1)424{E27:&%V*k%q@T*&'U@t.{*x.N ^@&c*c=c-cr(,-B^p'E*d=3#|%t$].c& .= ; L.^ J ~ H V q.` `  &|%I*F>E*||:~Q{;c>c,c[2'c)cN . |5e.B.^#&'U*j%j%a-;-Z|p|o11)x!U'U'a=9=N1y~!cA,Y'x{Y)~c@b<)(bx{2_v;s*5@%_{c]cV{(:s!E<^cr*[1s*#=/c&(p<*((c.'1(K4_c:c~/<c[cv=C^Z|p|p|p|Z|^&H%j%6&k#U*'$T@e.b.F]L.b e+}c|c1c2c3c4c<(K'5cU*q= &.+ .r.!.V t %.i b . | - @ R@].@ u.J&w>F*T'o4o(6c7c8c9c0cacf j B a.b${+V@&'k#P$k%b-F^C^^,p|bcU#!']=x/n,f^ccdcec+'(cY'(c&5l,*5`(/;K_%_S/}b1!fcP<",
"gc[aQ3}a0{.4 /hcicjckclcmcncocpcncqcrcsctc({_{ucvcwcA{xcycx^:{<~S'q'@!G{'%y,t@(.U >+/.zcAc'(H/1|;-p@I*/#/#D%R@h& &z@).). .H ^ ^ [;@$t$t$z@H@H@C%D%u@s@I*5#=bBcCc.^z)DcEcM%>+(.J*-=F*G{:~S'3)<~(^B^w3FcGcHcIc;^JcH^KcLcMcNcOcPcQcRcSc']TcUcVc*;K(s*`4WcXcR07[WaYcZc`c5*#=T/ d,c.d']+d@d#d$d.d%d&d*d=dR{-d;dIc>d>dI0z/p1D{q'S'<~:~#8r@T*^#C o+k(,d'dJ9)d!d~d{d=b~,)=@-^#h&x@).` t$A@F < J p 4.` C%H@1#c&u#S@q=I*d=D*2)w^]d^d/d(ds+n.U !.s@q@F*G{G{>9S'D{~!H]_d:dn'<dvc[d}d|d1d2d3d4dRc5dSc6d7d8drc52|c9dG(`cA]_:yaE)0d",
"adbdza}aa{cdddedi^0=fdgdhd/{:](~D]D]-dz/Jc_~x^P!x^~!B^p'!=<~<~[]3)R'r'F>{,J*a.W U >@F]idU;!'7%O#{#B.u.z@d&Q@A@v#5$I@* 5$+.u . ~ ' | - |@5$1@B@t$ .6.d&.+b$&'5#N%{=M_jdkdF@,+3.t.4#y!F>E*E*S'S'[]bcG%[]n4n4n44~G{9]x^_~_~}^:](~(~ !^{ldmdndB,od$(2b'<):pd.a.a):.aqaN<|aybqd9^y{rdsdtdud+!+!}^,-c=c=<(o4O!O!U'D{<~],j%p)p)4)R'E*{,)}F>s@Y.+ I+vdj@wdxdM$j$G$Y$t..+s. .` B@v#5$$ = @.t ! ^ k ; $ $ I@$ v#A@ .).Q@.+B.U@H$N$!'U;ydF]>@U ^..+)=R'F>'%R'S'O!<~[];-p'@!:{4{9]4{c=w^}^}^:]:]}^A{zdkc@cm'Ad.^edY^W9W:W:bdbd+b",
"Bdpdad}a}asdZ]CdA{b]I0z/Jc_~>-Q{z/;^$3Ddh8Ed}/FdH]c0123{G/q'E{R'J'J'y!`=-=v.{.w 7+8@F]Gd^,g}j%r@T@t#C%` Q@v## B@$ r V 5$* +.v | u | +.; [;Y B@t$` ` d&u..+U@:$G%g}U;HdIdacU ='h.'=I*G*{,J'E*F*R'T'2)x!)}],0]x^x^G^Jcz/z/-d:]Jc_~a=B{,-z{r)W'udJdKd}4c3LdMdw{a{pdc3b4NdOdudr)_1|^b=w^w^5{(~-d-d:]~^JcG^<]<]:{S'A~p|3)A~R'E*R'J'y!y,I*`.3.]*W+(@PdQdZ|p[k#'$t#b.d&` Q@ .v#v#- ; +.@.u G H | = 5$x [;* v#v#B@z@ ..+u#^#r@N$],/&GdF]8@7+F {.t#U*;&{,_!R'4)>9q'O!D{7:G^z/-d-dEdh8Dd_{;^-d:]Q{}^}^6{I0b]CdRdSd5dQ3Tdza+b/]",
"n'W'UdVdWdXdYd<|z,Z|2)q'T'D*'%]&],<]G^z/Fd>^x^<]ZdA/D{F!8]E{4)a)a)i)F>p@q@t#{.H 3+e+/@`d e3{G$&'T@t.d&4.7.R 8.5.P n.r K@@.; <.) 1 P | [;q D 8.4.Q@C%u.u.e.`.`.T*.eW_+eM+>@  y '+u.R*d+H*F*{,)}'%R'bcq'A~S'F!P{<]Q{>^[/x^4{T';&O$j%!'p|42,-b=y~@e#e$eMd&5l,l,%e1({:&e*e=e[<(~:],-O1r|;-H%],4{}^~^~^>^G^x^A/G{D*T'[]3)R'E*F*E*y!i$3#^#s.9.E@x.=+-e;em1-b'$]#b.u.u.u#H@Q@7.1@G S D @.H u f+= = I@F %.- 7.Y # t$ .d&t#T@r@6&3{>ea*vde+3+s {.t#w>d=,![{[{a)S'p)P{F!<~c0[/>^~^}/-0-0}/Q{T'],E{U'B^9]42:1<|,e'e)e[aVd`)l'!e",
"~er(z{Nc{e_]M5M$O$/$O#G$O#p@F>F>F*F*F*S'}]O-r'Y|j)G~J~s-G![{J'J'r',!G*q@S@e.3.q f . B (%*412_%Y.r.@ Q@R - t L.j b i ^ L.q %.^ < %.L.L.j ^ j . y * B@ .u.+_r.Y.B.G~E]/%=@U N k+/@c.e.U@w>d=y!{,E*)}E*E**44)S'4)R']e{(O-F>5#5#p@p@U*H$H$H$j$N$^ela/e(].'ebk, !X'{'c<N3/e(e{=d%N$6&H$H$k#p@k#k%`=_!G{P{4~3)>9E{S'_!{,E*{,{,,!y!H*d+t#e.R+B T $.^@Bbt-f8_eH.6.h..+d&B@1@Q <.%.N j q I L.~ J 7 I H f b < n.T t ; 8.A@4.s.g._%3)12(%+   N I X u.S@I*~,J'O{[{J'a)=,s-J~E]j)a)S'E]4~7:E*E*F*F>`=k#G$G$/$G%C*d%E6:ead<ez{r(~e",
"'([e!c.;X*+=4*~b %!b}ef@X$O#k%k%P$k#4#y,y,4#y,F>y!y!)}y!d=y,s')=I*d+3#U@a.9.r N d c x.]@|et+~.0.8.P@M%E$T 2 0 d d c c i b b J d b N $.J O };d n.k+)%x+{*F D 5.Y.Y$Mb1e7+i i n.f+gbW a.t@3#@-@-J*J*w>4#-=p@i$p@<$T*<$U*P$O#O#k#O#G$O#G${&/%)bB&C&0;E_B_2e@'3e4e5e bub6e3$7e.%I&_$O#O#U*k#P$k#P$p@w>4#q@w>`=d=i$H*z!s')=)=r=n-I*s@Y.0.{*z ~ c o+[1I(*+U@(.8.P@F]vd/.C S+i / c d b N $.c d ^ ^ ^ d d d / N %.A + K&Q 8.i&g.&'(%rb>+b d . S 0.t#3#q@w>s'~,~,--r'_!_!J'J'N!w>w>s'y,w>5#k%`=`=G${&.%I&}e}eObhb;%P%8eW';dm,",
"9e0eh1o*M+%@F@6@s&%@.#]+]+L+s&d*J_O+N+N+O+1_6*e%e%2*o*t&2*h+h+g@=@=+qb_+j+,+W+5+: -.-.l.:+-'u,u,u,f+. 0 N < $.S.i f 0 x.f < < $.k.y+x.j j b J b O . T f+A y C M%G+i.m.-.-.e S.3+7+7+G+j+E$8@[$x+=@vdM+h+M+N+1_[1O+O+N+1_1_[1|_1e5@5*O+N+5@5@5@.#.#b>K_aebece _l*F(=}.#O+(;hbhbJ(del*%*t;%*&*deAb**Aba#&***|eQ$a#1&@@r;vdE.E.1*M%z   N b d 2._ -.}+G++ K&Q w E@r 8 N N i J . . j . x.b < f f j 0 N b b f N j ~ ! E@C {*{*-@ee{ { { ( O j n+|*F@g@r;t,G.1&Q$Mb,'I(X&F#X&Aba#******del*&*fes;s;s;s;g*t&M+=+(;%*zb85 /ge",
"heiejekeR]le:=l*_@qbac.@8@. x.met*ib#_;#neb9V+j . .     o+. 6+6+4+oepeqereseteuez+r*s*o*l*de,*[+c ( @&] @&2.e ve=@E+=@/./@K&K&K&|5{*+ k(/.F]U c / ] ] ] / k.>+(@J(hbweweweg_C6xeyezeAeBeCe4+ee$.f $.b < < < k.K+#=De#_4b:-[=u;  o+G+J+F+D+]+t;^5EeFeGeHeIeJeKeLes)MeNeL(5@L+qb_+J+,+W+W+#=j;u;K(v;/;c>ee6+f f k.$.f f 5+k.3@OePeQeReSeTe5;A+A+A+p8K_6*_+x.J d / ] @&/ b E$R$^@|*E$^@R$]*x+R$)%^@qb^@7+: 2.2.] ] ( e O d*Ue0@VeUbVeD;WeXeSeYeZe`e f3+x.x.  o+o+W+7+  y+SbG(L( _%*/;t;I+x.o+Vbg+F+[$s&fe.f+f@f#f$f%f&f",
"*f=f-f;f>fr^bd]~,f'f54W5)fj+$.!f~fv-o,0~{f]fs;n+j x..   >+F+^fq3/f(fU^_f:f<f-$[fj^:]a=P%M_N$t+g.!.>+J ] 2.I+~&<$I*-=y,/#X.p=q=q='!u@f=p=s=x>)=T@(@/ ] : 3+#@g.b$6&M$}f,-|fN1|)1f2f3f4f5fI16f7f^6,@  f b i $.6+1e2%8f9f{}0fafhbj e+`6bfcf34*(@dya:9C5T5dfefffgfhfif,3jfqakfT(k/y(0;f*n+n.u&0bW$xd0~q[B&3+k.i i ^ $.N 8@lfD(mfnfofpfqfrfK;y~sfX=42p,n$u+t,)*-'] ] ] O $@A.s'M8@-D%X.u@T-+-p=X.X.J*I*s@_%2*3+2.@&] c /.$@t+N%%'A*M_}<<!tfufvfwfxfZ@yf8;U:zfo+o+  y+x.j x.s,dcRd<!W$!bPb6+f =+Af=5I-[-$(u)BfCfDf8'EfFfGf",
"HfQ]L]IfJfKfz{LfMfNfNfOf{fPfN n6q[Qf'(w^~}a-k%-+k+j o+(;RfSfTfUfVfWfI:a:G}Cdh^n,,e^,p[d%O#{#T@|%C.V j ] k.Xf:(F>I*T@t#u.R@.+).R@R@.+R@u#D%u@d=j),=3@};b v Y..+t#Y${#<$P$*%,%<|V'A{YffdZfJfi'`f g.gE6P+N $.o+_@U%m$8e_1<er1l,f@. t&}2raw/+gpd'{g(3!7{(bf9@g#g$g%g){MdA]i'&gXc*g=gTd-gs&U ;gs)JfJfm'y/P#t&8@N $.U D$:5>g,g'g/b)g)gT{_dX|V'F}!'n$6&X$F$Y$u..+K&W#/ J e*J!Y|n-f=R*u.u.C%C%C%C%C%u.B.]#I*{,;&!g~g] L&='!.^#Y$V@6&{=^&429={gm,k^y<]g^g/g(g_g:g<g[g}g. j k+H.6&H%v=[!K]|g~/veN ]61g2g3g4g5gscKfNc6g}27g8g9g",
"8fm'_1sfb=}^0gb=,eb=o'agb]g*f /5bg9=p|;-)}]&*4F#D.8@j+6|cgdgegfg~<gg,([!h^W=<|o1Z|!=p@-=3#S@ &.+vdS+< ] vehgG!3#J&|%t.t.R@Q@z@z@R@H@|%C%|%D%t@_!y'ig};i T B 6.e.t#S@S*r@V*^&%'[|[|{}l,C,ebf(jgkglgmgngI+y+E.F{p[p|p[M$z,y~_19-,+u&C]@bW'9~N1|)[<N1<!A,ogMe]';(%5A,y~9~[!~'o'|)y{pgm'Ab-@v=m'9=sf*%~=p|{&N+^@b h1qgrgsgtg )[)y{}!@'F}[|1|'}^&-=3#'=^#u.d&0.I n.};6+ug!!I*u@ &u#C%C%R@z@z@Q@R@u.t.t#S@3#Y|vgo5] J u,{*u.D%S@'$U*5#;-o1,%V'[|y~0~|gu^wgxgygzgAg^fn+[$$@&'D*;&)}bc[co'Bg9@y+-#Cggd|)9~+!b=w^9=|fn[X'X'})",
"X|{}z,1)}f0=o1x!b%O1bcT'g}!*f P,v=p[Z=D**4>9'%F.3;g+F+DgEgFgGg3(9^9^#'<|1|%'^&&%F*d=H*)=3#/# &.+vdn+b M&I+Hg](S*t#t.|%c&@$@$B@B@Y+& x%c& & &/#,!IgJgJ i %.k*s.e.t#J&s@d+y,i$j%p[Z|z,V'KgLgJ4MgNgOgPgQgVb-'3;Z.]&T')}&%A~^e[cQ#>+a#z,o1F}m4m4[c[c|f,eX|<|n[B,Lg<c|f<!0=P%a=a=,-Rgw!w=,*|*Ad|fd%!=j%!=bcp@1&D.6+:5SgTgUgVg1(K4Wgd^<|z,{=d%)}p@I*3#u@^#u.a.F]p 0 };x.:(_/p=D% &c&h&7.B@@$B@@$C#u#u#t.R*'=:(Q-XgM&J >+s+C% &u@3#)=H*F>&%D*%'o1V'n,9^WgJ4YgZg`g h.hJ+]+G.V@D*12R'!=;-8%'(K+o+^%1)[]1|p1O1M_4{|f1):10=y~q[",
"|f[|;-~=g}2)g}T'T'g}k%&%V*vdf x(p[;&+h'%_!F!#8e.-+[$j+@h#h$h%h4(h^x/x=o1%';-j%`=i$--z!n-'!/#(#u#Q+o+< &h-'*h](&'R*).C%:.v#E#D%1#Y+J@C@D# & &t@L*z^JgJ L&2 k*` C% &(#v@q=r=y,G*;&p[g}o1[|<cd^+'=h-h;h>hVbG+#@1&)}0]E*F*g}d%],-#n.g*_$>&bcZ|'}o1^,^,~}~}P[n,N1<![cz,,%sfX=[|1)U''}d%{&M+>@L$*%,hT';&3)9]'$H.h$x. /'h)h!hu!e(!ce}W=p|!'a-`=H*s'.-@-/#D%u#.+F]%.f J x.:(6~T-X.D%c&H@Z+Z+y@ &Y+Y+y@c&R@B.V@'%9_~hJ ^ . E+|%1#/#p=)=H*d=`=;&a-d%p|o,<|n,#'54{h]h^h/h>+F@#@U@J~K'D*129];&z,G+  4$&%)}D*D{x!x!o11)r|g}r|Rgw^",
"w^o1H%j%j%j%;&k%G$4#O#6&I&k(j h>^$&'r@-=y,i$-=g.$@8+j+(h_h:h<hm,/-z,P[%'g};-j%G*z!z!)=@-u@J&D%t#0.o+f i -'[h)!G*T@R@z@1@1@B@Q@:.1@X+Z+|# &c&.-8~=,}hJ i j S d&h&R*^#S@u@@-q=w>G*&%~=%'o1W=|hd^,f1h2h3hg+G+-+H.-=!=e=k#&'u+;&($  &@I(/%G%j%>&*%>&G%N$*%M$,%9=R%I$N$G%O$*%]&>&a-V*I&l5h+8@4hP$I&<$k%)}f-V@@@$@. 5h6h7h8h&5!cV',%P[Z|D*j%z!)=q=@-t@J& &c&R@^.! < J x./>i=r=(#D%H@Y+w#1@H@1#v#Y+1@Q@).^#4#R'9h0hJ < y+|5R*D%/#t@d+r=H*H*i$j%;-Z|P[o1W=m^n[ahbhchdhU )%-+B.!^{,5#U*<$r@p,J+n.F.:$k#-=y,P$`=;&;&V*j%~={gn,",
"O$*%*%p[;-!=&%F*i$X$G$H$_%u,0 ehU%`.T@U@S*r@S*r.K&p fhghhhihjhAd'}'}{=;-D*&%i$s')=d+u@^#R*R*|%t.;+o+f J y+khlhh-u.R@t$% Z+E#& D - = $ B@H@4.0_)+h-J+J ^ 2 H ).h&C%.+u.R*S@s@@-U*;&p[p|r|z,mh-%nhohphqhrhG+-+Z.{#S*&'&'V@{+F$Q$~ )%h$y$G$k#a-*%>&>&]&U#*%*%M$m$H%d%*%a-a-*%a-k%k#+$h$k*>+c${#V@'$}>'$&'{+G.D.. shthuh<hV^mh,%z,r|Z|&%k%4#r@s@J&|%u.C%h&H@^.n.< J N ~#8~L*(#C%Q@I@- @.% R Y+Z+= @ C%^#,=_/P-vhJ k.y+:@t# &^#^#X.'!n-w>z!`=&%D*^&~}%'%'8e=#whxhyhzhS+'+b.'$d+S*U@]#Y$AhG+  t,/%V*O#-=i$)}'%p[D*D*d%M$7%",
"O${& %^$a-j%G%&%K{{+V@4$:@W#j 7@c$q@'=c+]#{+U@h.F]z W+BhChF&Dhv=%'2)!'!=&%F*w>p=s@J&^#|%t.u.a.s.K&o+f i L&7+n.n+[;$ A@C@|#@$_.s w$z@@$v#R P n+x.f J J ^ n.V z@y@R@d&d&u.t.X.3#q@p@i$S'Z|%'Z|Ad[fEh@aFh8@j+R+Z.]#c+U@_%`.k#Gh1*n.T s+a#X$4]k%]&H%p[*%^%}e^%n$Hh^%($>&p[p[]&P$'$ %'*R$W#n+D.R6V@B.Y$'={#`.H.$@~ IhJhKhLhMhz*'}%'T'12i$U*@-u@^#t.u.d&R@y@:.8.) 0 J J x.7+>+u @ B@@$C#R } v A@C#|#z@# gbj+j+G+< i < . |5.+.+C%t#R*D%S@3#d+y,F*'%D*bc'}%'_&x&NhOh0c  f+;+e.U@U@S@c+{#r@F#U . E@r;|<V@u+R';&j%a-N$O#I&j$O$",
"^>ObPhf@_$_${&U%c$(%Mb~&|5+   g+ ;F!4#-=q@4#4#Abg*-@  qbt;QhRhShP;Th*%t-9b}>&'U@Y$t+v.F.MbA.t,]*+ o+N i L&< ~ s x.n.V B@A@@ 5.@ q.z@B@} ~ a s b J J J i   9.k*!.@@H.@@H.Z.F.{#'$X$P$Uh8%C*VhWhXh2%b95@>@ac4*|eU*4#:$T*4#](Yh)%>+]*=@e*,'Ph}e{&_$H$]$}e~b7*_$4bZh^%M$G%O$k%/%ObObr;{*k+>+vdL85#S*U@{#'=V@l5s,>@d*Db`hy/ im1n4x!G/f-d=e=n-t@R*u#u.u.u.R@{.W S+N J J };J r L.6 w B@Q@Q@7.@ @$C@|## u p t p < ^ L&N   /@=@c.t#B.T@]#S@s@@-w>--f->9T'F^!d.i+i@iXb%@  F@s,+#]#]#S@S*4#x'7)>+z gb$@Phc$/%{&/$j$n$^$.%@_]$H$",
"'+._)*)*)*e*._h$)*3;K&|5:#8+#+f d*I(y$3$U%^%}>]+qbF+>@_+g+P+M+&@E.g@1*P+d*g@R$[$[$8+>+L.]*|*e+n+n+< ^ ^ #i< < < 0 0 j A k+0 f f 0 A S . J J ^ };};J J J J >+y+>+W#o$|*n+e+[$[$F@vdF]D.h+P+=+P+P+=+D+^@]*acD+L+/%/%}eZhObI(P+y+N |*=@/@$@X&a#,*F{,*'*'*e*e%Q+t&,*4*s,a#l*,*]b,'*@/.=@|*N e+3b^%{&Hhj$G%$iD+'@acR$7@,@[1N+O+d*d*N+e%g@1*7@F+_+,+j+-@j+G+7+o+f J J J J };i i };f v P@o+. j y+u,_.. a 0 a < f ^ L&i b n+U G+_+qbj+e+_+F+-@D+s&d*d*d*h+W&%i%i[1F+j+e+8@K+>*&iJ56&^${&y$Sb< j ]*+ /.<#1&h$e*'*r;r;r;r;)*(@",
">+j+VbJ+j+G+e+j+e+>+W+y+y+^ L&L&^ N y+. U .@,@SbJ_fe(;|_*i}_0@2*o5h1o5o5(;N+ac,+o+  a 0 D+,@'@VbI+4+x.x.x.x.x.6+x.y+x.6+N f / d x.y+x.3+6+k.k.k.< 6+6+k.6+W+9@F+g+K+3+f y+U ,+D+=i-i&*%*;if*%iA+}_Ve1e&*>iO+s*J_Sb_+U N $.i b b ^ 7+o+U G+J+j+j+J+G+G+,+U ,+_+-@qbqb7@7@^@7@E$>@8@>+f b b $.y+U F+_@L+.#L+]+g@%@'@.@D+%@%@s&5*&@*@(@%@e+U U N y+J+G+,+W+y+i c c c c c c J c c i b i d ] d O i b < $.O i b i i i S.x.7+I+_+E$  j o+,+>+-@1*g@P+.#]+%@,@D+.@,iD+P+P+Sb^@7@F+j+,+e+y+$.L&L&j e+e+[$|*E$E$qb7@^@D+acqb>+",
"|*ac}_1eD+qbqb5@J_1eg+F+_+j+e+z n+j j D+'iY&G&M_/&)i4c[c!i~iT'q'3{4~8]4~G{J!/>l5E+[$f N &&H*H*J*^#v.t#`.'=S*h*S@` e.u.C% .$ ) <.7.C%h&C%u.d&b.`.]#Y$d.c.c.t+H*--x>{ik.o+ac<#F{f}_^P{4~F!@!4~G{E]~i]i~i^iI0C^4{0=y/x$>@N x.U j+_+K+_+_+J+g+.@g+g+g+,iU+D;VeK+/i)@I+y+y+y+W+I+7+x.y+y+4+y+x.N f N j+L_!6X_L$4h-4sf)fP#Z%F^^,^,o43{3{n4ThG.]*F@. $.5*0&Q&<$Ph._'+._t, +#@)*'+R+q.Z r.{.A f | {.R+~.R+'+g.d.f.MbH.@@ +g.{#<$-=|<N < z E$!*R6Y|+h7:F^3{U'g}~=p[(i9%v=!i@%_i`hB&1_,+N f 0 j 0 j x.x.W+K+9@e+o+U ,+9@G+n.g_",
":i<iqdG=[iJdA(V^}i1/(e(e3a|is$^$s$g@>+I5z&1i|/>-!(2if8G{v>!=`=4#e=p@H*--'%Y|[{T*f.#@|5z ;+)=r@J&^#T@]#u@@-q=--d+R* &D% &|#w#A A E#:.h&x@ &D%t@n-n-p=^#B.B.]#J*y!3il(,+^.c.^#S*r'J'F>----d=p@4#'%E]t-UhH]4i&4o(|/N:n4Nb7+Vb`(2%1-D-D-D-5iD-C-ccdd6i7ig]8i9iLg0iai5(:c7-bicidi|i|id$di#(eiv&A+7+,+I&p(fiH^Jcgihi&4~iE]G{F>w>--d=d=d=J'f-d=t+t#K&u,L+]^z'G*&'{+{+{+d+r=H*d+u@/#f=1#h&@$F ~ |@C#D%/#J&X.)=N!--y,d+V@{#]#S@<$4#R+n+k*._A.4#E{G~4)d=H*p@p@e=)}T'B^,5iijiH0;^kili,bJ(  P+z$3$mi+=ni##@%C-3a/cjb/c2_V^oipi@^",
"}2x~k1qirisitiui[</-+!|f}<b=:!o1N-Pbu,4h_~Jcc=&%)})}&%q'!=)!E{E*F>s'y,s's'n-+-+-'!S@|%E+f+]^@-|%t.u#C%y@_#)..-q=:.C#@$D@D@a$u A E#D@D@D@C#C#p=s' &Q@).R@u.t#v.@-)+)%E$h&t@p=@-y,z!z!z!H*~,H*F*E{S')}3)'%5#e=&%~=d%p|H%G+[1M5vi:!{}n,P%;%;%<!B,wi 1xiyiziAiBiCiDiEiFiGiR]W'n[,eb=<!<!|f[c^e#_,+D+bc<(P8T'!=UhJ~],]&]&>9_!p@G*~,s=z!z!z!n-s@t@c&0.e+Hih=]#t.u.C%d&Q@).s'r=c&C#C#C#@$9$F n.Z+@$0$|#:.:.d+Z-c&:.y@C%C%t.|%s@]^k+)% .^#c+@-)=r=s'y,y,s'--F>)!'%)}O-S'@!T'T'h8;0G^H$-@Bbz,42[|b=A{b]j^[<~'eb-~IiJiKir1Li)g",
"[!@'m,=ee^0f5i1b)fU%^%+%+%d%7%)b/%y$>@n$bc>&`=4#3#r@;&R'N!F>d=G*z!s'r=X-X-q=T-(!'!u@2#e%L.J*s'q=f=c&h&x%_#y@:._#C@a$a$`$`$9$H r E#D@D@a$E#@$|#|#).).R@C%t#]#z!H*&'8+acg&2#v@@-X-n-w>r=s'z!s'z!--~,H*'%G*J*S*4#5#n$g}g}G+l*f@|&I$m$(i+%^%+%HhMiJ$w=o,Nimh!c~'m,=e=e<c<cOiN%W$M5^%Mi^exdm$f@_$.@.#n2^&G%k%4#J*4#F>E*H*d=d=z!z!z!s's')=X-q='!v@w@c.. G.z!q@c+t#C%R@).).:.:.C#@$E#D@D@D@='n+a$(*0$9$a$C@:.:.:._#H@H@h&|%t@r=p;f+D.u@u@'!T-T-q=X-.-r=s'G*i$F*F>E*12`=d+q@k%!=bcA~^%D+ %HhV#P[C*5bW$Hh7ePiQiccRim^m,4e~'y~",
"^$Hh5bf@U%NbNb %(%U%^%_$^%U%+$Si]bh$U T;!=}>J*]#q@i$E*2{--H*y,)=n-n-5)+-+-T-p='!'!2#2#e*>+&&s',9d+p= & &H@H@H@_#|#|#C@`$<%(*S A E#D@@$D@D@D@C@|#y@y@y@|%X.p;lh+-c+>+acg&2#2#v@(!+-X-.-X-n-n-n-w>w>z!z'J's'J*J*:$:$a-H$7+qbs;Pb;#}eU%.%H$_$Nb+$Nbf@)b)b.%5bMiTi2%afaf($}e %}e_$_$.%f@5b0bC&I(8@D+^&&%:$-=J*3#z!r'J'y,z!s')=.-.-.-r=.-+-(!2#v@w@c.j )*q=&-UiT@|%H@y@y@|#C@0$D@E#D@D@E#V p 9$`$`$D@@$C@_#y@H@x%G@h&/#u@Q'z!h*p g*u@2#'!)'(!+-+-5).-.-)=y,p@G*F>a)F>y,3#S*T*j$D*U%J+X&NbSiX$)b+%^%/%U%}ef@f@7eafVim$.;7%",
"X$I&1%1% %Nby$ %4]I&/%|</%U%c$AbM+f+y+1%7:{(](&-n-t@p=q=@-'=w>@-/#v@s@p=p='!v@/#/#2#w@e%. f.t#'=d+x,Wi;=r.z@c&H@A@Y x#J{x#D@S S+7.x%G@C#I@1@_#y@A@{.X.XiYiZiT@R*`io+7@1#g&w@u@t@v@'!'!v@2#/#d+w>J*T@c+s@R*R*4#](](6&'*5+k.'@6@** %U%I&X$X$.%1%(%|<(%1%/%^%{&.%1%u+(%|<|< %I&{&{&U%U%!bPb,*qbk.-'|<a-U*U*S@T@p=w>I*s@d+d+t@'!'!p=p=p='!v@2#w@g&c.< h$t@t@Uix>K.m;Q@Q@:.:.D@I@v#y@x%|#='>+D@u$x#x#B@A@_#h&C%C%R* j&+)=r='=`.~ e*2#v@2#2#'!p=p=p=p='!s@@-r@@-)=s=4#d+s@s@e=t-Uhy$x.k(t*Ph(%f@/%I&}>I&I&+$y$(%(% %1%I&{&",
"G$}>1%I&'$|<|<4]}>|<c$|<(%PhF{M%>@  N x+.jv+n(^*n-s@d+p='!t@H*y!w>@-'!v@u@/#u@w@f=1#H@E+x.F]Y$]#&'@-]^i-q.# d&d&t$# B@B@% } ) 0 r P@i&& 7.t$ . .z@Y.W.K*J*S@^#u#q.N F+H@G@1#/#u@v@'!@-T-'!X-,!d=@-t@c+'=S@S@q@~+ugPhj+c N N y+6@t*y$|<u+}>G$G$}>'$1%I&X$_$_${&X$I&u+1%I&X${&X$I&1%+$]bg@y+6+$.b s&G%G!O-y,]#J&c+c+t@w>,!.-v@'!@-p='!u@u@f=1#G@R+$.1*u#u#R*s@x,.-g.R y@R@z@Y v# .+jw 7 n.+.5$x%H@v#4.).C%7.i&@js'p=c+t.t+C.j k(G@1;f=/#u@u@t@'!p=@-@---G*t@'!p=@-@-x>N8s-s-[6F@f o+8@e%,' %U%|<(%u+4]U%c$ %1%1%I&X$O#",
";&;&j%p[;-]&j$G$I&+#b$4$_%s&E$k+u,f+x.6+#@b.v.<#^.6.u@S@J&R*D%'!(#H@Q@A@A@R@R@:.Q@|#$ f+i < -'/i)@/iVb,iW+  U U G+,+U o+. N ^ i i i N o+/i;@7+y+I+I+_+g+}@/i;@vek.c n+Z+C@x#:._#x#|#B@C#z@y@/#S@S@S@J&]#`.K&9.v.U@F{6+c >+n+    J+,*F$'='$T*T*U*`=&%]&j%O#P$G$5#V*k%k#O#:$<$'$u+F$a#%@W#o+>+o+c W+v.T@d.-+g.s@c+c+'=s@.-X-1#G@x@h&G@x@x@H@H@0$W O   M%N+g*s;3b1&h+s&^@^@x+=+|*p ~ 0 i J 2 8 <.k+E@F@F@F@R$=+3b,*,*hbs;2*W#< E$B@x%h&h&c&c&C%h&x@f=n-M8t@J&/#s@'!c&6.H.t+T@F{x.. k+)%R$&@|ec$4$Phy$G${&H$j%j%6&P$5#`=",
"F>)}F*'%F*5#k#G$&' +=@&@=@o+>+k+|*o$$.O _@D.a.(.W 9.& d&u#H@h&H@Q@@$Y+1@7.4.7.A@@$1@| p i i N k+(@D.._r;=@K&/@:@<#'+i&E ='gbs+M%s+M%+ _.'+<#=@=@vdh+6@(@M+g*[$y+d c   - E#C#@$5$1@Y+|@1@B@B@:.c&R*D%|%8.E @ ].u.D%E+$.c )%E$o$W#>+8@g@h+l5J*<$U*k#`=)})};&i$F*E*&%'%`=k#4]'$b$A. +-@  x.  U   d W+f.S@r.i&8.i&s.^#D%R* &Q@B@v#5$5$C#D@C#C#|#Z+G O / d S.;@K+8@8@8@-@o$o$u,{*:#o$e+z z e+f+S+[;y B B E@k+k+8@-@-@_+J+x.d d J L.+.Y+@$z@` ` 7.1@Y+Q@).c&h&h&R*u#i&gbgbY.e.H.%@c f z e+U 7+=+@@H.Y.F.}>U*;&&%D*R'E*)}U*",
"@@{+{#r@Y$b$'$u+Y$^@$.0 . k*<#;+!.+_$.M&J y+C.).Q@# # t$z@z@|#C#@$Y+Y+Z+1@= +.1@@$1@j.2 a H -+g.t.v.B.`.t.R*s.r.` e.6.# 7.4...(.Y.r.Z t$.+`  .s.`.t.t#t+T@]#d&!.gb< a 1 Y+0$Z++.}.}#|@5$Y+Y+v#E#B@|#Q@$ Y @$Q@` + i d f X X i&<#gb  $.$.=@b${+{#Mb+#<$U*Sit&u+p@U*|<_%'$1%]#P+5+5+y+:#/.^.i&9.d J F+'+R@t$7.$ 7.H@H@).C#B@E#Y+|@X+>.@.* @$0$= ) i o+{*0.R*T@v.v.f.t+c.Z Z u.6.].q.Y.R+(.....# t$e.s.r.g.t.a.Y$^#t#t#~.g@L.^ 2 } 5$E#v#K@= 1@Z+Y+Y+|#:.:.).Q@t$# #  .` (@x.c };o+i&0.:@M%n+x.N U  +T*<$'${+-=4#T*4]r;",
"z A F]-+s..+s.|5>+. n.G x u#a.Y.]._.j fbM&f H w y } j.t [;G | = I@& $ Y 5$Z+| } } ' 3 ^ };< G D Z r@v+d0#j3#]#J&e.a.s. . .4.{.5.(.Y.` ).` u#R*`.`.$j%jba&jX.5.y 8 ^ L&j-n } P ; 5$w#Z+* I@* = K@' t G P P > @.- u J / f D R g.c.u.W H z z T ]*-+ + +;+W f+N g@e.b.c.Z.d.=@]*n+. L./@a.g.Y.& _./ c N s Y & x ; @.Q w ; |@1@Z+1@Z+Y+5$= > = @.j.9 L&p ='i&|%)+v+Wi*jGht+t.R@` ` ` 6.q.{.{.7. .A@6.a.d&u#^#s@v+5cv+r@d&(.^.p L&#+k | = K@- 5$1@Y+Y+Y+Y+1@& E P@F | Q w$8.R$$./ / z ..Y.h.e.R+G %.b U P+Z.B.a.b.f.._k+%.",
">+T L.8+R$E+x+|*z L.L.k+u,k*R$acS+. };/ / i p S+<.k r k I k 5 5 k L I H G | ' ) ! f i M&M&J <.P@Z 6.C%|%u.b.B.U@b.b.a.g.Z Y _.F R ].7.d&e.u.T@^#b.6.6.a.R+(.3.o$b J &h=j9 3 ' [;P w , K n 1 1 1 k L n K K t G S+n+c / d %.u,x+F@_@^@o$T W#z z f+f+W#>+>+f < n.u,u,]*gb:#k+r H :#gb:@$@'+0.='L.( d < I w P } j.j.1 ' ' j.j.j.j., - +.| P t ! [ ^ &hi z W ..-jt+t.S;t.`.S@T@u.u#` Z ].8.w$@ 4.6.s.e.b.'=]#t#_;/#J&t.Z E H i M&};< 2 8 q t & Q G s t ' ' L ' t u H ' u [;z b / / ^ r 9.<#;+w$P@y u A A :@$@'+B E@E@r   ",
"/ ] ( : d O c c b $.S.6+/i!f!f)@-'6+d d d d : ( d c d : : : / };J J J c c b i d c c d 2.] };i o+E@[;- Q D 3.+_X w$W w$E P@t ~ . H | G v C ='w$i&0.w$E 8.P@y S+J };J J b k.k.b b $.< < < ^ b ^ < ^ L&i ^ ^ b O ( : ( / ( d 3+I+;@;@H+;j5+5+5+c i.i.m.-.( 2.2.( ( ( -.( ( ( ( ( : : i.i.O c / ( ( ( : c $.n.[ ! [ 2 2 [ ! n.! [ ! ! n.2 0 ^ c d };};J i T _.F @ @ 5.!.Y.Y.i&3.3.w$D Q <.z P 8.5.q.Y.Y.r.r.r.@ R R Q _.u,f };] 2.( / i < . ~ . j j 9 j 0 a f f f x.N ^ d ( 2./ d / : e m+}+i.d : ( / / : c i c : d / d ",
"s&s&o$>@-@6@s+E+Q+h$F{@@4#U*_$/%|<t,f ]+Pb>jG6%*[1D+7@-@qb^@5*M+]+F@x+L+,j@_'j'jy$Z.k(U / ] ( d $.x.    o+y+x.$.$.k.N N N J : ( O N $.$.6+N   U n+n+n.o+  5+c d / < o$h.b.b.4$_%b$x$1*=+s+M%{*E.E$)%|*E$^@ac=+&*Gb)jL+i ^@d.F$1%/%1%F#r;)*3;g*&@(@ac|*)%^@R$y+  y+,+qb-@^@F@F@s+h$**Bb|eG.1*N c G+!jJ_~j3+6+6+$.k.6+  ,+  7+W+W+_+Lb%@P+P+=@k(>@< };M&b . 8+S+I A E@A k+T p n+n+z n+c c j z f+T p p z T f+<.<.<.p   b / / ] $.8@F@d*!j5@*iB+4+4+4+3@{jve[+5+2+[+;jH+]jUe^jV+y+f /j~&]bOby$d.M%x+R$u,>+>@G+f k.3+o+(j",
"_j:j<jQ$#@f.X$[jF20%^,O#&%O$n$6&<$v.G+2>8:B^9]B^b%}jd%=bt-F>d={,lhi$z!G*{,r'd=H*z!)=3#r.0 ( x.n+x+&@Q+g@k(s+]*]*M%s+[$4+ee-.'._ e e i.,+)%[$|*E$F@E+=@E.vd=@B z c n++_T-q@e=d=s'z!--H*----~,H*G*)+f}!^Uh|j{({dbc!i;cJ5W+Q+&'U*;&&%H%k%^&E%,b>b16X&x$b.L51j2j7&3j +Q$Mb4j^>J5)$H$j$&%a-V*G$U@-@K+T;/^bcV*5jL:K~<$J*h*S*@-'!o%o%s@q@x>~,Q'--I*q=t.S+i $.p [$7@.@qbF+_+-',+I+,+7+: -.2._ [._ p.S.3+8@_+8@j+_+[$g+D+D+8@x.$.] ^ <#^#I*Q'5cJ'{,F>o;'=3#T*y,I*J*<$X$G$)$6j+hG{7j8j'iG+S*:$G%a->&`={&-#j#9j.jF#Q$*@G.!g0jaj",
"9&R6{dbj}>f.{+X$}>/%|<+#v.e.6.Y...0.,+7&<6{+U@c+e=j%p@3#J&T@]#T@C%R@C%u#t.u#t.u#u#u#` E a i ; q.cjdj!+w+J*3#c+/#v@S@J&3#T@R$c e+@ ]....+^#'=p;d+q=J*5c](}]*4r@C.N >+_.r.D%|%|%u.u.u.C%C%C%u#R*^#X.S@'!~,Q')=T@`.`.4]5j3+k*R+q.g.t+v.e.'=V@{#u+F$f.x$`%{d/%7)ejfj=b4$+#gj ;K56jk%I&}>'$U@Y$u.f+B+O-K$:$5#n(Y|#8J'z!r=I*d+@-@-@-p=s@c+]#S@s@t@v@` gbk.[$c.-=cjcj)+s@s@c+'=U@v.g.vdk(9.W#{ 7+r;{+v.`.J&T@T@{#'=Uih-hj<$F][;c j 4./#c+S@J&u@p=p=@-3#@-d+w>q@-=5#F>!=3)b-:(;&ThijjjU a.|%Y${#1%I&_$ ;L$b-%b{+t+S&U;!$kjlj",
"F#f.t+t+f.g.r.Z 7.].X i&{.@ Q G ; S 7+A^.jU@t+a.J&'!c&d&.+.+u..+` ).R@u#t..+.+C%4.x [;k < N 8. .]^Z-t@v@7.v## 7.B@4.4.6.d&K&y+[$A@v## # # # ].7.7.4.s@t@)=w>U@W p x.q G & @ ).Q@` s..+R@).R@C%u.u#C%R@C%(!X.d&e.b.F$:$k.>+y v Q ].@ {.5.(.q.Y.Y.h.g.Z.g.H.c.F.B.O6d.g.c.g.g.h.Z Y.r.Z w$P@v N g+F*f.v.e.u..-.- &u#R*|%u#C%).).)..+d&R@R@d&7.X A %.f ]*^#F>y!z!z! &t$A@t$7...7.# # A@B m.u,a..+t$Z A@4.4.4.t$X-n-q|n).+w$f ^ r P@7. .u#u.u.u#C%.+` d&t#t.t.u.u#s@s'S@b.t+x$mjF6x.Q = F (.Z Y.q.Z  .s.s.g.e.{+&&b$v.c.",
"g.g.c.g.Y.Z ..R D F [;S [;} u S+u L.3+[6L:J*d&# v#1@Y Y ` d&` Q@Q@z@ .z@t$v#v#v#$ = % Q n+r .. .` t$v#Y Y # # # v#4. .4.t$7.[$-@z@# # 4.7...Y Y # # # Z  .|%].E H n+| = % % * 5$Y Y t$ .` ).).Q@Q@z@v#5$|@|@% {.`.}>1%k.. <.r H w v G V Q E w$+_{.{.+_!.+_!.!.!.!.(.(.5.3.x Q F F F F s u <.$.,iw>V@v.5.Y 1@1@B@z@).).d&).).` `  .7.v## R D D > I n.v X t..+ .r.7.# # Y ].].7.7.Y z@=@njR  .4.t$4.v## # # Y 7.B@` .+` @ L.. G F @.$ z@A@t$` ).` Q@Q@Q@` d&` 7.v#B@4.Z B.T*K~oj< I t r G | w G F x R ]...h.g.c.d.c. +",
"....R R {...].Y R t$t$r.Y.4.4.7.% r 6+Gh3#p=C%7.B@A@A@A@A@A@t$A@@$v#1@B@z@z@z@z@A@B@v#1@>@T ^.W r.7.1@1@Y 5$5$1@1@# # Y 4.B@|*-@B@R & & % @ R Y Y Y # 4.7.).v V u z * B@A@4.4.4.4.B@B@v#t$` ).Q@Q@z@1@1@1@Z+1@C%s@]#'=6+o$3.@ ].# ..Z r.r.5.X X 5.X % X 8.i&8.X X 5.5.X x 5.Y.q.!.5.X 3.E :@. 9@q@'$@-R $ 5$5$5$B@).).:.R@` t$v#z@4.B@7.7.7.7.Y v p D x ` Q@4.v## # Y Y ].R & & = A@/@;jv#v#& # 1@1@1@1@1@Y 1@v#B@` Z 4.H 8+Y v#v#B@A@A@A@z@4.v#A@Q@Q@Q@z@A@B@B@B@B@# /#w>*&pjb s x i&5.+_!.+_(.].% ]...q.{.(...Z {.",
"# @ @ $ 8.8.% % % 8.; X 8.R $ = } ) $.a.` x Y 7.v#1@Z+1@# # 1@5$5$|@5$Y # # 7.v#1@v#Y = z / i . V D * 1@$ X+$ |@I@& 8.3.;+9.G+o+F P@Q E - Q % * R Y Y Y & F . f $.o+; # # 7.# Y @ Y Y Y # 7.# # Y Y & % & % % $ #  .t.$.W#; & Y R % Q Q ; x x x x x % % % % % % % 8.8.8.8.x E 8.x R Y Y % ='x.J+/#..7.Y $ 5$$ @ Y # 7.v#7.4.# Y Y Y Y # 7.7.7.$ [;b . x.y $ Y Y Y Y $ * % 8.X & X 8.A [+X r.q...7.$ |@Y |@$ 1@5$& i&n+k.d W#I@$ v## B@B@4.4.v#5$5$5$5$1@1@1@v#Y+v#B@4.Y i&u#t,b ' | $ Y R R 5.X % & & R 5.& $ @ ].@ ",
"i&X 0.W F v w F w v q <.L.) q L.9 0 J P@F v +.D % = D z o+f+w > w > > ; A A D $ # R - f+e ( : e f 6 u | +.K@| | > > ;.&.1 ! d S.q L t P P | ; K@- = D , <.$.e O e e e+8.w$8.% Q S H v - - ; ; - H z >+@.| > @.- w x +_c x.L.H H f+W#n.L.r [;y y G 9.P@Q Q E % % x E | | | F S A r [;y P@v r $.7+C%x - +.@.| ; F S y Q = D = % x V gbP@R & & $ _.o+: S.S.  u @.= * % = +.- ;.w G t 1 n.-.) s , > | - +.+.>.I@= | j.L.O d ( N [;* # 1@Y 8.C v - - - D D D B ]*C |@* % % % F @ |5J ! p y [;S s t G Q - - ; Q 8.X R @ 9.",
"S+q n.$.b c 0 f f b i i J n.. i i c ( p 5 %.E@[;| [;~ b d . w @.| > @.+.* * I@I@5$='b : { 2.( : e O d %.p p ~ N ~ 6 5 7 N -.'.{ c < 8 k ' p %.) p 6 8 f d d ( ( 2._ { x.P@R D - $ $ * = - - +.* %.b b r - - [;k j . n.2.c f $.. n+c d J c J c i J i ^ < j . p >+>+U   .   . f b i b N ~ ~ ~ c c [;L.L.@.@.; | u b 2 } - @.; - - Q D Q ; 8.w$A W+{ { : : -.d ~ ' j.t j.t <.P s k 3 N c ,.: 2 k t 1 q z <.1 t ' 2 < ( ( ( 2._ S.p E Y I@% - - +.| , , , P N d 0 u @.- D y q s ) / $.f N N f f N . n+z L.p o+z 8+S S T ",
"$.i 2.'.[.[.#.'.#.'.'.{ -.o+N e i.$.i.2+k.S.2+S.>+x.: : e b ) S+<.) ) z o$|*f+)%E@,+i.i.i.c c b 6+k.: -.: : i.k.O b b b e w.w.-.e c $.k.6+$.i.: ( ( / $.j . k.}+O S.S.5+k+E@S+f+k+k+k+S+<.W#o$u,b b d 5+o$T O i.2+i.e m.i.2+i.x.  -.2.( 2.1.2.2.2._ 2.( c b b / ] 2.( : / 2.] / ( O <.j : : { { d d c e n.V A c c b f+Q y } w P@_.P@V G ='P@f+-.e : : e f N i / ( 2.( -.i.x.. j d m.-.w.l.: f f < O O d ( ( { { $.k.O : : e : : o$_.F [;P@V [;s [;w F r S.: : : f+>+$.$.f N c ( c ( : S+  ( _ _ _ _ { #.#.'._ b 2 N ",
"VbU x.S.( [.,.'.( e c O   M%(@h.a.a.e..+R@Z _.[;H r y E+)%z n+. N c c c k.j+E 6.r.4.].{.{.{.+_^.^./.|5s+:#A A s G P w v [;S+W#W#A v y S V x x V A A u,9.8.x 8.X 5.{.r.6.r.Y. .5.o$$.d J i 0 j   n+o$g@& G G [;w$].Z Z q.(.q.!.W k(U c e c : _ 1.1.d b k.3+W+i.: ( _ _ #.#.{ 2.{ { 5+j+A s+{*{*k(/././.k+T S+A E@o+x.k.f $.i i c e S.>@/@Q+K&K&Q+/.C + + C y :#n+o+n+L.:#B E@T T S+W#x.k.4+>+o$S+S+<.T z n+z e+8+f+S E@:#B + + |5:@Q+F]S x.e : d d O $.N x.7+U T z W#T M%vdF]Q+=@/.=@)%e+7+S.m.: { _ [.[.[.#.-.d i.>@",
":># +.u j [.[.2.b f N A W Q@D%w@'!/#x@C% .= - @.| P w }58.s I r P j 0 ) ='.+).{.]. .{.Z t$` ` Z q...q.{.Q ; | > | @.+.x - ; w > ; - D Q ; Q | > | ; E i&8.^.i&i&i&i&!.!.q...5.z@:.^.8 b j u L.q I F 6.F P P | D x ....r.C%C%C%C%y@X [;2 ~ j J ] 2.%.<.w$R+qj:@[;) 2 2.( i j ~ . <.;+C%C%u#u#c&R@). .@ % @.; ; t$rjG r k 6 8 f b . =':.|#t$z@d&` r.Z Z ..(.].7.+_E - - D 8.8.D % x D | F D x 8.% +.- ; ; Q w$(.s.` ` d&u#u#R@d& .:.z@ .t$sjk+~ 0 j s ' r v ..2;w ;.@.K@% 7.x@f=)'p=+-t@R*+_o$N b f c '.[._ ! H ; {.l;",
";+8.5$s x.'.#._ : $.n+D w$D E w$w$Q | | P G G } 6 8 8 p %.! 8 %.S+i i H R h&z@Y.Y.{.P P P P P > P G G , u t t t t 1 1 1 u u ' I I r ' 1 ' 1 ' ' ' ' I L L ' u 1 1 1 u r gb` s.t$_#7.1 i b L.x.. ~ %.%.%.8 L.<.} } } , > x x x E E x +.' 0 i d / : n.q & tj_>uj@ <.~ / / i f j r x R 5.5.@ @ & w P [;} } I <.q L.q p ~   %.q i f @.x%Q@5.R+!.r u t t t t u ' ' ' ' 1 ' 1 ' u 1 1 u ' ' ' 1 u t t t 1 1 s j.1 G G G P w > w P G G 5.+_0.R@(#R k ^ f [;z ) ) q <.q k u , P P > - - @ ..].5.& X G x.O : _ [.-.6 +.v#r.{.",
"u I [;T c [.w.x.q P | G > P v G , , G s t s k n.n.n+q u I p ~ . $.c -.%.P 8.H L.z %.n.~ u P w P } t t 8 q 6 p f k.j ! %.! n.x.N n.%.n.  k.N N n.L.%.! q k 5 k L k ) j f N U >+T | ; I c c $.f N ~ k u r 6 7 p <.u ' u t G } , P P G P @.*.<.~ b : $.! , r ' s > ) x./ J i 2 } K@@.| @.@.@.*.| , G [;s ' L.L.q ' u ) . N $.$.c $.;.$ P@k(=@x+  %.L.I L ' ' I I 6 6 I k %.%.%.z L.) ) n.n.p ) ) 7 ) p p <.' u I } G P P P P s q I :#|5/.Q 7.E L.( c j ~ ~ n.I ' 6 n+%.k j.P P > | *.| @.; @.- | G L.S.-.[.{   ; w t u ",
"5 ) 6 n.c h i.u | > ' u ' r I <.I I I ) n.~ ~ j .   n.n.p H ) ~ . $.{ $.k u n+. j j j . q , *.> t 8 %.N k.f k.$.b N n.8 %.p %.! n.n.x.N k.f f N k.k.j n.! %.q H k ~ N k.< N x.n.t } 6 c f . j j <.~   ~ ~ n.~ ~ ~ %.q 1 ' ' u u u ' ' j.*.K@} ! : c N k <.I <.t N O : ! &.K@> 1 ' k I k k q k q p n.~ ~ ~ n.n.n.~ n.! x.N j O k.' > ) . N k.k.f . 6 ' k 8 %.3 ~ N f N N N k.N y+~ n.~ ~ %.%.8 %.j $.$.f N k.N ) 8 ' > | ;.I ~ j j . . %.s ' b { b . ~ p r U   ~ ~ j . n.n.%.) <.k q q <.I ' ' t - P n+|+_ f <.8 6 k ",
"8 p 8 2 b P.i.1 > ) f b S.b k.. n+~ x.N k.$.f N .     n.n.%.!   ~ f { m.. p . j j N b S.$.~ P > &.8 N f b $.b S.O O $.2 %.M 7 ) 2 . f S.b N N N $.N j j j 1 } 1 f c c c b N N j %.) b -.b 2 j N ~ j . . . 2 ~ ~ ~ n.! 8 ) <.) j j x.N . 5 > , ! -.e O . p L.L.n.$.i.e ) *.@.u ) %.) ) L.I ' I L ) ~ ~ ~ ~ 2 2 2 . ! %.x.. j c c ) t . j N f b b b N k j.' ! . N N $.f N f $.$.N ~ ~ 8 7 7 8 ! . $.O S.b $.b $.N %.j.*.@.6 j k.k.N j j   <.%.: { x.  ~ p q %.n.    j N f N x.n.p ) L.p o+o+n.n.p t *.L.w.{ 0 p ) L.) ",
"  ~ n.b : h m.6 ' j c e e e b . 8 n.$.$.$.$.$.b ~ ~ . ~ . . .   . b { -.c S.f f f S.e i.c c ~ 8 7 [ j n.N f $.O }+m.l.e b j ~ ~ f O e m.-.b x.0 f N ~ N f 7 5 [ : : : d d O $.< $.S.( { e $.f f N x.j . 2 n.j . j j j j x.~ . f f b $.b j k L   w.-.m.k.. n.n.N e -.{ p K ' j < < $.f f %.n.  2 . . 2 . j ~ . . j x.N N N $.: { c x.f f f O d d e e f k ' ~ f ! . N 0 0 N e p.c O b 2 [ ~ N b m.: i.}+S.$.k.%.j [ l L 6 b c O c $.0 x.N b c { -.N 2 . ~ ~ ~ ~ . n.0 $.$.$.$.$.f n.n.j S.e e c O ) &.%.O.'.i ~ ! ~ n.",
"n.  $.e l.|.h :+5+O m.: m.e i.O N $.O b S.S.k.$.. ~ n.. N k.k.k.N c { : f j f d : : -.m.: : c b $.f . b f I p S.i.w.l.-.c j ! %.0 i.M.|+w.e f ) I b < b < f f b ( { -.( ( ( : b f O _ [.w.c c O k.N j n.L.L.. j N N f b $.N k.i c c c c b . n.i.l.-.M.O . ~ y+}+M.-.{ N p ~ $.O O O b b N x.$.$.N N j j . 6 ~ . N N $.b i.i.w.'.: S.$.O : ( : : -.2.i 0 9 N $.a b ~ %.j $.M.l.l.e k.n.! ~ b -.{ w.i.O . z N f j 0 0 < O : : : ( : d c < f $.-.{ O j N N x.j     ~ y+$.$.S.S.$.b ~ n.S.i.e : : e N   2+h P.m.$..   n.",
"n.. k.k.S.g g |+|+vjh vjl.-.M.l.m.-.e n.>+n.n.N S.O O c e p.e -.T.-.{ d 0 [ [ < d i.i.d d c c i b $.< b $.k.k.k.m.O.{ e b f N b N N }+O.h M.b O S.O O c i i c c d : -.-.-.-.c 0 0 N ( P.,.O.w.{ : -.O O $.k.n.<.r <.p i.e i.i.c i.e { ,.l.m.l.O.w.i.f N   2 ~ 6+$.e w.l.S.}+-.{ : c c c O O O S.T S+I T ~ n+  N b c e -.l.w.,.,.c N f b -.-.( ( ( : d c i b O i S.. n.f }+vj,.m.O N x.. j $.e -.w.m.k.  p f S.f f b b c e : : e : / ^ [ [ j d -.e }+p.O O b k.N N $.  n.n.n+x.d m.m.-.p.m.M.w.|+l.M.1+|.O.5+k.6+~   ",
"n.~ N f k.}+i.m.|+m.p.N.O.l.m.M.-.-.( : e e c e e e : : { { -.M.l.{ { { c 0 < i c c O i $.b O c c c O O O O b : l.'.w.: c c e e i.b c w.,.O.( : d c c c c O O c d d : : m.e b a 9 0 : ,.'.w.l.{ { { m.: e i.c O O i.e e e e m.i.c { { e O S.i.5+k.S.i.k.N j N $.i.e p.M.-.m.l.O.'.: i.e p.e e e O S.[+$.O c e m.-.{ { { w.'.[.,.^ [ f a i.m.m.: : / c c O c i.c O c : : l.,.O.S.N $.c e b $.c l.,.|+e O b $.b O O c c c O b i b O c c < 2 b ( { { -.-.-.l.{ : : e e S.O }+}+i.-.-.-.M.l.w.O.R.O.|+N.|+O.m.5+5+6+n.~ ",
"~ . . ~ n.~ N p.N.}+6+i.,.h R.R.h h '.{ { -.{ { -.-.-.-.-.m.-.l.l.-._ '.{ O b $.< O O O $.f b e e e d c : c O -.l.O.,.w.{ { { { { l.w.'.,.w.{ / d d : e c c c i J c d d : c 9 9 0 ^ '.,.w.{ -.( -.-.-.: : : : d e : m.-.w.O.,.w.l.'.b n.j c c . . f O $.N f j $.O N . . i.k.j j : w.e -.l.-.m.m.e e e e e e : -.-.{ -.-.{ _ '.P./ a U4a b : e e d c c c c c d e e d d ( w.O.O.{ ( -.-.-.-.2.{ '.'.l.m.O c c c c e i.c b < $.O O c b $.$.b : w.{ { w.l.-.-.-.-.( : m.( -.-.( -.l.w.w.N.M.h |+2+k.e |+S.N 2 . . 2 ~ N ",
"-.{ l.M.M.m.i.l.vjvjvj|+O.R.R.Q.|.|.h |+w.w.w.l.l.l.{ { l.l.{ { w.l.'.[.,.,.w.w.w.: : c i O e -.-.{ { -.O.-.-.l.w.'.,.O.w._ w.'.O.'.P.,.P.#.2.{ { 2._ { -.( ( : / e : { w.{ w.l.O.,.P.,.'.: : : ( ( ( : ( ( -.-.-.{ w.,.[.'.w.w.w.,.'.w.|+|+-.S.m.w.l.w.l.M.i.p.m.i.$.j m.m.b < : O.w.'.'.[.'.l.-.: : : : : : -.-.( ( : : { '.P.[.i.O i c : : e O i i J c d e : / d / ] { '.[.,.w.'.w.{ { _ _ O.O.w.-.d d l.e e : : e b f f b c c i.e e M.'.'.w.-.{ { -.-.-.-.-.-.{ { l.l.{ l.h wj|.g R.h l.p.:+M.|+2+N $.$.b O b e ",
"l.w.w.R.Q.h g wjxjxjyjwjwjwj|.wjxjxjxj|.g g y.y.y.h h h y.h h h h R.h P.P.h h h y.h h h ,.h h h h R.h y.h ,.h h y.|.wj|.y.|.g g |.|.|.|.|.y.P.,.,.P.P.P.P.,.P.P.P.h P.y.y.g g g y.y.y.h P.P.'.O.'.'.O.O.,.,.,.h g y.y.y.y.h h h y.g y.|.|.wjg y.h O.O.'.w.w.w.|+l.w.,.O.h g h h P.h O.|+O.,.P.y.[.O.'.w._ { { l.{ { { { { O.,.P.P.h h h h h h ,.O.,.'.,.,.,.,.[.[.,.[.[.[.y.y.y.h ,.h P.,.,.P.y.h ,.R.,.[.h ,.R.,.,.,.'.'.w.w.'.[.,.,.,.P.P.,.P.|+O.O.'.O.O.'.O.O.O.O.,.O.O.y.xjxj|.Q.Q.Q.Q.zjwjg g h |+,.,.|+w.w.}+",
"H L.. p.|+h g wjwjwjxjxjxjyjyjxjxjxjxjxjxjxjwj|.|.g vjT.l+W+6+2+2+S.l+l+2+2+[+ee[+}+}+6+U ,+G+j+8@>+y+x.x.k.5+S.}+N.vjh g xjxjxjxjAjy.R.w.M.S.S.$.f N j . p z U 7+[+:++@T.}+l+[+ee6+ee[+3+4+3+y+BjW+3@p.O.R.h g xjxj|.y.y.y.g |.xjwjg h g h g g O.e k.e+T u,k.i.M.w.h |.wjwj|.|.|.xjxj|.y.y.|.|.|.xjxj|.|.|.y.R.O.w.w.|+O.O.,.,.,.,.R.R.R.h h h ,.w.-.m.e -.{ { { l.{ _ ,.y.g |.xjxjxjxjxjxjwj|.g O.|+w.w.l.w.l.m.e p.-.l.{ O.,.,.,.,.,.,.O.O.O.,.h R.,.O.h g wj|.|.wjxjxjxjxjxjxjxjCjyjxjxjyjyjyjxjxjwjh R.-.}+x.k*",
"- } 5 n.N S.M.|+w.l.R.Q.g y.g xjxjxjxjxjwjg h m.}+k.x.) u K@} <.<.<.<.I <.S+I <.T %.j L.S S k*k*E@k+T L.p %.n.n.n.$.c e w.y.wjxjg ,.l.: c b j . ~ n.p ) L.' H r q %.x.S.k.z L.<.I u u u t G , P Q F P T 2 j N { h xjxjy.y.y.h O.O.O.{ -.e e m.m.f n.I w ; DjQ G p k.-.,.O.w.w.w.,.g g y.y.y.y.|.xjxjy.O.-.e b r ='_.Ejs A E@r f+A k+S+T z   [+y+>+k+[;w F H ' <.6 8 n.o+x.i.: w.h wjxjyj|.R.{ m.S.n.n+z L.<.r A y ='9.9.='='<.~ >+T S+T W#L.L.W#z W#W#S w T y+p.|+R.h |.wjxjxjxjxjxjxjwj|.wjg g h Q.y.O.l.e %.' - ; ",
". 0 k.k.b i.e e p.m.O.h R.w.,.|.xjxjAjwjg |+-.k.N x.N x.n+<.<.o+k.k.. ) n.n.N }+O e l.e S.S.O O c c c c e O S.b N $.e d -.P.|.|.h m.i.m.c c e e e c c c c J i c c c e w.-.O S.N %.8 L.n+j %.p q q n.. x.. f N c -.h |.h y.R.l.e S.S.O O N N f N N k.. ~ n.) I I 6 ! . $.b $.S.e i.e : -.O.|.y.y.|.h l.f ! n.p z q S+S t H I L.I <.q %.2 . k.w.m.O O O b b i i O O O c c O c : m.: h |.xjh '.e c i f $.b S.O S.O O S.b $.f N f e k.j   p L.L.T z >+n+z s } T %.n.  x.S.|+h |.xj|.xjxjg ,.,.h h l.p.e m.c x.n.n.%.7 p ",
"i.: m.-.l.l.-.m.e e e e i.S.e ,.|.xj|.|.R.e }+S.S.S.e i.S.$.$.:+e c S.k.i.i.-.w.l.{ l.{ m.e e e : e e : m.m.m.e i.i.-.l.w.,.g |.,.O.O.l.( e -.{ -.e c c d c c c c c ( _ l.l.{ : O O k.S.e i.S.S.k.5+i.e O i.i.S.}+w.y.y.y.,.-.b ~ x.N f k.k.k.$.e : O b f . f b O e $.j 0 j j N 0 x.. i.-.h y.y.y.l.p.O O b 5+}+$.. ~ N $.c c . j N $.: -.{ _ { e c c c c c c c c e : : e c : m.-.R.g xj,.w.-.: b k.O }+i.e i.e e d c c c e -.w.{ -.l.e $.k.  $.i.i.[+n.. k.}+S.k.k.}+m.M.h |.|.xjg O.e e -.-.: i.e e m.M.m.: e c f ",
"m.M.M.M.M.|+|+O.O.O.,.M.O S.T.h |.xj|.Ajg i.x.S.M.l.S.m.M.l.l.e e -.i.$.e -.w.O.w.w.l.l.l.-.{ -.: m.m.-.w.R.,.O.|+l.l.w.'.'.g |.'.w.O.'.'._ '.[.,.{ e d d d : e d d -.l.w.w.l.-.m.e i.m.m.e S.m.-.-.m.i.l.l.e $.x.O.g y.y.,.w.i.N S.l.l.{ -.{ { -.m.i.c $.N $.O c m.-.: : : m.m.i.$.N i.w.y.y.y.y.p.f S.e M.m.i.m.e m.O S.p.e O i.m.: { w.w._ { e c c c d d c c : { O.'.w._ w.w.'.O.g xj'.'.|+l.M.l.l.w.O.l.m.: e : m.-.-.-.{ l.l.w.w.l.m.p.O i.i.e i.p.T.T.p.p.m.p.$.k.m.g |.|.xjg vjO S.i.l.w.w.w.|+l.l.M.m.m.m.O ",
"p.m.O.vjO.R.R.O.R.O.O.R.l.M.M.|+g wj|.|.wjp.S.T.O.O.$.e M.w.w.-.-.w.{ -.l.|+O.,.,.,.,.O.O.'.,.,.l.-.-.{ '.,.,.,.'.w.w.w.'.,.y.wj,.w.w.'.w.'.[.[.,.w.: e d ( w.-.{ w.w.O.'.w.l.{ -.: e { l.w.l.l.l.-.-.e l.O.w.m.e |.|.y.y.,.{ e m.-.{ w.-.-.{ w.w.w.w.w.c $.S.m.m.M.l.l.{ { l.w.l.O S.e w.P.y.|.y.N.k.e M.O.-.: -.l.l.p.e l.l.m.O : -.{ l.w.w.w.{ -.( -.( d d : -.[.,.[.'.'.'.'.w.O.g wj,.'.w.w.l.|+O.,.,.O.-.-.-.-.w.'.w.w.w.w.'.O.O.O.l.e S.-.w.m.: |+l.l.i.S.w.l.5+$.M.wj|.|.wjg O.e i.m.O.vj,.O.O.O.|+|+R.M.m.i.",
"m.l.O.R.R.R.vjR.R.m.M.h R.,.w.O.g g |.|.xj|+l.,.O.w.m.l.w.w.w.w.l.l.'.O.O.O.O.,.,.P.P.,.h h P.,.O.w.l.l.'.,.[.,.O.w.w.w.O.,.y.xjh O.'.[.,.,.,.,.,.l.-.-.m.l.w.,.,.,.R.O.O.'.w.{ -.-.-.{ l.l.w.w.l.l.l.-.w.[.,.,.,.wj|.|.y.P.'.l.w.w.w.w.-.-.O.,.,.O.O.w.m.i.e w.w.O.'.w.l.e : w.{ w.w.-.'.P.y.|.g g |+O.,.'.-.: -.-.w.l.l.l.l.{ : -.{ l.w.O.O.O.O.O.w.w.l.: : m.l.O.,.[.[.'.'.'.w.,.|.xj,.'.w.w.w.O.,.[.[.'.l.-.-.l.P.,.,.,.,.P.P.,.O.O.O.O.O.w.l.{ l.w.w.l.m.e '.,.|+p.|+|.|.|.|.g l.l.,.R.vjT.l.R.R.R.R.R.R.l.: m.",
"|+,.,.,.R.h h h h R.R.Q.R.R.O.R.h h wjxjxj|+e p.m.l.R.,.,.O.'.w.w.O.'.O.,.,.,.,.P.h h h h h ,.[.O.O.O.O.,.h P.h ,.O.O.'.'.,.y.g h ,.O.O.O.,.,.h ,.w.w.{ w.|+,.h h R.R.,.,.'.w.l.l.l.l.l.l.l.w.w.w.O.,.R.l.l.w.'.O.wjwj|.y.h O.w.w.O.[.,.,.,.h h h ,.O.O.|+w.l.O.O.O.R.h ,.O.O.,.O.w.w.l.,.h |.xjwjg O.O.'.w.w.O.O.w.l.w.w.l.{ { -.-.{ l.w.O.O.,.R.R.h ,.w.l.-.-.l.'.,.,.,.,.'.O.O.h g |.P.'.w.'.w.O.,.,.,.O.w.w.O.O.,.,.h h h h P.,.,.,.,.,.O.'.w.w.w.|+O.O.O.O.w.-.-.m.h xjxj|.h h ,.O.h h h O.,.h h R.R.R.,.O.|+O.",
",.,.,.,.R.h h Q.g g h h R.Q.h Q.h y.wjxjCj|+: m.O.h h h h R.,.h P.P.h h h h R.R.P.h h h h ,.,.P.y.y.y.y.y.y.y.y.g P.R.,.,.h xjwjy.,.w.'.'.,.P.P.h P.P.P.P.P.h h R.R.h h h h O.O.,.,.,.,.,.R.,.,.,.y.g h ,.O.O.|+O.wj|.|.y.O.O.O.O.,.,.h h P.h h h R.R.h R.h O.R.,.R.h h h P.h ,.,.,.O.'.O.,.g xjwjg |+O.O.w.O.h h R.O.O.|+O.O.O.w.w.w.w.O.,.R.R.h h h h ,.,.'.[.'.,.y.P.,.,.,.O.O.h g |.y.'.O.,.,.h h y.y.y.h P.R.R.,.,.P.h h h h P.,.,.h ,.,.,.,.O.O.O.R.R.h h w.M.p.e R.xjxjxjh R.R.R.Q.R.h h h h h h R.,.,.,.O.,.",
"R.,.,.,.R.h h h g g h Q.R.Q.g wjg g xjyjCjR.m.e l.O.h h h h h h P.P.y.y.P.h h P.P.P.y.y.P.O.,.y.|.y.y.y.y.y.|.|.|.P.P.,.P.g xjxjg h '.'.[.P.P.P.P.P.P.P.P.P.h _ O.P.y.y.y.y.h ,.,.,.,.,.,.h R.h h h y.y.h h h O.,.|.|.|.|.R.,.,.,.,.,.h h P.P.h h h h h h g h h h h h h P.P.h R.,.,.,.vjO.,.|.|.|.zjO.O.,.O.y.y.y.h h h R.R.,.,.,.,.,.,.h y.y.y.h ,.w.,.P.P.P.P.y.P.P.P.P.'.'._ '.y.|.xj|.,.,.,.h |.g g y.y.y.y.g g h [.O.h y.h h h P.h h h y.y.P.P.h R.R.h h h O.l.e m.Q.Cjxjwjh Q.zjQ.h h h y.g Q.h h R.,.,.,.,.h ",
"h y.y.y.h h h y.y.g g g wjwjwjyjCjxjxjxjxj|.h ,.h h y.P.h h ,.P.P.y.h h P.h P.h y.y.y.|.Fjg y.y.|.g y.y.y.y.|.|.|.y.y.y.y.y.xjxjxj|.|.y.y.y.y.P.P.P.P.[.[.,.P.P.P.P.y.y.y.y.y.y.h P.P.h P.h h h h |.|.|.y.y.y.y.y.|.|.xjxj|.y.h ,.P.h h P.P.y.h y.y.y.g y.y.y.h h h y.P.y.P.P.h ,.,.,.h P.|.xj|.|.g h h h y.y.g |.y.h h h h ,.,.,.,.P.h y.y.y.y.P.P.[.,.P.,.[.P.P.P.P.P.h P.P.h y.|.Ajxjy.y.P.y.y.|.|.|.y.y.y.y.y.|.y.h h y.|.y.y.y.h P.h P.y.y.y.P.h h h h P.h ,.|+l.O.|.CjCjxjwjwjxjzjg g Q.y.g y.y.h h h h h h Gj",
"y.y.y.P.h y.h h |.g |.wjxjxjwjxjxjwjxjxjxjxjxjwj|.y.y.P.,.|+O.,.,.P.P.P.,.P.P.P.y.g y.y.xj|.|.y.y.|.|.|.y.y.|.|.|.|.y.y.y.y.|.xjxj|.|.y.y.y.P.h P.P.[.[.[.[.[.P.P.P.y.P.P.y.y.y.y.h P.,.,.,.,.,.[.h |.g |.xj|.|.wjwj|.xjxj|.|.y.y.P.P.h P.P.P.,.P.h P.P.P.y.P.h P.y.y.P.y.y.y.h h P.P.y.y.xjxjxj|.wj|.|.|.|.g |.|.h ,.,.,.P.P.h h h y.y.y.y.P.P.P.P.P.P.[.[.[.[.[.P.P.P.y.y.y.|.|.|.xjxjy.y.y.y.Fj|.|.|.y.y.y.y.g y.y.y.|.|.y.g y.y.P.P.P.P.P.h P.,.,.O.O.,.y.y.y.|.|.|.xjxjAjxjxjxjxjwjxjwj|.g g g h h h h h y.y.Hj"};
